;FLAVOR:Marlin
;TIME:4597
;Filament used: 2.93509m
;Layer height: 0.2
;MINX:90.25
;MINY:11.797
;MINZ:0.2
;MAXX:130.722
;MAXY:131.602
;MAXZ:10.4
;Generated with Cura_SteamEngine 4.5.0
M140 S60
M105
M190 S60
M104 S190
M105
M109 S190
M82 ;absolute extrusion mode
M201 X500.00 Y500.00 Z100.00 E5000.00 ;Setup machine max acceleration
M203 X500.00 Y500.00 Z10.00 E50.00 ;Setup machine max feedrate
M204 P500.00 R1000.00 T500.00 ;Setup Print/Retract/Travel acceleration
M205 X8.00 Y8.00 Z0.40 E5.00 ;Setup Jerk
M220 S100 ;Reset Feedrate
M221 S100 ;Reset Flowrate

G28 ;Home
M420 S1 Z2 ;Enable ABL using saved Mesh and Fade Height
G29     ;autobedlevel
G92 E0 ;Reset Extruder
G1 Z2.0 F3000 ;Move Z Axis up
G1 X10.1 Y20 Z0.28 F5000.0 ;Move to start position
G1 X10.1 Y200.0 Z0.28 F1500.0 E15 ;Draw the first line
G1 X10.4 Y200.0 Z0.28 F5000.0 ;Move to side a little
G1 X10.4 Y20 Z0.28 F1500.0 E30 ;Draw the second line
G92 E0 ;Reset Extruder
G92 E0
G92 E0
G1 F1500 E-6.5
;LAYER_COUNT:52
;LAYER:0
M107
G0 F6000 X90.458 Y18.922 Z0.2
;TYPE:SKIRT
G1 F1500 E0
G1 F1200 X90.782 Y17.818 E0.03827
G1 X90.889 Y17.533 E0.04839
G1 X91.203 Y16.809 E0.07464
G1 X91.753 Y15.871 E0.11081
G1 X91.924 Y15.621 E0.12088
G1 X92.402 Y14.993 E0.14713
G1 X93.166 Y14.208 E0.18356
G1 X93.391 Y14.007 E0.1936
G1 X94.005 Y13.511 E0.21985
G1 X94.916 Y12.942 E0.25558
G1 X95.186 Y12.798 E0.26575
G1 X95.901 Y12.462 E0.29203
G1 X96.971 Y12.111 E0.32948
G1 X97.264 Y12.038 E0.33953
G1 X98.039 Y11.886 E0.36579
G1 X99.146 Y11.807 E0.40271
G1 X121.298 Y11.797 E1.13949
G1 X122.202 Y11.849 E1.1696
G1 X122.512 Y11.885 E1.17998
G1 X123.291 Y12.016 E1.20626
G1 X124.348 Y12.329 E1.24292
G1 X124.631 Y12.435 E1.25297
G1 X125.355 Y12.749 E1.27922
G1 X126.31 Y13.308 E1.31602
G1 X126.562 Y13.481 E1.32619
G1 X127.189 Y13.961 E1.35245
G1 X127.967 Y14.719 E1.38858
G1 X128.166 Y14.942 E1.39852
G1 X128.661 Y15.557 E1.42478
G1 X129.233 Y16.474 E1.46073
G1 X129.376 Y16.743 E1.47086
G1 X129.711 Y17.458 E1.49712
G1 X130.055 Y18.506 E1.53381
G1 X130.129 Y18.801 E1.54392
G1 X130.282 Y19.576 E1.5702
G1 X130.363 Y20.697 E1.60758
G1 X130.372 Y57.848 E2.84323
G1 X130.325 Y58.709 E2.87191
G1 X130.291 Y59.016 E2.88218
G1 X130.164 Y59.795 E2.90843
G1 X129.848 Y60.879 E2.94599
G1 X129.743 Y61.161 E2.95599
G1 X129.43 Y61.886 E2.98226
G1 X128.865 Y62.852 E3.01948
G1 X128.688 Y63.11 E3.02989
G1 X128.209 Y63.737 E3.05613
G1 X127.4 Y64.561 E3.09454
G1 X127.172 Y64.761 E3.10462
G1 X126.552 Y65.251 E3.13091
G1 X125.693 Y65.782 E3.1645
G1 X125.43 Y65.922 E3.17441
G1 X124.715 Y66.258 E3.20068
G1 X123.657 Y66.604 E3.23771
G1 X123.361 Y66.678 E3.24785
G1 X122.586 Y66.831 E3.27413
G1 X121.472 Y66.911 E3.31127
G1 X99.321 Y66.92 E4.04802
G1 X98.369 Y66.862 E4.07974
G1 X98.059 Y66.824 E4.09013
G1 X97.281 Y66.688 E4.1164
G1 X96.295 Y66.395 E4.15061
G1 X96.012 Y66.29 E4.16065
G1 X95.286 Y65.978 E4.18693
G1 X94.288 Y65.392 E4.22543
G1 X94.035 Y65.217 E4.23566
G1 X93.409 Y64.735 E4.26193
G1 X92.613 Y63.951 E4.2991
G1 X92.417 Y63.728 E4.30897
G1 X91.927 Y63.11 E4.3352
G1 X91.416 Y62.291 E4.36731
G1 X91.271 Y62.023 E4.37744
G1 X90.931 Y61.31 E4.40372
G1 X90.664 Y60.567 E4.42998
G1 X90.556 Y60.172 E4.4436
G1 X90.484 Y59.879 E4.45363
G1 X90.335 Y59.104 E4.47988
G1 X90.259 Y58.02 E4.51602
G1 X90.25 Y20.869 E5.75167
G1 X90.297 Y20.008 E5.78035
G1 X90.331 Y19.701 E5.79062
G1 X90.458 Y18.922 E5.81687
G0 F6000 X90.853 Y18.986
G1 F1200 X91.156 Y17.959 E5.85249
G1 X91.263 Y17.674 E5.86261
G1 X91.571 Y16.969 E5.8882
G1 X92.083 Y16.097 E5.92183
G1 X92.254 Y15.847 E5.93191
G1 X92.721 Y15.236 E5.95749
G1 X93.432 Y14.506 E5.99138
G1 X93.657 Y14.305 E6.00141
G1 X94.256 Y13.823 E6.02699
G1 X95.105 Y13.295 E6.06024
G1 X95.375 Y13.151 E6.07042
G1 X96.071 Y12.824 E6.09599
G1 X97.068 Y12.5 E6.13086
G1 X97.361 Y12.427 E6.1409
G1 X98.116 Y12.28 E6.16649
G1 X99.147 Y12.207 E6.20086
G1 X121.299 Y12.197 E6.93764
G1 X122.156 Y12.246 E6.96619
G1 X122.466 Y12.282 E6.97657
G1 X123.224 Y12.411 E7.00215
G1 X124.208 Y12.703 E7.03629
G1 X124.491 Y12.809 E7.04634
G1 X125.196 Y13.116 E7.07191
G1 X126.083 Y13.638 E7.10614
G1 X126.335 Y13.811 E7.11631
G1 X126.946 Y14.279 E7.14191
G1 X127.668 Y14.985 E7.17549
G1 X127.867 Y15.208 E7.18544
G1 X128.349 Y15.808 E7.21103
G1 X128.88 Y16.661 E7.24445
G1 X129.023 Y16.93 E7.25458
G1 X129.348 Y17.627 E7.28016
G1 X129.667 Y18.604 E7.31435
G1 X129.741 Y18.899 E7.32446
G1 X129.889 Y19.653 E7.35002
G1 X129.963 Y20.697 E7.38483
G1 X129.972 Y57.848 E8.62048
G1 X129.927 Y58.665 E8.64769
G1 X129.893 Y58.972 E8.65797
G1 X129.769 Y59.731 E8.68354
G1 X129.473 Y60.739 E8.71849
G1 X129.368 Y61.021 E8.72849
G1 X129.062 Y61.727 E8.75409
G1 X128.535 Y62.625 E8.78872
G1 X128.358 Y62.883 E8.79912
G1 X127.891 Y63.494 E8.8247
G1 X127.136 Y64.26 E8.86048
G1 X126.908 Y64.46 E8.87056
G1 X126.304 Y64.936 E8.89614
G1 X125.505 Y65.429 E8.92737
G1 X125.242 Y65.569 E8.93728
G1 X124.545 Y65.895 E8.96287
G1 X123.56 Y66.216 E8.99733
G1 X123.264 Y66.29 E9.00747
G1 X122.509 Y66.438 E9.03306
G1 X121.472 Y66.511 E9.06764
G1 X99.321 Y66.52 E9.80438
G1 X98.418 Y66.465 E9.83447
G1 X98.108 Y66.427 E9.84486
G1 X97.35 Y66.294 E9.87046
G1 X96.434 Y66.02 E9.90226
G1 X96.151 Y65.915 E9.9123
G1 X95.445 Y65.61 E9.93788
G1 X94.515 Y65.063 E9.97376
G1 X94.262 Y64.888 E9.98399
G1 X93.653 Y64.418 E10.00958
G1 X92.914 Y63.687 E10.04415
G1 X92.718 Y63.464 E10.05403
G1 X92.241 Y62.861 E10.0796
G1 X91.768 Y62.1 E10.1094
G1 X91.623 Y61.832 E10.11954
G1 X91.292 Y61.138 E10.14511
G1 X90.945 Y60.077 E10.18224
G1 X90.873 Y59.784 E10.19227
G1 X90.728 Y59.028 E10.21788
G1 X90.659 Y58.02 E10.25148
G1 X90.65 Y20.869 E11.48713
G1 X90.695 Y20.052 E11.51434
G1 X90.729 Y19.745 E11.52462
G1 X90.853 Y18.986 E11.5502
G0 F6000 X91.248 Y19.051
G1 F1200 X91.531 Y18.1 E11.5832
G1 X91.638 Y17.815 E11.59332
G1 X91.938 Y17.129 E11.61823
G1 X92.413 Y16.323 E11.64934
G1 X92.584 Y16.073 E11.65942
G1 X93.039 Y15.479 E11.6843
G1 X93.699 Y14.805 E11.71568
G1 X93.924 Y14.604 E11.72571
G1 X94.507 Y14.136 E11.75058
G1 X95.293 Y13.648 E11.78135
G1 X95.563 Y13.504 E11.79153
G1 X96.241 Y13.187 E11.81642
G1 X97.165 Y12.888 E11.84872
G1 X97.458 Y12.815 E11.85876
G1 X98.192 Y12.673 E11.88363
G1 X99.147 Y12.607 E11.91547
G1 X121.299 Y12.597 E12.65225
G1 X122.109 Y12.644 E12.67923
G1 X122.419 Y12.68 E12.68961
G1 X123.157 Y12.806 E12.71452
G1 X124.067 Y13.078 E12.74611
G1 X124.35 Y13.184 E12.75616
G1 X125.036 Y13.483 E12.78105
G1 X125.857 Y13.968 E12.81276
G1 X126.109 Y14.141 E12.82293
G1 X126.702 Y14.597 E12.84781
G1 X127.37 Y15.251 E12.8789
G1 X127.569 Y15.474 E12.88884
G1 X128.036 Y16.058 E12.91371
G1 X128.527 Y16.849 E12.94468
G1 X128.67 Y17.118 E12.95481
G1 X128.985 Y17.797 E12.97971
G1 X129.279 Y18.701 E13.01132
G1 X129.353 Y18.996 E13.02144
G1 X129.496 Y19.73 E13.04631
G1 X129.563 Y20.697 E13.07855
G1 X129.572 Y57.848 E14.3142
G1 X129.529 Y58.621 E14.33995
G1 X129.495 Y58.928 E14.35022
G1 X129.374 Y59.666 E14.37509
G1 X129.098 Y60.6 E14.40749
G1 X128.993 Y60.882 E14.4175
G1 X128.695 Y61.568 E14.44237
G1 X128.205 Y62.399 E14.47446
G1 X128.028 Y62.657 E14.48487
G1 X127.573 Y63.25 E14.50973
G1 X126.872 Y63.959 E14.54289
G1 X126.644 Y64.159 E14.55297
G1 X126.056 Y64.622 E14.57787
G1 X125.317 Y65.076 E14.60671
G1 X125.054 Y65.216 E14.61662
G1 X124.376 Y65.532 E14.6415
G1 X123.463 Y65.828 E14.67342
G1 X123.167 Y65.902 E14.68357
G1 X122.432 Y66.044 E14.70847
G1 X121.472 Y66.111 E14.74048
G1 X99.321 Y66.12 E15.47722
G1 X98.466 Y66.068 E15.50571
G1 X98.156 Y66.03 E15.5161
G1 X97.42 Y65.899 E15.54097
G1 X96.573 Y65.645 E15.57038
G1 X96.29 Y65.54 E15.58042
G1 X95.604 Y65.243 E15.60528
G1 X94.743 Y64.734 E15.63855
G1 X94.49 Y64.559 E15.64878
G1 X93.898 Y64.101 E15.67367
G1 X93.214 Y63.423 E15.7057
G1 X93.018 Y63.2 E15.71558
G1 X92.555 Y62.613 E15.74045
G1 X92.119 Y61.91 E15.76796
G1 X91.974 Y61.642 E15.77809
G1 X91.654 Y60.966 E15.80297
G1 X91.333 Y59.981 E15.83743
G1 X91.261 Y59.688 E15.84746
G1 X91.122 Y58.953 E15.87234
G1 X91.059 Y58.02 E15.90344
G1 X91.05 Y20.869 E17.13909
G1 X91.093 Y20.096 E17.16484
G1 X91.127 Y19.789 E17.17511
G1 X91.248 Y19.051 E17.19999
G0 F6000 X91.644 Y19.117
G1 F1200 X91.905 Y18.24 E17.23042
G1 X92.012 Y17.955 E17.24055
G1 X92.304 Y17.29 E17.2647
G1 X92.743 Y16.549 E17.29335
G1 X92.914 Y16.299 E17.30342
G1 X93.357 Y15.723 E17.32759
G1 X93.965 Y15.103 E17.35647
G1 X94.19 Y14.902 E17.36651
G1 X94.757 Y14.449 E17.39065
G1 X95.481 Y14 E17.41898
G1 X95.751 Y13.856 E17.42916
G1 X96.41 Y13.55 E17.45333
G1 X97.261 Y13.276 E17.48306
G1 X97.554 Y13.203 E17.4931
G1 X98.268 Y13.066 E17.51729
G1 X99.147 Y13.007 E17.54659
G1 X121.299 Y12.997 E18.28337
G1 X122.063 Y13.041 E18.30882
G1 X122.373 Y13.077 E18.3192
G1 X123.089 Y13.2 E18.34336
G1 X123.927 Y13.452 E18.37247
G1 X124.21 Y13.558 E18.38252
G1 X124.875 Y13.85 E18.40667
G1 X125.63 Y14.298 E18.43587
G1 X125.882 Y14.471 E18.44604
G1 X126.458 Y14.914 E18.47021
G1 X127.071 Y15.518 E18.49883
G1 X127.27 Y15.741 E18.50877
G1 X127.723 Y16.308 E18.53291
G1 X128.174 Y17.037 E18.56142
G1 X128.317 Y17.306 E18.57155
G1 X128.622 Y17.965 E18.59571
G1 X128.891 Y18.798 E18.62482
G1 X128.965 Y19.093 E18.63494
G1 X129.102 Y19.806 E18.65908
G1 X129.163 Y20.697 E18.68879
G1 X129.172 Y57.848 E19.92444
G1 X129.132 Y58.577 E19.94872
G1 X129.098 Y58.884 E19.95899
G1 X128.978 Y59.6 E19.98314
G1 X128.723 Y60.46 E20.01297
G1 X128.618 Y60.742 E20.02298
G1 X128.328 Y61.408 E20.04714
G1 X127.875 Y62.173 E20.07671
G1 X127.698 Y62.431 E20.08712
G1 X127.255 Y63.006 E20.11126
G1 X126.608 Y63.659 E20.14184
G1 X126.38 Y63.859 E20.15192
G1 X125.809 Y64.307 E20.17606
G1 X125.129 Y64.723 E20.20258
G1 X124.866 Y64.863 E20.21249
G1 X124.207 Y65.168 E20.23664
G1 X123.366 Y65.44 E20.26604
G1 X123.07 Y65.514 E20.27618
G1 X122.356 Y65.651 E20.30036
G1 X121.472 Y65.711 E20.32983
G1 X99.321 Y65.72 E21.06658
G1 X98.515 Y65.671 E21.09344
G1 X98.205 Y65.633 E21.10382
G1 X97.49 Y65.505 E21.12798
G1 X96.712 Y65.27 E21.15501
G1 X96.429 Y65.165 E21.16505
G1 X95.763 Y64.875 E21.18921
G1 X94.97 Y64.405 E21.21987
G1 X94.717 Y64.23 E21.23011
G1 X94.144 Y63.785 E21.25424
G1 X93.515 Y63.159 E21.28375
G1 X93.319 Y62.936 E21.29363
G1 X92.87 Y62.365 E21.31779
G1 X92.471 Y61.72 E21.34301
G1 X92.326 Y61.452 E21.35315
G1 X92.016 Y60.795 E21.37731
G1 X91.722 Y59.886 E21.40908
G1 X91.65 Y59.593 E21.41912
G1 X91.515 Y58.879 E21.44329
G1 X91.459 Y58.02 E21.47192
G1 X91.45 Y20.869 E22.70757
G1 X91.49 Y20.14 E22.73185
G1 X91.524 Y19.833 E22.74212
G1 X91.644 Y19.117 E22.76627
G0 F6000 X92.039 Y19.183
G1 F1200 X92.28 Y18.381 E22.79412
G1 X92.387 Y18.096 E22.80425
G1 X92.671 Y17.452 E22.82766
G1 X93.074 Y16.775 E22.85386
G1 X93.245 Y16.525 E22.86394
G1 X93.674 Y15.967 E22.88735
G1 X94.231 Y15.401 E22.91376
G1 X94.456 Y15.2 E22.92379
G1 X95.007 Y14.762 E22.9472
G1 X95.669 Y14.353 E22.97309
G1 X95.939 Y14.209 E22.98326
G1 X96.578 Y13.914 E23.00667
G1 X97.358 Y13.664 E23.03392
G1 X97.651 Y13.591 E23.04396
G1 X98.343 Y13.46 E23.06738
G1 X99.147 Y13.407 E23.09418
G1 X121.299 Y13.397 E23.83096
G1 X122.017 Y13.438 E23.85488
G1 X122.327 Y13.474 E23.86526
G1 X123.021 Y13.595 E23.88869
G1 X123.787 Y13.827 E23.91531
G1 X124.07 Y13.933 E23.92536
G1 X124.714 Y14.217 E23.94877
G1 X125.404 Y14.628 E23.97548
G1 X125.656 Y14.801 E23.98565
G1 X126.213 Y15.231 E24.00906
G1 X126.773 Y15.784 E24.03523
G1 X126.972 Y16.007 E24.04517
G1 X127.41 Y16.558 E24.06858
G1 X127.821 Y17.225 E24.09464
G1 X127.964 Y17.494 E24.10477
G1 X128.258 Y18.133 E24.12817
G1 X128.503 Y18.895 E24.15479
G1 X128.577 Y19.19 E24.16491
G1 X128.709 Y19.882 E24.18834
G1 X128.763 Y20.697 E24.2155
G1 X128.772 Y57.848 E25.45115
G1 X128.734 Y58.532 E25.47394
G1 X128.7 Y58.839 E25.48421
G1 X128.583 Y59.534 E25.50765
G1 X128.348 Y60.32 E25.53494
G1 X128.243 Y60.602 E25.54495
G1 X127.961 Y61.247 E25.56836
G1 X127.546 Y61.946 E25.5954
G1 X127.369 Y62.204 E25.6058
G1 X126.938 Y62.761 E25.62923
G1 X126.345 Y63.358 E25.65721
G1 X126.117 Y63.558 E25.6673
G1 X125.562 Y63.991 E25.69071
G1 X124.941 Y64.37 E25.71491
G1 X124.678 Y64.51 E25.72482
G1 X124.039 Y64.805 E25.74823
G1 X123.269 Y65.052 E25.77513
G1 X122.973 Y65.126 E25.78527
G1 X122.281 Y65.258 E25.80871
G1 X121.472 Y65.311 E25.83567
G1 X99.321 Y65.32 E26.57242
G1 X98.564 Y65.274 E26.59764
G1 X98.254 Y65.236 E26.60803
G1 X97.561 Y65.111 E26.63145
G1 X96.851 Y64.895 E26.65613
G1 X96.568 Y64.79 E26.66617
G1 X95.923 Y64.508 E26.68959
G1 X95.198 Y64.076 E26.71766
G1 X94.945 Y63.901 E26.72789
G1 X94.39 Y63.468 E26.7513
G1 X93.815 Y62.895 E26.7783
G1 X93.619 Y62.672 E26.78817
G1 X93.185 Y62.118 E26.81158
G1 X92.823 Y61.529 E26.83457
G1 X92.678 Y61.261 E26.84471
G1 X92.379 Y60.624 E26.86811
G1 X92.11 Y59.791 E26.89723
G1 X92.038 Y59.498 E26.90726
G1 X91.909 Y58.805 E26.93071
G1 X91.859 Y58.02 E26.95687
G1 X91.85 Y20.869 E28.19252
G1 X91.888 Y20.185 E28.2153
G1 X91.922 Y19.878 E28.22558
G1 X92.039 Y19.183 E28.24902
G0 F6000 X92.434 Y19.25
G1 F1200 X92.654 Y18.521 E28.27434
G1 X92.761 Y18.236 E28.28447
G1 X93.037 Y17.614 E28.3071
G1 X93.404 Y17.001 E28.33087
G1 X93.575 Y16.751 E28.34094
G1 X93.991 Y16.212 E28.36359
G1 X94.498 Y15.7 E28.38755
G1 X94.723 Y15.499 E28.39759
G1 X95.256 Y15.076 E28.42022
G1 X95.858 Y14.706 E28.44372
G1 X96.128 Y14.562 E28.4539
G1 X96.746 Y14.278 E28.47652
G1 X97.455 Y14.052 E28.50127
G1 X97.748 Y13.979 E28.51131
G1 X98.417 Y13.854 E28.53395
G1 X99.147 Y13.807 E28.55828
G1 X121.299 Y13.797 E29.29506
G1 X121.971 Y13.836 E29.31745
G1 X122.281 Y13.872 E29.32783
G1 X122.952 Y13.99 E29.35049
G1 X123.646 Y14.202 E29.37462
G1 X123.929 Y14.308 E29.38467
G1 X124.552 Y14.583 E29.40732
G1 X125.178 Y14.957 E29.43158
G1 X125.43 Y15.13 E29.44174
G1 X125.967 Y15.548 E29.46438
G1 X126.474 Y16.05 E29.48811
G1 X126.673 Y16.273 E29.49805
G1 X127.096 Y16.807 E29.52071
G1 X127.467 Y17.413 E29.54434
G1 X127.61 Y17.682 E29.55447
G1 X127.894 Y18.3 E29.57709
G1 X128.115 Y18.993 E29.60129
G1 X128.189 Y19.288 E29.6114
G1 X128.315 Y19.957 E29.63404
G1 X128.363 Y20.698 E29.65874
G1 X128.372 Y57.849 E30.89439
G1 X128.337 Y58.488 E30.91567
G1 X128.303 Y58.795 E30.92595
G1 X128.188 Y59.467 E30.94862
G1 X127.973 Y60.181 E30.97342
G1 X127.868 Y60.463 E30.98343
G1 X127.594 Y61.086 E31.00607
G1 X127.216 Y61.72 E31.03062
G1 X127.039 Y61.978 E31.04103
G1 X126.621 Y62.516 E31.06369
G1 X126.081 Y63.057 E31.08911
G1 X125.853 Y63.257 E31.0992
G1 X125.315 Y63.675 E31.12186
G1 X124.753 Y64.017 E31.14374
G1 X124.49 Y64.157 E31.15365
G1 X123.872 Y64.441 E31.17627
G1 X123.172 Y64.664 E31.2007
G1 X122.876 Y64.738 E31.21085
G1 X122.207 Y64.864 E31.23349
G1 X121.471 Y64.911 E31.25802
G1 X99.32 Y64.92 E31.99477
G1 X98.612 Y64.877 E32.01836
G1 X98.302 Y64.839 E32.02875
G1 X97.633 Y64.717 E32.05137
G1 X96.99 Y64.52 E32.07373
G1 X96.707 Y64.415 E32.08377
G1 X96.084 Y64.141 E32.10641
G1 X95.426 Y63.747 E32.13192
G1 X95.173 Y63.572 E32.14215
G1 X94.636 Y63.153 E32.1648
G1 X94.116 Y62.631 E32.18931
G1 X93.92 Y62.408 E32.19918
G1 X93.501 Y61.871 E32.22184
G1 X93.175 Y61.339 E32.24259
G1 X93.03 Y61.071 E32.25273
G1 X92.741 Y60.454 E32.27539
G1 X92.499 Y59.695 E32.30188
G1 X92.427 Y59.402 E32.31192
G1 X92.303 Y58.732 E32.33458
G1 X92.259 Y58.019 E32.35834
G1 X92.25 Y20.868 E33.59399
G1 X92.285 Y20.229 E33.61527
G1 X92.319 Y19.922 E33.62555
G1 X92.434 Y19.25 E33.64822
G0 F6000 X92.829 Y19.318
G1 F1200 X93.029 Y18.662 E33.67103
G1 X93.136 Y18.377 E33.68116
G1 X93.403 Y17.777 E33.703
G1 X93.734 Y17.226 E33.72438
G1 X93.905 Y16.976 E33.73445
G1 X94.308 Y16.458 E33.75628
G1 X94.764 Y15.998 E33.77783
G1 X94.989 Y15.797 E33.78786
G1 X95.505 Y15.39 E33.80972
G1 X96.046 Y15.059 E33.83081
G1 X96.316 Y14.915 E33.84099
G1 X96.913 Y14.642 E33.86282
G1 X97.552 Y14.44 E33.88511
G1 X97.845 Y14.367 E33.89516
G1 X98.49 Y14.247 E33.91698
G1 X99.148 Y14.207 E33.9389
G1 X121.3 Y14.197 E34.67568
G1 X121.925 Y14.233 E34.6965
G1 X122.235 Y14.269 E34.70688
G1 X122.882 Y14.384 E34.72874
G1 X123.506 Y14.576 E34.75046
G1 X123.789 Y14.682 E34.76051
G1 X124.389 Y14.95 E34.78236
G1 X124.951 Y15.287 E34.80416
G1 X125.203 Y15.46 E34.81433
G1 X125.721 Y15.864 E34.83617
G1 X126.176 Y16.317 E34.85753
G1 X126.375 Y16.54 E34.86747
G1 X126.782 Y17.055 E34.8893
G1 X127.114 Y17.6 E34.91053
