;FLAVOR:Marlin
;TIME:7312
;Filament used: 4.45073m
;Layer height: 0.2
;MINX:83.852
;MINY:17.915
;MINZ:0.2
;MAXX:139.635
;MAXY:167.411
;MAXZ:10.8
;Generated with Cura_SteamEngine 4.5.0
M140 S60
M105
M190 S60
M104 S190
M105
M109 S190
M82 ;absolute extrusion mode
M201 X500.00 Y500.00 Z100.00 E5000.00 ;Setup machine max acceleration
M203 X500.00 Y500.00 Z10.00 E50.00 ;Setup machine max feedrate
M204 P500.00 R1000.00 T500.00 ;Setup Print/Retract/Travel acceleration
M205 X8.00 Y8.00 Z0.40 E5.00 ;Setup Jerk
M220 S100 ;Reset Feedrate
M221 S100 ;Reset Flowrate

G28 ;Home
M420 S1 Z2 ;Enable ABL using saved Mesh and Fade Height
G29     ;autobedlevel
G92 E0 ;Reset Extruder
G1 Z2.0 F3000 ;Move Z Axis up
G1 X10.1 Y20 Z0.28 F5000.0 ;Move to start position
G1 X10.1 Y200.0 Z0.28 F1500.0 E15 ;Draw the first line
G1 X10.4 Y200.0 Z0.28 F5000.0 ;Move to side a little
G1 X10.4 Y20 Z0.28 F1500.0 E30 ;Draw the second line
G92 E0 ;Reset Extruder
G92 E0
G92 E0
G1 F1500 E-6.5
;LAYER_COUNT:54
;LAYER:0
M107
G0 F6000 X84.385 Y24.693 Z0.2
;TYPE:SKIRT
G1 F1500 E0
G1 F1200 X84.629 Y23.942 E0.02626
G1 X84.832 Y23.458 E0.04372
G1 X84.937 Y23.23 E0.05207
G1 X85.303 Y22.531 E0.07831
G1 X85.738 Y21.872 E0.10457
G1 X86.061 Y21.462 E0.12194
G1 X86.245 Y21.244 E0.13142
G1 X86.785 Y20.667 E0.15771
G1 X87.374 Y20.152 E0.18373
G1 X87.597 Y19.976 E0.19318
G1 X88.241 Y19.519 E0.21944
G1 X88.753 Y19.22 E0.23916
G1 X89.073 Y19.049 E0.25123
G1 X89.787 Y18.712 E0.27749
G1 X90.27 Y18.533 E0.29462
G1 X90.616 Y18.417 E0.30676
G1 X91.606 Y18.156 E0.34081
G1 X91.971 Y18.085 E0.35318
G1 X92.952 Y17.958 E0.38608
G1 X93.35 Y17.932 E0.39935
G1 X93.858 Y17.915 E0.41625
G1 X129.846 Y17.916 E1.61322
G1 X130.349 Y17.932 E1.62996
G1 X130.736 Y17.957 E1.64286
G1 X131.68 Y18.076 E1.6745
G1 X132.056 Y18.147 E1.68723
G1 X133.043 Y18.401 E1.72113
G1 X133.384 Y18.513 E1.73306
G1 X134.438 Y18.947 E1.77098
G1 X134.712 Y19.084 E1.78116
G1 X135.4 Y19.473 E1.80745
G1 X135.851 Y19.782 E1.82564
G1 X136.117 Y19.978 E1.83663
G1 X136.728 Y20.478 E1.86288
G1 X137.37 Y21.133 E1.89339
G1 X137.553 Y21.343 E1.90265
G1 X138.041 Y21.963 E1.9289
G1 X138.606 Y22.893 E1.96509
G1 X138.723 Y23.12 E1.97358
G1 X139.049 Y23.84 E1.99987
G1 X139.3 Y24.588 E2.02611
G1 X139.476 Y25.363 E2.05255
G1 X139.52 Y25.617 E2.06112
G1 X139.615 Y26.401 E2.08739
G1 X139.634 Y26.948 E2.10559
G1 X139.635 Y49.444 E2.85381
G1 X139.595 Y50.232 E2.88005
G1 X139.528 Y50.732 E2.89683
G1 X139.488 Y50.971 E2.90489
G1 X139.318 Y51.742 E2.93115
G1 X139.072 Y52.492 E2.9574
G1 X138.88 Y52.946 E2.9738
G1 X138.775 Y53.174 E2.98215
G1 X138.409 Y53.873 E3.00839
G1 X137.974 Y54.532 E3.03465
G1 X137.668 Y54.921 E3.05112
G1 X137.487 Y55.137 E3.06049
G1 X136.95 Y55.716 E3.08675
G1 X136.32 Y56.267 E3.11459
G1 X136.089 Y56.448 E3.12435
G1 X135.443 Y56.903 E3.15063
G1 X134.949 Y57.19 E3.16963
G1 X134.634 Y57.358 E3.18151
G1 X133.919 Y57.694 E3.20778
G1 X133.442 Y57.871 E3.22471
G1 X133.096 Y57.987 E3.23684
G1 X132.106 Y58.248 E3.2709
G1 X131.741 Y58.319 E3.28326
G1 X130.76 Y58.446 E3.31616
G1 X130.362 Y58.472 E3.32943
G1 X129.854 Y58.489 E3.34634
G1 X93.704 Y58.489 E4.54869
G1 X92.915 Y58.449 E4.57497
G1 X92.482 Y58.393 E4.58949
G1 X91.883 Y58.298 E4.60966
G1 X91.111 Y58.135 E4.6359
G1 X90.651 Y57.998 E4.65187
G1 X90.307 Y57.884 E4.66392
G1 X89.222 Y57.431 E4.70303
G1 X88.947 Y57.291 E4.71329
G1 X88.263 Y56.898 E4.73953
G1 X87.883 Y56.637 E4.75486
G1 X87.619 Y56.444 E4.76574
G1 X87.006 Y55.946 E4.792
G1 X86.343 Y55.273 E4.82343
G1 X86.159 Y55.062 E4.83274
G1 X85.671 Y54.442 E4.85898
G1 X85.099 Y53.498 E4.89569
G1 X84.983 Y53.272 E4.90414
G1 X84.658 Y52.552 E4.93042
G1 X84.408 Y51.803 E4.95668
G1 X84.236 Y51.041 E4.98266
G1 X84.192 Y50.787 E4.99123
G1 X84.097 Y50.003 E5.0175
G1 X84.078 Y49.456 E5.03571
G1 X84.078 Y26.96 E5.78393
G1 X84.118 Y26.171 E5.8102
G1 X84.18 Y25.704 E5.82587
G1 X84.219 Y25.465 E5.83392
G1 X84.385 Y24.693 E5.86019
G0 F6000 X84.777 Y24.778
G1 F1200 X85.017 Y24.047 E5.88578
G1 X85.196 Y23.626 E5.90099
G1 X85.301 Y23.398 E5.90934
G1 X85.658 Y22.717 E5.93492
G1 X86.084 Y22.076 E5.96051
G1 X86.367 Y21.72 E5.97564
G1 X86.551 Y21.502 E5.98513
G1 X87.077 Y20.941 E6.01071
G1 X87.621 Y20.466 E6.03473
G1 X87.844 Y20.29 E6.04418
G1 X88.472 Y19.846 E6.06976
G1 X88.941 Y19.572 E6.08782
G1 X89.261 Y19.401 E6.09989
G1 X89.958 Y19.075 E6.12548
G1 X90.397 Y18.912 E6.14106
G1 X90.743 Y18.796 E6.1532
G1 X91.682 Y18.548 E6.1855
G1 X92.047 Y18.477 E6.19786
G1 X92.978 Y18.357 E6.22909
G1 X93.376 Y18.331 E6.24235
G1 X93.858 Y18.315 E6.25839
G1 X129.846 Y18.316 E7.45536
G1 X130.323 Y18.331 E7.47123
G1 X130.71 Y18.356 E7.48413
G1 X131.606 Y18.47 E7.51417
G1 X131.982 Y18.541 E7.5269
G1 X132.918 Y18.782 E7.55904
G1 X133.259 Y18.894 E7.57098
G1 X134.259 Y19.305 E7.60694
G1 X134.533 Y19.442 E7.61713
G1 X135.203 Y19.822 E7.64275
G1 X135.614 Y20.104 E7.65933
G1 X135.88 Y20.3 E7.67032
G1 X136.474 Y20.787 E7.69587
G1 X137.069 Y21.395 E7.72416
G1 X137.252 Y21.605 E7.73342
G1 X137.726 Y22.211 E7.75901
G1 X138.251 Y23.077 E7.7927
G1 X138.368 Y23.304 E7.80119
G1 X138.684 Y24.005 E7.82676
G1 X138.926 Y24.735 E7.85234
G1 X139.081 Y25.431 E7.87606
G1 X139.125 Y25.685 E7.88463
G1 X139.217 Y26.449 E7.91023
G1 X139.234 Y26.948 E7.92683
G1 X139.235 Y49.444 E8.67505
G1 X139.195 Y50.212 E8.70063
G1 X139.133 Y50.666 E8.71587
G1 X139.093 Y50.905 E8.72393
G1 X138.927 Y51.655 E8.74948
G1 X138.684 Y52.385 E8.77507
G1 X138.516 Y52.778 E8.78929
G1 X138.411 Y53.006 E8.79764
G1 X138.054 Y53.687 E8.82321
G1 X137.628 Y54.328 E8.84881
G1 X137.362 Y54.664 E8.86306
G1 X137.181 Y54.88 E8.87243
G1 X136.657 Y55.443 E8.89802
G1 X136.073 Y55.952 E8.92378
G1 X135.842 Y56.133 E8.93354
G1 X135.213 Y56.575 E8.95911
G1 X134.76 Y56.837 E8.97652
G1 X134.445 Y57.005 E8.98839
G1 X133.749 Y57.332 E9.01397
G1 X133.315 Y57.492 E9.02935
G1 X132.969 Y57.608 E9.04149
G1 X132.03 Y57.856 E9.07379
G1 X131.665 Y57.927 E9.08616
G1 X130.734 Y58.047 E9.11738
G1 X130.336 Y58.073 E9.13065
G1 X129.854 Y58.089 E9.14669
G1 X93.704 Y58.089 E10.34904
G1 X92.936 Y58.049 E10.37462
G1 X92.545 Y57.998 E10.38773
G1 X91.946 Y57.903 E10.40791
G1 X91.193 Y57.743 E10.43351
G1 X90.777 Y57.618 E10.44796
G1 X90.433 Y57.504 E10.46001
G1 X89.404 Y57.075 E10.49709
G1 X89.129 Y56.935 E10.50735
G1 X88.462 Y56.551 E10.53295
G1 X88.119 Y56.314 E10.54682
G1 X87.855 Y56.121 E10.5577
G1 X87.258 Y55.635 E10.5833
G1 X86.645 Y55.011 E10.61239
G1 X86.461 Y54.8 E10.62171
G1 X85.986 Y54.194 E10.64731
G1 X85.455 Y53.315 E10.68147
G1 X85.339 Y53.089 E10.68992
G1 X85.023 Y52.387 E10.71552
G1 X84.783 Y51.657 E10.74108
G1 X84.631 Y50.973 E10.76439
G1 X84.587 Y50.719 E10.77296
G1 X84.495 Y49.955 E10.79856
G1 X84.478 Y49.456 E10.81516
G1 X84.478 Y26.96 E11.56338
G1 X84.518 Y26.192 E11.58896
G1 X84.575 Y25.768 E11.60319
G1 X84.614 Y25.529 E11.61124
G1 X84.777 Y24.778 E11.6368
G0 F6000 X85.168 Y24.863
G1 F1200 X85.405 Y24.153 E11.6617
G1 X85.559 Y23.793 E11.67472
G1 X85.664 Y23.565 E11.68307
G1 X86.013 Y22.903 E11.70796
G1 X86.43 Y22.282 E11.73284
G1 X86.673 Y21.978 E11.74579
G1 X86.857 Y21.76 E11.75527
G1 X87.369 Y21.215 E11.78015
G1 X87.869 Y20.78 E11.80219
G1 X88.092 Y20.604 E11.81164
G1 X88.703 Y20.173 E11.83651
G1 X89.13 Y19.925 E11.85293
G1 X89.45 Y19.754 E11.865
G1 X90.128 Y19.437 E11.88989
G1 X90.524 Y19.291 E11.90393
G1 X90.87 Y19.175 E11.91607
G1 X91.758 Y18.941 E11.94661
G1 X92.123 Y18.87 E11.95898
G1 X93.004 Y18.756 E11.98852
G1 X93.402 Y18.73 E12.00179
G1 X93.858 Y18.715 E12.01696
G1 X129.846 Y18.716 E13.21393
G1 X130.297 Y18.731 E13.22894
G1 X130.684 Y18.756 E13.24184
G1 X131.532 Y18.863 E13.27027
G1 X131.908 Y18.934 E13.28299
G1 X132.793 Y19.162 E13.31339
G1 X133.134 Y19.274 E13.32533
G1 X134.08 Y19.663 E13.35935
G1 X134.354 Y19.8 E13.36954
G1 X135.005 Y20.17 E13.39444
G1 X135.376 Y20.426 E13.40943
G1 X135.642 Y20.622 E13.42042
G1 X136.22 Y21.097 E13.44531
G1 X136.767 Y21.658 E13.47137
G1 X136.95 Y21.868 E13.48063
G1 X137.411 Y22.458 E13.50553
G1 X137.895 Y23.26 E13.53669
G1 X138.012 Y23.487 E13.54518
G1 X138.319 Y24.169 E13.57006
G1 X138.551 Y24.88 E13.59493
G1 X138.687 Y25.499 E13.61601
G1 X138.731 Y25.753 E13.62459
G1 X138.819 Y26.496 E13.64947
G1 X138.834 Y26.948 E13.66451
G1 X138.835 Y49.444 E14.41273
G1 X138.795 Y50.191 E14.43762
G1 X138.739 Y50.599 E14.45131
G1 X138.699 Y50.838 E14.45937
G1 X138.536 Y51.569 E14.48428
G1 X138.153 Y52.611 E14.52121
G1 X138.048 Y52.839 E14.52956
G1 X137.699 Y53.501 E14.55445
G1 X137.055 Y54.407 E14.59142
G1 X136.874 Y54.623 E14.60079
G1 X136.364 Y55.17 E14.62566
G1 X135.826 Y55.637 E14.64936
G1 X135.595 Y55.818 E14.65912
G1 X134.983 Y56.247 E14.68398
G1 X134.572 Y56.484 E14.69976
G1 X134.257 Y56.652 E14.71163
G1 X133.579 Y56.969 E14.73652
G1 X133.188 Y57.113 E14.75038
G1 X132.842 Y57.229 E14.76252
G1 X131.954 Y57.463 E14.79306
G1 X131.589 Y57.534 E14.80543
G1 X130.708 Y57.648 E14.83498
G1 X130.31 Y57.674 E14.84824
G1 X129.854 Y57.689 E14.86342
G1 X93.704 Y57.689 E16.06577
G1 X92.608 Y57.603 E16.10234
G1 X92.009 Y57.508 E16.12251
G1 X91.277 Y57.351 E16.14741
G1 X90.903 Y57.239 E16.16039
G1 X90.559 Y57.125 E16.17245
G1 X89.585 Y56.718 E16.20756
G1 X89.31 Y56.578 E16.21782
G1 X88.355 Y55.991 E16.25511
G1 X88.091 Y55.798 E16.26598
G1 X87.511 Y55.325 E16.29088
G1 X86.946 Y54.748 E16.31773
G1 X86.762 Y54.537 E16.32705
G1 X86.301 Y53.947 E16.35195
G1 X85.81 Y53.132 E16.3836
G1 X85.694 Y52.906 E16.39204
G1 X85.389 Y52.224 E16.41689
G1 X85.158 Y51.512 E16.44179
G1 X85.025 Y50.905 E16.46246
G1 X84.981 Y50.651 E16.47103
G1 X84.893 Y49.908 E16.49592
G1 X84.878 Y49.456 E16.51096
G1 X84.878 Y26.96 E17.25918
G1 X84.918 Y26.213 E17.28406
G1 X84.969 Y25.833 E17.29681
G1 X85.008 Y25.594 E17.30487
G1 X85.168 Y24.863 E17.32975
G0 F6000 X85.559 Y24.949
G1 F1200 X85.922 Y23.96 E17.36479
G1 X86.027 Y23.732 E17.37314
G1 X86.367 Y23.09 E17.39731
G1 X86.978 Y22.236 E17.43223
G1 X87.162 Y22.018 E17.44172
G1 X87.661 Y21.49 E17.46588
G1 X88.117 Y21.094 E17.48597
G1 X88.34 Y20.918 E17.49542
G1 X88.934 Y20.5 E17.51958
G1 X89.318 Y20.278 E17.53433
G1 X89.638 Y20.107 E17.5464
G1 X90.297 Y19.8 E17.57058
G1 X90.651 Y19.67 E17.58312
G1 X90.997 Y19.554 E17.59526
G1 X91.835 Y19.333 E17.62408
G1 X92.2 Y19.262 E17.63645
G1 X93.03 Y19.155 E17.66428
G1 X93.428 Y19.129 E17.67755
G1 X93.858 Y19.115 E17.69186
G1 X129.846 Y19.116 E18.88882
G1 X130.271 Y19.13 E18.90297
G1 X130.658 Y19.155 E18.91587
G1 X131.458 Y19.256 E18.94269
G1 X131.834 Y19.327 E18.95541
G1 X132.669 Y19.542 E18.98409
G1 X133.01 Y19.654 E18.99603
G1 X133.902 Y20.021 E19.02811
G1 X134.176 Y20.158 E19.0383
G1 X134.806 Y20.518 E19.06243
G1 X135.139 Y20.748 E19.07589
G1 X135.405 Y20.944 E19.08688
G1 X135.965 Y21.406 E19.11103
G1 X136.466 Y21.921 E19.13493
G1 X136.649 Y22.131 E19.14419
G1 X137.095 Y22.704 E19.16834
G1 X137.54 Y23.443 E19.19703
G1 X137.657 Y23.67 E19.20553
G1 X137.953 Y24.333 E19.22968
G1 X138.175 Y25.025 E19.25385
G1 X138.293 Y25.567 E19.2723
G1 X138.337 Y25.821 E19.28087
G1 X138.422 Y26.543 E19.30505
G1 X138.434 Y26.948 E19.31853
G1 X138.435 Y49.444 E20.06675
G1 X138.395 Y50.169 E20.0909
G1 X138.344 Y50.533 E20.10312
G1 X138.304 Y50.772 E20.11118
G1 X138.145 Y51.481 E20.13535
G1 X137.79 Y52.444 E20.16948
G1 X137.685 Y52.672 E20.17783
G1 X137.345 Y53.314 E20.202
G1 X136.749 Y54.15 E20.23614
G1 X136.568 Y54.366 E20.24552
G1 X136.071 Y54.896 E20.26968
G1 X135.58 Y55.322 E20.2913
G1 X135.349 Y55.503 E20.30106
G1 X134.753 Y55.919 E20.32524
G1 X134.384 Y56.132 E20.33941
G1 X134.069 Y56.3 E20.35128
G1 X133.41 Y56.606 E20.37545
G1 X133.061 Y56.734 E20.38781
G1 X132.715 Y56.85 E20.39995
G1 X131.877 Y57.071 E20.42878
G1 X131.512 Y57.142 E20.44114
G1 X130.682 Y57.249 E20.46898
G1 X130.284 Y57.275 E20.48224
G1 X129.854 Y57.289 E20.49655
G1 X93.704 Y57.289 E21.69891
G1 X92.67 Y57.208 E21.7334
G1 X92.071 Y57.113 E21.75358
G1 X91.029 Y56.859 E21.78925
G1 X90.685 Y56.745 E21.8013
G1 X89.767 Y56.362 E21.83438
G1 X89.492 Y56.222 E21.84465
G1 X88.591 Y55.668 E21.87983
G1 X88.327 Y55.475 E21.8907
G1 X87.765 Y55.015 E21.91486
G1 X87.248 Y54.485 E21.93948
G1 X87.064 Y54.274 E21.9488
G1 X86.617 Y53.701 E21.97297
G1 X86.166 Y52.95 E22.0021
G1 X86.05 Y52.724 E22.01055
G1 X85.755 Y52.06 E22.03472
G1 X85.534 Y51.368 E22.05888
G1 X85.419 Y50.837 E22.07695
G1 X85.375 Y50.583 E22.08552
G1 X85.29 Y49.861 E22.1097
G1 X85.278 Y49.456 E22.12318
G1 X85.278 Y26.96 E22.8714
G1 X85.364 Y25.897 E22.90687
G1 X85.403 Y25.658 E22.91493
G1 X85.559 Y24.949 E22.93907
G0 F6000 X85.951 Y25.035
G1 F1200 X86.285 Y24.128 E22.97122
G1 X86.39 Y23.9 E22.97957
G1 X86.721 Y23.278 E23.003
G1 X87.284 Y22.494 E23.03511
G1 X87.468 Y22.276 E23.04459
G1 X87.952 Y21.765 E23.068
G1 X88.365 Y21.408 E23.08616
G1 X88.588 Y21.232 E23.09561
G1 X89.164 Y20.828 E23.11901
G1 X89.507 Y20.631 E23.13217
G1 X89.827 Y20.46 E23.14423
G1 X90.778 Y20.05 E23.17868
G1 X91.124 Y19.934 E23.19081
G1 X91.911 Y19.726 E23.21789
G1 X92.276 Y19.655 E23.23026
G1 X93.056 Y19.554 E23.25642
G1 X93.454 Y19.528 E23.26968
G1 X93.858 Y19.515 E23.28313
G1 X129.846 Y19.516 E24.48009
G1 X130.246 Y19.529 E24.4934
G1 X130.633 Y19.554 E24.5063
G1 X131.383 Y19.649 E24.53145
G1 X131.759 Y19.72 E24.54417
G1 X132.544 Y19.922 E24.57113
G1 X132.885 Y20.034 E24.58307
G1 X133.723 Y20.379 E24.61321
G1 X133.997 Y20.516 E24.6234
G1 X134.608 Y20.866 E24.64682
G1 X134.902 Y21.07 E24.65872
G1 X135.168 Y21.266 E24.66971
G1 X135.71 Y21.715 E24.69312
G1 X136.164 Y22.184 E24.71483
G1 X136.347 Y22.394 E24.7241
G1 X136.779 Y22.95 E24.74752
G1 X137.184 Y23.627 E24.77375
G1 X137.301 Y23.854 E24.78225
G1 X137.588 Y24.497 E24.80567
G1 X137.799 Y25.168 E24.82906
G1 X137.899 Y25.636 E24.84498
G1 X137.943 Y25.89 E24.85355
G1 X138.024 Y26.589 E24.87696
G1 X138.034 Y26.948 E24.8889
G1 X138.035 Y49.444 E25.63712
G1 X137.95 Y50.467 E25.67127
G1 X137.91 Y50.706 E25.67933
G1 X137.755 Y51.393 E25.70275
G1 X137.427 Y52.276 E25.73408
G1 X137.322 Y52.504 E25.74243
G1 X136.991 Y53.126 E25.76586
G1 X136.442 Y53.893 E25.79723
G1 X136.261 Y54.109 E25.80661
G1 X135.779 Y54.622 E25.83002
G1 X135.333 Y55.007 E25.84962
G1 X135.102 Y55.188 E25.85938
G1 X134.524 Y55.59 E25.88279
G1 X134.196 Y55.779 E25.89538
G1 X133.881 Y55.947 E25.90726
G1 X132.934 Y56.354 E25.94154
G1 X132.588 Y56.47 E25.95368
G1 X131.801 Y56.678 E25.98075
G1 X131.436 Y56.749 E25.99312
G1 X130.656 Y56.85 E26.01928
G1 X130.258 Y56.876 E26.03255
G1 X129.854 Y56.889 E26.04599
G1 X93.704 Y56.889 E27.24834
G1 X92.733 Y56.812 E27.28074
G1 X92.134 Y56.717 E27.30091
G1 X91.155 Y56.479 E27.33442
G1 X90.811 Y56.365 E27.34648
G1 X89.948 Y56.005 E27.37758
G1 X89.673 Y55.865 E27.38784
G1 X88.827 Y55.345 E27.42087
G1 X88.563 Y55.152 E27.43175
G1 X88.019 Y54.705 E27.45516
G1 X87.549 Y54.222 E27.47758
G1 X87.365 Y54.011 E27.48689
G1 X86.933 Y53.455 E27.51031
G1 X86.522 Y52.767 E27.53696
G1 X86.406 Y52.541 E27.54541
G1 X86.121 Y51.898 E27.56881
G1 X85.91 Y51.226 E27.59223
G1 X85.813 Y50.768 E27.6078
G1 X85.769 Y50.514 E27.61638
G1 X85.688 Y49.815 E27.63978
G1 X85.678 Y49.456 E27.65173
G1 X85.678 Y26.96 E28.39995
G1 X85.759 Y25.961 E28.43328
G1 X85.798 Y25.722 E28.44134
G1 X85.951 Y25.035 E28.46475
G0 F6000 X86.342 Y25.123
G1 F1200 X86.649 Y24.295 E28.49412
G1 X86.754 Y24.067 E28.50247
G1 X87.074 Y23.466 E28.52511
G1 X87.59 Y22.752 E28.55441
G1 X87.774 Y22.534 E28.5639
G1 X88.243 Y22.04 E28.58656
G1 X88.613 Y21.722 E28.60278
G1 X88.836 Y21.546 E28.61223
G1 X89.394 Y21.156 E28.63488
G1 X89.695 Y20.984 E28.64641
G1 X90.015 Y20.813 E28.65847
G1 X90.905 Y20.429 E28.69071
G1 X91.251 Y20.313 E28.70285
G1 X91.988 Y20.119 E28.7282
G1 X92.353 Y20.048 E28.74057
G1 X93.082 Y19.953 E28.76502
G1 X93.48 Y19.927 E28.77828
G1 X93.858 Y19.915 E28.79086
G1 X129.846 Y19.916 E29.98783
G1 X130.22 Y19.928 E30.00027
G1 X130.607 Y19.953 E30.01317
G1 X131.309 Y20.042 E30.03671
G1 X131.685 Y20.113 E30.04943
G1 X132.419 Y20.302 E30.07464
G1 X132.76 Y20.414 E30.08658
G1 X133.544 Y20.736 E30.11477
G1 X133.818 Y20.873 E30.12496
G1 X134.665 Y21.392 E30.158
G1 X134.931 Y21.588 E30.16899
G1 X135.454 Y22.023 E30.19162
G1 X135.863 Y22.447 E30.21121
G1 X136.046 Y22.657 E30.22047
G1 X136.462 Y23.195 E30.24309
G1 X136.828 Y23.81 E30.2669
G1 X136.945 Y24.037 E30.27539
