;FLAVOR:Marlin
;TIME:5759
;Filament used: 3.71167m
;Layer height: 0.2
;MINX:56.667
;MINY:16.572
;MINZ:0.2
;MAXX:167.301
;MAXY:114.012
;MAXZ:10
;Generated with Cura_SteamEngine 4.5.0
M140 S60
M105
M190 S60
M104 S190
M105
M109 S190
M82 ;absolute extrusion mode
M201 X500.00 Y500.00 Z100.00 E5000.00 ;Setup machine max acceleration
M203 X500.00 Y500.00 Z10.00 E50.00 ;Setup machine max feedrate
M204 P500.00 R1000.00 T500.00 ;Setup Print/Retract/Travel acceleration
M205 X8.00 Y8.00 Z0.40 E5.00 ;Setup Jerk
M220 S100 ;Reset Feedrate
M221 S100 ;Reset Flowrate

G28 ;Home
M420 S1 Z2 ;Enable ABL using saved Mesh and Fade Height
G29     ;autobedlevel
G92 E0 ;Reset Extruder
G1 Z2.0 F3000 ;Move Z Axis up
G1 X10.1 Y20 Z0.28 F5000.0 ;Move to start position
G1 X10.1 Y200.0 Z0.28 F1500.0 E15 ;Draw the first line
G1 X10.4 Y200.0 Z0.28 F5000.0 ;Move to side a little
G1 X10.4 Y20 Z0.28 F1500.0 E30 ;Draw the second line
G92 E0 ;Reset Extruder
G92 E0
G92 E0
G1 F1500 E-6.5
;LAYER_COUNT:50
;LAYER:0
M107
G0 F6000 X58.599 Y55.08 Z0.2
;TYPE:SKIRT
G1 F1500 E0
G1 F1200 X59.141 Y54.506 E0.02626
G1 X59.738 Y53.989 E0.05252
G1 X60.385 Y53.536 E0.07879
G1 X61.074 Y53.15 E0.10506
G1 X62.088 Y52.734 E0.14152
G1 X71.494 Y49.626 E0.471
G1 X71.851 Y49.465 E0.48402
G1 X72.096 Y49.317 E0.49354
G1 X72.313 Y49.147 E0.50271
G1 X72.506 Y48.953 E0.51181
G1 X72.678 Y48.731 E0.52115
G1 X72.805 Y48.521 E0.52932
G1 X73.058 Y47.947 E0.55018
G1 X73.117 Y47.788 E0.55582
G1 X73.233 Y47.496 E0.56627
G1 X73.339 Y47.244 E0.57536
G1 X73.855 Y45.986 E0.62059
G1 X73.999 Y45.658 E0.6325
G1 X74.135 Y45.366 E0.64321
G1 X74.678 Y44.182 E0.68654
G1 X74.834 Y43.861 E0.69841
G1 X74.986 Y43.566 E0.70945
G1 X75.58 Y42.4 E0.75297
G1 X75.737 Y42.108 E0.764
G1 X76.563 Y40.643 E0.81993
G1 X76.72 Y40.377 E0.83021
G1 X77.607 Y38.94 E0.88637
G1 X77.829 Y38.6 E0.89988
G1 X77.982 Y38.378 E0.90885
G1 X78.728 Y37.276 E0.95311
G1 X78.937 Y36.981 E0.96513
G1 X79.131 Y36.721 E0.97592
G1 X79.904 Y35.671 E1.01929
G1 X80.157 Y35.347 E1.03296
G1 X80.316 Y35.153 E1.0413
G1 X81.147 Y34.116 E1.0855
G1 X81.389 Y33.828 E1.09802
G1 X81.609 Y33.579 E1.10907
G1 X82.46 Y32.603 E1.15214
G1 X82.72 Y32.319 E1.16494
G1 X82.953 Y32.077 E1.17611
G1 X83.841 Y31.139 E1.21908
G1 X84.11 Y30.869 E1.23175
G1 X84.332 Y30.656 E1.24198
G1 X85.263 Y29.75 E1.28519
G1 X85.547 Y29.487 E1.29807
G1 X85.799 Y29.265 E1.30924
G1 X86.755 Y28.409 E1.35192
G1 X87.005 Y28.195 E1.36286
G1 X88.309 Y27.123 E1.41901
G1 X88.597 Y26.896 E1.4312
G1 X88.857 Y26.702 E1.44199
G1 X89.885 Y25.923 E1.48489
G1 X90.154 Y25.728 E1.49594
G1 X91.542 Y24.766 E1.55211
G1 X91.849 Y24.564 E1.56434
G1 X92.124 Y24.392 E1.57512
G1 X93.22 Y23.697 E1.61829
G1 X93.497 Y23.529 E1.62906
G1 X94.952 Y22.689 E1.68494
G1 X95.262 Y22.52 E1.69669
G1 X95.522 Y22.385 E1.70643
G1 X96.713 Y21.759 E1.75118
G1 X97.009 Y21.611 E1.76219
G1 X98.528 Y20.893 E1.81807
G1 X98.843 Y20.753 E1.82954
G1 X99.148 Y20.625 E1.84054
G1 X100.358 Y20.111 E1.88426
G1 X100.661 Y19.989 E1.89513
G1 X102.243 Y19.394 E1.95134
G1 X102.58 Y19.276 E1.96322
G1 X102.888 Y19.176 E1.97399
G1 X104.127 Y18.767 E2.01739
G1 X104.444 Y18.669 E2.02842
G1 X106.07 Y18.207 E2.08464
G1 X106.375 Y18.127 E2.09513
G1 X108.006 Y17.734 E2.15093
G1 X108.317 Y17.666 E2.16152
G1 X109.957 Y17.341 E2.21713
G1 X110.331 Y17.276 E2.22975
G1 X110.637 Y17.231 E2.24004
G1 X111.938 Y17.028 E2.28383
G1 X112.26 Y16.985 E2.29464
G1 X113.935 Y16.795 E2.35071
G1 X114.249 Y16.765 E2.3612
G1 X115.916 Y16.644 E2.41679
G1 X116.27 Y16.627 E2.42858
G1 X116.566 Y16.619 E2.43842
G1 X117.919 Y16.576 E2.48345
G1 X118.251 Y16.572 E2.49449
G1 X119.927 Y16.59 E2.55024
G1 X120.24 Y16.6 E2.56065
G1 X121.926 Y16.686 E2.6168
G1 X122.25 Y16.709 E2.62761
G1 X123.92 Y16.864 E2.68339
G1 X124.232 Y16.9 E2.69384
G1 X125.893 Y17.122 E2.74957
G1 X126.213 Y17.171 E2.76034
G1 X127.876 Y17.464 E2.8165
G1 X128.233 Y17.536 E2.82862
G1 X128.533 Y17.603 E2.83884
G1 X129.817 Y17.883 E2.88255
G1 X130.187 Y17.973 E2.89522
G1 X130.496 Y18.056 E2.90586
G1 X131.76 Y18.386 E2.94931
G1 X132.112 Y18.486 E2.96148
G1 X132.42 Y18.582 E2.97221
G1 X133.666 Y18.962 E3.01553
G1 X134.037 Y19.085 E3.02853
G1 X134.328 Y19.19 E3.03882
G1 X135.555 Y19.62 E3.08207
G1 X135.93 Y19.762 E3.0954
G1 X136.162 Y19.857 E3.10374
G1 X137.424 Y20.359 E3.14892
G1 X137.737 Y20.492 E3.16023
G1 X139.271 Y21.181 E3.21616
G1 X139.541 Y21.308 E3.22608
G1 X141.037 Y22.05 E3.28162
G1 X141.365 Y22.223 E3.29396
G1 X141.656 Y22.385 E3.30503
G1 X142.804 Y23.015 E3.34859
G1 X143.147 Y23.214 E3.36178
G1 X143.421 Y23.383 E3.37249
G1 X144.508 Y24.039 E3.41471
G1 X144.817 Y24.235 E3.42688
G1 X145.055 Y24.394 E3.4364
G1 X146.179 Y25.136 E3.4812
G1 X146.475 Y25.342 E3.49319
G1 X147.822 Y26.317 E3.5485
G1 X148.101 Y26.528 E3.56013
G1 X148.353 Y26.728 E3.57083
G1 X149.392 Y27.546 E3.61482
G1 X149.675 Y27.779 E3.62701
G1 X149.889 Y27.964 E3.63642
G1 X150.912 Y28.84 E3.68121
G1 X151.148 Y29.05 E3.69172
G1 X152.386 Y30.2 E3.74792
G1 X152.64 Y30.448 E3.75973
G1 X153.8 Y31.62 E3.81457
G1 X154.023 Y31.855 E3.82535
G1 X155.149 Y33.09 E3.88093
G1 X155.358 Y33.328 E3.89147
G1 X156.444 Y34.621 E3.94763
G1 X156.682 Y34.92 E3.96034
G1 X156.833 Y35.119 E3.96865
G1 X157.658 Y36.184 E4.01346
G1 X157.86 Y36.456 E4.02473
G1 X158.837 Y37.837 E4.08099
G1 X159.015 Y38.1 E4.09155
G1 X159.923 Y39.501 E4.14708
G1 X160.093 Y39.776 E4.15783
G1 X160.952 Y41.23 E4.214
G1 X161.105 Y41.501 E4.22435
G1 X161.897 Y42.973 E4.27995
G1 X162.064 Y43.303 E4.29225
G1 X162.186 Y43.558 E4.30165
G1 X162.775 Y44.769 E4.34644
G1 X162.911 Y45.065 E4.35728
G1 X163.583 Y46.607 E4.41322
G1 X163.72 Y46.94 E4.4252
G1 X163.838 Y47.249 E4.4362
G1 X164.308 Y48.456 E4.47928
G1 X164.441 Y48.822 E4.49223
G1 X164.531 Y49.093 E4.50173
G1 X164.965 Y50.362 E4.54634
G1 X165.073 Y50.703 E4.55824
G1 X165.153 Y50.979 E4.56779
G1 X165.539 Y52.279 E4.6129
G1 X165.638 Y52.641 E4.62538
G1 X165.702 Y52.904 E4.63438
G1 X166.032 Y54.211 E4.67922
G1 X166.104 Y54.526 E4.68996
G1 X166.449 Y56.179 E4.74613
G1 X166.509 Y56.5 E4.75699
G1 X166.782 Y58.15 E4.81261
G1 X166.831 Y58.487 E4.82394
G1 X166.867 Y58.787 E4.83399
G1 X167.035 Y60.132 E4.87907
G1 X167.069 Y60.462 E4.89011
G1 X167.205 Y62.123 E4.94554
G1 X167.224 Y62.436 E4.95597
G1 X167.294 Y64.119 E5.01199
G1 X167.301 Y64.466 E5.02354
G1 X167.301 Y66.122 E5.07861
G1 X167.294 Y66.451 E5.08956
G1 X167.224 Y68.142 E5.14585
G1 X167.205 Y68.456 E5.15631
G1 X167.069 Y70.117 E5.21174
G1 X167.036 Y70.436 E5.22241
G1 X166.83 Y72.104 E5.27831
G1 X166.784 Y72.424 E5.28906
G1 X166.509 Y74.083 E5.34499
G1 X166.451 Y74.394 E5.35552
G1 X166.109 Y76.04 E5.41143
G1 X166.036 Y76.357 E5.42225
G1 X165.626 Y77.986 E5.47812
G1 X165.543 Y78.291 E5.48863
G1 X165.065 Y79.91 E5.54478
G1 X164.968 Y80.215 E5.55543
G1 X164.429 Y81.798 E5.61104
G1 X164.305 Y82.136 E5.62302
G1 X164.184 Y82.444 E5.63403
G1 X163.713 Y83.664 E5.67752
G1 X163.568 Y84.016 E5.69018
G1 X163.436 Y84.314 E5.70102
G1 X162.921 Y85.499 E5.744
G1 X162.772 Y85.823 E5.75586
G1 X162.626 Y86.121 E5.7669
G1 X162.054 Y87.304 E5.8106
G1 X161.883 Y87.637 E5.82305
G1 X161.728 Y87.922 E5.83384
G1 X161.114 Y89.067 E5.87706
G1 X160.938 Y89.38 E5.889
G1 X160.104 Y90.791 E5.94351
G1 X159.914 Y91.096 E5.95547
G1 X159.753 Y91.342 E5.96524
G1 X159.024 Y92.472 E6.00997
G1 X158.822 Y92.768 E6.02189
G1 X158.628 Y93.04 E6.033
G1 X157.87 Y94.113 E6.0767
G1 X157.678 Y94.374 E6.08747
G1 X156.652 Y95.705 E6.14337
G1 X156.429 Y95.98 E6.15514
G1 X155.374 Y97.238 E6.20975
G1 X155.158 Y97.486 E6.22069
G1 X154.02 Y98.734 E6.27686
G1 X153.802 Y98.963 E6.28738
G1 X152.62 Y100.158 E6.34328
G1 X152.388 Y100.383 E6.35403
G1 X151.164 Y101.522 E6.40964
G1 X150.901 Y101.756 E6.42135
G1 X150.648 Y101.971 E6.4324
G1 X149.654 Y102.824 E6.47596
G1 X149.403 Y103.03 E6.48676
G1 X148.084 Y104.07 E6.54263
G1 X147.828 Y104.264 E6.55331
G1 X146.467 Y105.249 E6.60919
G1 X146.205 Y105.431 E6.6198
G1 X144.804 Y106.36 E6.67571
G1 X144.526 Y106.536 E6.68665
G1 X143.089 Y107.404 E6.74249
G1 X142.82 Y107.559 E6.75282
G1 X141.339 Y108.375 E6.80906
G1 X141.05 Y108.526 E6.8199
G1 X139.553 Y109.271 E6.87552
G1 X139.268 Y109.406 E6.88601
G1 X137.735 Y110.093 E6.94188
G1 X137.447 Y110.215 E6.95228
G1 X135.883 Y110.842 E7.00833
G1 X135.526 Y110.975 E7.021
G1 X135.268 Y111.064 E7.03008
G1 X133.988 Y111.516 E7.07522
G1 X133.639 Y111.63 E7.08744
G1 X133.33 Y111.723 E7.09817
G1 X132.081 Y112.108 E7.14164
G1 X131.764 Y112.199 E7.15261
G1 X130.148 Y112.623 E7.20818
G1 X129.846 Y112.695 E7.2185
G1 X128.207 Y113.056 E7.27432
G1 X127.815 Y113.132 E7.2876
G1 X127.543 Y113.177 E7.29677
G1 X126.221 Y113.411 E7.34143
G1 X125.873 Y113.464 E7.35313
G1 X125.591 Y113.501 E7.36259
G1 X124.25 Y113.683 E7.4076
G1 X123.919 Y113.721 E7.41869
G1 X122.252 Y113.875 E7.47437
G1 X121.935 Y113.898 E7.48494
G1 X120.247 Y113.985 E7.54116
G1 X119.925 Y113.995 E7.55187
G1 X118.251 Y114.012 E7.60755
G1 X117.912 Y114.008 E7.61883
G1 X117.612 Y113.998 E7.62881
G1 X116.255 Y113.958 E7.67396
G1 X115.925 Y113.941 E7.68495
G1 X114.258 Y113.821 E7.74054
G1 X113.937 Y113.791 E7.75127
G1 X112.266 Y113.601 E7.8072
G1 X111.918 Y113.554 E7.81888
G1 X111.592 Y113.502 E7.82986
G1 X110.29 Y113.301 E7.87368
G1 X109.972 Y113.245 E7.88442
G1 X108.322 Y112.92 E7.94035
G1 X107.96 Y112.84 E7.95268
G1 X107.705 Y112.777 E7.96142
G1 X106.39 Y112.463 E8.00639
G1 X106.022 Y112.365 E8.01905
G1 X105.764 Y112.29 E8.02799
G1 X104.466 Y111.923 E8.07285
G1 X104.114 Y111.814 E8.08511
G1 X103.84 Y111.722 E8.09472
G1 X102.558 Y111.302 E8.13959
G1 X102.217 Y111.181 E8.15163
G1 X101.907 Y111.063 E8.16266
G1 X100.688 Y110.607 E8.20595
G1 X100.376 Y110.482 E8.21713
G1 X98.826 Y109.825 E8.27312
G1 X98.495 Y109.676 E8.28519
G1 X98.247 Y109.557 E8.29434
G1 X97.029 Y108.983 E8.33912
G1 X96.716 Y108.827 E8.35076
G1 X95.255 Y108.062 E8.40561
G1 X94.966 Y107.903 E8.41658
G1 X93.509 Y107.062 E8.47253
G1 X93.238 Y106.899 E8.48305
G1 X91.812 Y105.997 E8.53917
G1 X91.535 Y105.813 E8.55023
G1 X90.153 Y104.854 E8.60618
G1 X89.901 Y104.672 E8.61652
G1 X88.568 Y103.666 E8.67206
G1 X88.315 Y103.466 E8.68279
G1 X87.008 Y102.392 E8.73905
G1 X86.767 Y102.186 E8.7496
G1 X85.522 Y101.075 E8.8051
G1 X85.283 Y100.853 E8.81595
G1 X84.07 Y99.676 E8.87216
G1 X83.833 Y99.435 E8.88341
G1 X82.695 Y98.239 E8.93832
G1 X82.456 Y97.976 E8.95013
G1 X82.244 Y97.732 E8.96089
G1 X81.369 Y96.733 E9.00506
G1 X81.142 Y96.461 E9.01684
G1 X80.111 Y95.18 E9.07153
G1 X79.913 Y94.924 E9.08229
G1 X78.914 Y93.573 E9.13818
G1 X78.696 Y93.262 E9.15081
G1 X78.559 Y93.056 E9.15904
G1 X77.801 Y91.943 E9.20383
G1 X77.601 Y91.633 E9.2161
G1 X77.426 Y91.348 E9.22722
G1 X76.734 Y90.232 E9.2709
G1 X76.571 Y89.956 E9.28156
G1 X75.745 Y88.492 E9.33747
G1 X75.571 Y88.166 E9.34976
G1 X75.446 Y87.918 E9.35899
G1 X74.827 Y86.71 E9.40414
G1 X74.666 Y86.377 E9.41644
G1 X74.533 Y86.084 E9.42714
G1 X73.986 Y84.898 E9.47058
G1 X73.849 Y84.585 E9.48195
G1 X73.108 Y82.769 E9.54718
G1 X73.013 Y82.52 E9.55605
G1 X72.816 Y82.082 E9.57202
G1 X72.671 Y81.842 E9.58135
G1 X72.496 Y81.62 E9.59075
G1 X72.312 Y81.437 E9.59938
G1 X72.088 Y81.262 E9.60884
G1 X71.875 Y81.133 E9.61712
G1 X71.45 Y80.945 E9.63257
G1 X71.306 Y80.895 E9.63764
G1 X62.092 Y77.854 E9.96036
G1 X61.356 Y77.569 E9.98661
G1 X60.652 Y77.211 E10.01288
G1 X59.988 Y76.783 E10.03916
G1 X59.37 Y76.291 E10.06543
G1 X58.806 Y75.738 E10.0917
G1 X58.091 Y74.839 E10.12991
G1 X58.014 Y74.726 E10.13445
G1 X57.603 Y74.052 E10.16071
G1 X57.262 Y73.34 E10.18697
G1 X56.995 Y72.596 E10.21326
G1 X56.805 Y71.83 E10.23951
G1 X56.693 Y71.048 E10.26578
G1 X56.667 Y69.995 E10.30082
G1 X56.728 Y68.594 E10.34746
G1 X56.743 Y68.124 E10.3631
G1 X56.808 Y67.337 E10.38936
G1 X56.953 Y66.561 E10.41562
G1 X57.176 Y65.803 E10.4419
G1 X57.378 Y65.307 E10.45971
G1 X57.102 Y64.555 E10.48636
G1 X56.908 Y63.789 E10.51264
G1 X56.765 Y62.634 E10.55135
G1 X56.668 Y60.627 E10.61818
G1 X56.67 Y59.837 E10.64445
G1 X56.752 Y59.051 E10.67074
G1 X56.912 Y58.278 E10.69699
G1 X57.15 Y57.525 E10.72326
G1 X57.463 Y56.8 E10.74952
G1 X58.042 Y55.816 E10.7875
G1 X58.118 Y55.706 E10.79194
G1 X58.599 Y55.08 E10.8182
G0 F6000 X58.916 Y55.324
G1 F1200 X59.447 Y54.767 E10.8438
G1 X60.032 Y54.268 E10.86937
G1 X60.666 Y53.832 E10.89496
G1 X61.341 Y53.465 E10.92052
G1 X62.214 Y53.114 E10.95181
G1 X71.61 Y50.01 E11.28093
G1 X72.041 Y49.818 E11.29663
G1 X72.328 Y49.644 E11.30779
G1 X72.579 Y49.447 E11.3184
G1 X72.806 Y49.218 E11.32913
G1 X73.005 Y48.963 E11.33989
G1 X73.161 Y48.705 E11.34991
G1 X73.431 Y48.091 E11.37222
G1 X73.492 Y47.928 E11.37801
G1 X73.602 Y47.65 E11.38796
G1 X73.709 Y47.396 E11.39712
G1 X74.225 Y46.138 E11.44235
G1 X74.362 Y45.827 E11.45365
G1 X74.48 Y45.573 E11.46296
G1 X75.042 Y44.348 E11.50779
G1 X75.19 Y44.045 E11.51901
G1 X75.342 Y43.75 E11.53005
G1 X75.937 Y42.581 E11.57367
G1 X76.085 Y42.305 E11.58409
G1 X76.911 Y40.84 E11.64003
G1 X77.06 Y40.587 E11.64979
G1 X77.947 Y39.15 E11.70596
G1 X78.158 Y38.827 E11.71879
G1 X78.342 Y38.561 E11.72955
G1 X79.06 Y37.5 E11.77216
G1 X79.258 Y37.221 E11.78354
G1 X79.423 Y36.999 E11.79274
G1 X80.226 Y35.908 E11.83779
G1 X80.466 Y35.6 E11.85078
G1 X80.65 Y35.376 E11.86042
G1 X81.459 Y34.366 E11.90346
G1 X81.688 Y34.093 E11.91531
G1 X81.908 Y33.844 E11.92637
G1 X82.761 Y32.866 E11.96953
G1 X83.008 Y32.596 E11.9817
G1 X83.241 Y32.354 E11.99287
G1 X84.131 Y31.414 E12.03593
G1 X84.386 Y31.158 E12.04794
G1 X84.578 Y30.974 E12.05679
G1 X85.542 Y30.036 E12.10153
G1 X85.811 Y29.787 E12.11372
G1 X86.063 Y29.565 E12.12489
G1 X87.022 Y28.707 E12.16769
G1 X87.259 Y28.504 E12.17807
G1 X88.563 Y27.432 E12.23421
G1 X88.837 Y27.217 E12.2458
G1 X89.051 Y27.057 E12.25468
G1 X90.126 Y26.242 E12.29955
G1 X90.382 Y26.057 E12.31006
G1 X91.77 Y25.095 E12.36623
G1 X92.061 Y24.903 E12.37782
G1 X92.336 Y24.731 E12.38861
G1 X93.434 Y24.035 E12.43185
G1 X93.697 Y23.875 E12.44209
G1 X95.152 Y23.035 E12.49797
G1 X95.446 Y22.875 E12.5091
G1 X95.706 Y22.74 E12.51884
G1 X96.899 Y22.113 E12.56367
G1 X97.18 Y21.973 E12.57411
G1 X98.699 Y21.255 E12.62999
G1 X98.997 Y21.122 E12.64085
G1 X99.302 Y20.994 E12.65185
G1 X100.515 Y20.479 E12.69568
G1 X100.802 Y20.364 E12.70596
G1 X102.384 Y19.769 E12.76218
G1 X102.704 Y19.657 E12.77345
G1 X102.973 Y19.57 E12.78286
G1 X104.252 Y19.146 E12.82767
G1 X104.553 Y19.054 E12.83814
G1 X106.179 Y18.592 E12.89436
G1 X106.469 Y18.516 E12.90433
G1 X108.1 Y18.123 E12.96013
G1 X108.395 Y18.058 E12.97018
G1 X110.035 Y17.733 E13.02579
G1 X110.389 Y17.672 E13.03774
G1 X110.665 Y17.631 E13.04702
G1 X112 Y17.423 E13.09195
G1 X112.305 Y17.382 E13.10219
G1 X113.98 Y17.192 E13.15826
G1 X114.278 Y17.164 E13.16821
G1 X115.945 Y17.043 E13.2238
G1 X116.281 Y17.027 E13.23499
G1 X116.59 Y17.019 E13.24527
G1 X117.932 Y16.976 E13.28993
G1 X118.246 Y16.972 E13.30038
G1 X119.922 Y16.99 E13.35612
G1 X120.22 Y17 E13.36604
G1 X121.906 Y17.086 E13.42219
G1 X122.213 Y17.108 E13.43243
G1 X123.883 Y17.263 E13.48821
G1 X124.179 Y17.296 E13.49812
G1 X125.84 Y17.518 E13.55385
G1 X126.144 Y17.565 E13.56408
G1 X127.807 Y17.858 E13.62025
G1 X128.145 Y17.926 E13.63171
G1 X128.413 Y17.986 E13.64085
G1 X129.731 Y18.273 E13.68571
G1 X130.083 Y18.359 E13.69776
G1 X130.402 Y18.445 E13.70875
G1 X131.659 Y18.773 E13.75196
G1 X131.993 Y18.868 E13.76351
G1 X132.256 Y18.95 E13.77267
G1 X133.549 Y19.344 E13.81763
G1 X133.901 Y19.461 E13.82997
G1 X134.167 Y19.557 E13.83937
G1 X135.423 Y19.997 E13.88364
G1 X135.779 Y20.132 E13.8963
G1 X136.082 Y20.256 E13.90719
G1 X137.276 Y20.731 E13.94993
G1 X137.573 Y20.857 E13.96066
G1 X139.107 Y21.546 E14.01659
G1 X139.363 Y21.667 E14.02601
G1 X140.859 Y22.409 E14.08155
G1 X141.17 Y22.572 E14.09323
G1 X141.461 Y22.734 E14.10431
G1 X142.612 Y23.366 E14.14798
G1 X142.937 Y23.555 E14.16048
G1 X143.148 Y23.685 E14.16873
G1 X144.302 Y24.381 E14.21355
G1 X144.595 Y24.568 E14.22511
G1 X144.835 Y24.728 E14.2347
G1 X145.959 Y25.47 E14.2795
G1 X146.24 Y25.665 E14.29088
G1 X146.487 Y25.845 E14.30104
G1 X147.588 Y26.641 E14.34623
G1 X147.852 Y26.842 E14.35727
G1 X149.145 Y27.86 E14.412
G1 X149.413 Y28.081 E14.42355
G1 X149.629 Y28.268 E14.43306
G1 X150.652 Y29.144 E14.47785
G1 X150.875 Y29.343 E14.48779
G1 X152.113 Y30.493 E14.54399
