;FLAVOR:Marlin
;TIME:5760
;Filament used: 3.71556m
;Layer height: 0.2
;MINX:56.802
;MINY:14.952
;MINZ:0.2
;MAXX:167.436
;MAXY:112.392
;MAXZ:10
;Generated with Cura_SteamEngine 4.5.0
M140 S60
M105
M190 S60
M104 S190
M105
M109 S190
M82 ;absolute extrusion mode
M201 X500.00 Y500.00 Z100.00 E5000.00 ;Setup machine max acceleration
M203 X500.00 Y500.00 Z10.00 E50.00 ;Setup machine max feedrate
M204 P500.00 R1000.00 T500.00 ;Setup Print/Retract/Travel acceleration
M205 X8.00 Y8.00 Z0.40 E5.00 ;Setup Jerk
M220 S100 ;Reset Feedrate
M221 S100 ;Reset Flowrate

G28 ;Home
M420 S1 Z2 ;Enable ABL using saved Mesh and Fade Height
G29     ;autobedlevel
G92 E0 ;Reset Extruder
G1 Z2.0 F3000 ;Move Z Axis up
G1 X10.1 Y20 Z0.28 F5000.0 ;Move to start position
G1 X10.1 Y200.0 Z0.28 F1500.0 E15 ;Draw the first line
G1 X10.4 Y200.0 Z0.28 F5000.0 ;Move to side a little
G1 X10.4 Y20 Z0.28 F1500.0 E30 ;Draw the second line
G92 E0 ;Reset Extruder
G92 E0
G92 E0
G1 F1500 E-6.5
;LAYER_COUNT:50
;LAYER:0
M107
G0 F6000 X63.997 Y38.178 Z0.2
;TYPE:SKIRT
G1 F1500 E0
G1 F1200 X64.189 Y37.869 E0.0121
G1 X64.351 Y37.621 E0.02195
G1 X65.081 Y36.491 E0.0667
G1 X65.279 Y36.2 E0.0784
G1 X66.231 Y34.853 E0.13326
G1 X66.428 Y34.587 E0.14427
G1 X67.455 Y33.256 E0.20019
G1 X67.675 Y32.984 E0.21182
G1 X68.73 Y31.726 E0.26643
G1 X68.949 Y31.476 E0.27749
G1 X70.087 Y30.229 E0.33364
G1 X70.3 Y30.004 E0.34394
G1 X71.482 Y28.808 E0.39987
G1 X71.751 Y28.549 E0.41229
G1 X71.941 Y28.374 E0.42088
G1 X72.928 Y27.452 E0.4658
G1 X73.202 Y27.208 E0.47801
G1 X73.455 Y26.993 E0.48905
G1 X74.453 Y26.138 E0.53276
G1 X74.701 Y25.934 E0.54344
G1 X76.02 Y24.894 E0.59931
G1 X76.279 Y24.698 E0.61011
G1 X77.64 Y23.714 E0.66597
G1 X77.897 Y23.536 E0.67637
G1 X79.297 Y22.607 E0.73225
G1 X79.576 Y22.43 E0.74324
G1 X81.014 Y21.561 E0.79912
G1 X81.285 Y21.404 E0.80954
G1 X82.765 Y20.589 E0.86573
G1 X83.049 Y20.441 E0.87639
G1 X84.546 Y19.695 E0.93202
G1 X84.833 Y19.559 E0.94258
G1 X86.365 Y18.872 E0.99842
G1 X86.709 Y18.728 E1.01083
G1 X86.961 Y18.629 E1.01983
G1 X88.216 Y18.125 E1.06481
G1 X88.578 Y17.99 E1.07766
G1 X88.888 Y17.883 E1.08857
G1 X90.113 Y17.45 E1.13178
G1 X90.425 Y17.347 E1.14271
G1 X92.023 Y16.857 E1.1983
G1 X92.328 Y16.77 E1.20885
G1 X93.961 Y16.341 E1.26501
G1 X94.268 Y16.267 E1.27551
G1 X95.901 Y15.908 E1.33112
G1 X96.228 Y15.843 E1.34221
G1 X97.892 Y15.551 E1.3984
G1 X98.228 Y15.5 E1.40971
G1 X98.549 Y15.458 E1.42047
G1 X99.853 Y15.281 E1.46424
G1 X100.185 Y15.243 E1.47536
G1 X101.853 Y15.089 E1.53107
G1 X102.169 Y15.066 E1.54161
G1 X103.857 Y14.979 E1.59783
G1 X104.179 Y14.969 E1.60854
G1 X105.853 Y14.952 E1.66422
G1 X106.172 Y14.956 E1.67483
G1 X107.858 Y15.008 E1.73094
G1 X108.173 Y15.024 E1.74143
G1 X109.84 Y15.143 E1.79701
G1 X110.17 Y15.173 E1.80803
G1 X111.843 Y15.364 E1.86404
G1 X112.194 Y15.413 E1.87583
G1 X112.465 Y15.456 E1.88495
G1 X113.807 Y15.662 E1.93011
G1 X114.132 Y15.719 E1.94109
G1 X115.781 Y16.044 E1.99699
G1 X116.101 Y16.114 E2.00788
G1 X117.727 Y16.506 E2.06351
G1 X118.03 Y16.586 E2.07394
G1 X119.646 Y17.045 E2.12981
G1 X119.989 Y17.151 E2.14175
G1 X120.264 Y17.243 E2.1514
G1 X121.545 Y17.664 E2.19624
G1 X121.877 Y17.781 E2.20795
G1 X122.148 Y17.884 E2.21759
G1 X123.41 Y18.355 E2.2624
G1 X123.753 Y18.492 E2.27468
G1 X125.279 Y19.14 E2.32982
G1 X125.601 Y19.285 E2.34157
G1 X125.855 Y19.406 E2.35093
G1 X127.075 Y19.981 E2.39578
G1 X127.388 Y20.137 E2.40742
G1 X128.849 Y20.902 E2.46227
G1 X129.14 Y21.062 E2.47331
G1 X130.596 Y21.903 E2.52924
G1 X130.866 Y22.066 E2.53973
G1 X132.293 Y22.969 E2.59589
G1 X132.561 Y23.146 E2.60658
G1 X133.935 Y24.097 E2.66215
G1 X134.232 Y24.314 E2.67439
G1 X134.451 Y24.481 E2.68355
G1 X135.528 Y25.292 E2.72839
G1 X135.787 Y25.496 E2.73936
G1 X137.087 Y26.564 E2.79531
G1 X137.329 Y26.771 E2.80591
G1 X138.581 Y27.888 E2.86171
G1 X138.817 Y28.107 E2.87242
G1 X140.025 Y29.278 E2.92838
G1 X140.273 Y29.53 E2.94014
G1 X140.473 Y29.742 E2.94983
G1 X141.409 Y30.725 E2.99498
G1 X141.672 Y31.016 E3.00802
G1 X141.881 Y31.258 E3.01866
G1 X142.722 Y32.217 E3.06108
G1 X142.962 Y32.504 E3.07352
G1 X143.138 Y32.725 E3.08292
G1 X143.989 Y33.78 E3.128
G1 X144.189 Y34.038 E3.13886
G1 X145.184 Y35.383 E3.19451
G1 X145.403 Y35.695 E3.20718
G1 X145.546 Y35.91 E3.21577
G1 X146.304 Y37.024 E3.26059
G1 X146.506 Y37.337 E3.27298
G1 X146.655 Y37.581 E3.28249
G1 X147.371 Y38.734 E3.32763
G1 X147.555 Y39.047 E3.3397
G1 X147.695 Y39.298 E3.34926
G1 X148.362 Y40.478 E3.39435
G1 X148.515 Y40.764 E3.40513
G1 X149.276 Y42.254 E3.46078
G1 X149.416 Y42.541 E3.4714
G1 X150.122 Y44.075 E3.52757
G1 X150.255 Y44.382 E3.5387
G1 X150.991 Y46.186 E3.6035
G1 X151.092 Y46.45 E3.6129
G1 X151.289 Y46.886 E3.62881
G1 X151.432 Y47.121 E3.63796
G1 X151.604 Y47.34 E3.64722
G1 X151.79 Y47.526 E3.65597
G1 X152.015 Y47.702 E3.66547
G1 X152.231 Y47.832 E3.67386
G1 X152.659 Y48.021 E3.68942
G1 X152.748 Y48.052 E3.69256
G1 X162.012 Y51.11 E4.01703
G1 X162.748 Y51.395 E4.04328
G1 X163.452 Y51.753 E4.06955
G1 X164.116 Y52.181 E4.09582
G1 X164.734 Y52.673 E4.1221
G1 X165.298 Y53.226 E4.14837
G1 X166.013 Y54.125 E4.18657
G1 X166.09 Y54.238 E4.19112
G1 X166.501 Y54.912 E4.21738
G1 X166.842 Y55.624 E4.24364
G1 X167.109 Y56.368 E4.26993
G1 X167.299 Y57.134 E4.29618
G1 X167.411 Y57.916 E4.32245
G1 X167.436 Y58.975 E4.35768
G1 X167.378 Y60.284 E4.40126
G1 X167.36 Y60.84 E4.41977
G1 X167.294 Y61.627 E4.44603
G1 X167.15 Y62.404 E4.47232
G1 X166.927 Y63.161 E4.49856
G1 X166.724 Y63.661 E4.51651
G1 X166.974 Y64.324 E4.54008
G1 X167.176 Y65.087 E4.56633
G1 X167.3 Y65.867 E4.5926
G1 X167.336 Y66.323 E4.60781
G1 X167.434 Y68.336 E4.67485
G1 X167.432 Y69.125 E4.70109
G1 X167.351 Y69.911 E4.72737
G1 X167.19 Y70.684 E4.75363
G1 X166.953 Y71.437 E4.77989
G1 X166.64 Y72.162 E4.80615
G1 X166.079 Y73.122 E4.84313
G1 X166.003 Y73.233 E4.84761
G1 X165.524 Y73.861 E4.87388
G1 X164.985 Y74.437 E4.90011
G1 X164.39 Y74.956 E4.92638
G1 X163.745 Y75.413 E4.95267
G1 X163.058 Y75.801 E4.97891
G1 X162.013 Y76.232 E5.01651
G1 X152.621 Y79.335 E5.34549
G1 X152.247 Y79.502 E5.35912
G1 X152.011 Y79.646 E5.36831
G1 X151.782 Y79.826 E5.378
G1 X151.604 Y80.004 E5.38637
G1 X151.421 Y80.238 E5.39625
G1 X151.298 Y80.443 E5.4042
G1 X151.045 Y81.019 E5.42513
G1 X150.982 Y81.187 E5.4311
G1 X150.255 Y82.963 E5.49492
G1 X150.11 Y83.293 E5.50691
G1 X149.987 Y83.557 E5.5166
G1 X149.426 Y84.782 E5.56141
G1 X149.27 Y85.103 E5.57328
G1 X149.118 Y85.398 E5.58432
G1 X148.524 Y86.564 E5.62784
G1 X148.368 Y86.854 E5.6388
G1 X147.538 Y88.327 E5.69503
G1 X147.345 Y88.651 E5.70757
G1 X147.211 Y88.864 E5.71594
G1 X146.505 Y90.01 E5.76071
G1 X146.285 Y90.348 E5.77413
G1 X146.096 Y90.622 E5.7852
G1 X145.378 Y91.684 E5.82783
G1 X145.167 Y91.983 E5.84001
G1 X144.192 Y93.3 E5.89451
G1 X143.957 Y93.603 E5.90726
G1 X143.801 Y93.794 E5.91546
G1 X142.959 Y94.846 E5.96028
G1 X142.714 Y95.137 E5.97293
G1 X142.526 Y95.35 E5.98238
G1 X141.635 Y96.371 E6.02745
G1 X141.38 Y96.649 E6.04
G1 X141.154 Y96.884 E6.05084
G1 X140.263 Y97.825 E6.09394
G1 X139.994 Y98.095 E6.10662
G1 X139.808 Y98.273 E6.11518
G1 X138.844 Y99.212 E6.15994
G1 X138.557 Y99.478 E6.17296
G1 X138.355 Y99.656 E6.18191
G1 X137.353 Y100.554 E6.22667
G1 X137.048 Y100.813 E6.23997
G1 X136.851 Y100.972 E6.24839
G1 X135.815 Y101.827 E6.29307
G1 X135.545 Y102.04 E6.30451
G1 X134.195 Y103.058 E6.36075
G1 X133.938 Y103.244 E6.3713
G1 X132.558 Y104.199 E6.42712
G1 X132.295 Y104.373 E6.4376
G1 X130.883 Y105.268 E6.49321
G1 X130.607 Y105.435 E6.50394
G1 X129.152 Y106.275 E6.55982
G1 X128.842 Y106.444 E6.57156
G1 X128.584 Y106.578 E6.58123
G1 X127.391 Y107.205 E6.62605
G1 X127.096 Y107.353 E6.63703
G1 X125.569 Y108.075 E6.69321
G1 X125.279 Y108.204 E6.70377
G1 X123.741 Y108.856 E6.75933
G1 X123.438 Y108.978 E6.77019
G1 X121.858 Y109.571 E6.82632
G1 X121.56 Y109.676 E6.83683
G1 X119.971 Y110.2 E6.89248
G1 X119.662 Y110.294 E6.90322
G1 X118.045 Y110.754 E6.95914
G1 X117.741 Y110.834 E6.96959
G1 X116.104 Y111.229 E7.0256
G1 X115.749 Y111.306 E7.03769
G1 X115.485 Y111.357 E7.04663
G1 X114.163 Y111.622 E7.09147
G1 X113.813 Y111.684 E7.1033
G1 X112.145 Y111.94 E7.15942
G1 X111.843 Y111.98 E7.16955
G1 X110.171 Y112.17 E7.22552
G1 X109.85 Y112.2 E7.23625
G1 X108.182 Y112.32 E7.29187
G1 X107.833 Y112.337 E7.30349
G1 X107.538 Y112.345 E7.31331
G1 X106.184 Y112.388 E7.35836
G1 X105.857 Y112.392 E7.36924
G1 X104.183 Y112.375 E7.42492
G1 X103.86 Y112.365 E7.43567
G1 X102.173 Y112.278 E7.49185
G1 X101.855 Y112.255 E7.50246
G1 X100.184 Y112.1 E7.55827
G1 X99.87 Y112.064 E7.56878
G1 X98.21 Y111.842 E7.62449
G1 X97.891 Y111.793 E7.63522
G1 X96.228 Y111.5 E7.69139
G1 X95.871 Y111.428 E7.7035
G1 X95.611 Y111.37 E7.71236
G1 X94.293 Y111.084 E7.75722
G1 X93.928 Y110.995 E7.76971
G1 X93.607 Y110.909 E7.78076
G1 X92.349 Y110.58 E7.82401
G1 X91.997 Y110.479 E7.83619
G1 X91.733 Y110.397 E7.84539
G1 X90.439 Y110.003 E7.89038
G1 X90.066 Y109.879 E7.90345
G1 X89.822 Y109.791 E7.91208
G1 X88.547 Y109.344 E7.95702
G1 X88.17 Y109.2 E7.97044
G1 X87.943 Y109.107 E7.9786
G1 X86.682 Y108.606 E8.02373
G1 X86.374 Y108.476 E8.03485
G1 X84.84 Y107.789 E8.09075
G1 X84.53 Y107.642 E8.10216
G1 X84.241 Y107.497 E8.11292
G1 X83.063 Y106.912 E8.15666
G1 X82.724 Y106.733 E8.16941
G1 X82.488 Y106.601 E8.17841
G1 X81.306 Y105.952 E8.22326
G1 X80.985 Y105.766 E8.23559
G1 X80.748 Y105.621 E8.24484
G1 X79.592 Y104.924 E8.28973
G1 X79.313 Y104.747 E8.30072
G1 X77.915 Y103.821 E8.35649
G1 X77.652 Y103.639 E8.36713
G1 X76.288 Y102.653 E8.42311
G1 X76.006 Y102.439 E8.43489
G1 X75.748 Y102.234 E8.44585
G1 X74.712 Y101.419 E8.48969
G1 X74.427 Y101.185 E8.50195
G1 X74.181 Y100.972 E8.51277
G1 X73.197 Y100.131 E8.55583
G1 X72.927 Y99.889 E8.56789
G1 X71.718 Y98.765 E8.62279
G1 X71.478 Y98.532 E8.63392
G1 X70.296 Y97.336 E8.68985
G1 X70.081 Y97.109 E8.70024
G1 X68.95 Y95.869 E8.75607
G1 X68.74 Y95.63 E8.76665
G1 X67.659 Y94.343 E8.82255
G1 X67.421 Y94.044 E8.83526
G1 X67.225 Y93.786 E8.84604
G1 X66.443 Y92.776 E8.88852
G1 X66.224 Y92.48 E8.90077
G1 X66.034 Y92.209 E8.91178
G1 X65.271 Y91.132 E8.95568
G1 X65.091 Y90.867 E8.96633
G1 X64.177 Y89.458 E9.02219
G1 X64.003 Y89.177 E9.03318
G1 X63.154 Y87.738 E9.08875
G1 X63.002 Y87.468 E9.09906
G1 X62.202 Y85.98 E9.15525
G1 X62.034 Y85.648 E9.16763
G1 X61.921 Y85.412 E9.17633
G1 X61.326 Y84.191 E9.2215
G1 X61.171 Y83.852 E9.2339
G1 X61.043 Y83.554 E9.24469
G1 X60.523 Y82.364 E9.28788
G1 X60.383 Y82.022 E9.30017
G1 X60.283 Y81.76 E9.3095
G1 X59.794 Y80.504 E9.35433
G1 X59.68 Y80.189 E9.36547
G1 X59.136 Y78.592 E9.42159
G1 X59.033 Y78.267 E9.43293
G1 X58.564 Y76.686 E9.48777
G1 X58.467 Y76.327 E9.50014
G1 X58.39 Y76.014 E9.51086
G1 X58.069 Y74.743 E9.55446
G1 X57.985 Y74.374 E9.56705
G1 X57.921 Y74.056 E9.57784
G1 X57.656 Y72.799 E9.62057
G1 X57.585 Y72.412 E9.63365
G1 X57.544 Y72.154 E9.64234
G1 X57.322 Y70.824 E9.68719
G1 X57.275 Y70.496 E9.69821
G1 X57.068 Y68.82 E9.75438
G1 X57.035 Y68.506 E9.76488
G1 X56.898 Y66.846 E9.82028
G1 X56.879 Y66.528 E9.83088
G1 X56.809 Y64.845 E9.8869
G1 X56.802 Y64.498 E9.89844
G1 X56.802 Y62.842 E9.95352
G1 X56.809 Y62.513 E9.96447
G1 X56.879 Y60.823 E10.02073
G1 X56.898 Y60.505 E10.03132
G1 X57.035 Y58.843 E10.08679
G1 X57.068 Y58.528 E10.09732
G1 X57.275 Y56.852 E10.15349
G1 X57.32 Y56.536 E10.16411
G1 X57.593 Y54.885 E10.21976
G1 X57.653 Y54.565 E10.23059
G1 X57.996 Y52.92 E10.28648
G1 X58.067 Y52.613 E10.29696
G1 X58.476 Y50.984 E10.35282
G1 X58.561 Y50.671 E10.36361
G1 X59.04 Y49.051 E10.4198
G1 X59.136 Y48.749 E10.43034
G1 X59.675 Y47.166 E10.48596
G1 X59.799 Y46.828 E10.49793
G1 X59.903 Y46.563 E10.5074
G1 X60.391 Y45.299 E10.55247
G1 X60.518 Y44.992 E10.56352
G1 X61.187 Y43.457 E10.61921
G1 X61.318 Y43.17 E10.6297
G1 X62.054 Y41.652 E10.68581
G1 X62.221 Y41.328 E10.69794
G1 X62.376 Y41.043 E10.70873
G1 X62.99 Y39.898 E10.75194
G1 X63.166 Y39.585 E10.76388
G1 X63.336 Y39.3 E10.77492
G1 X63.997 Y38.178 E10.81823
G0 F6000 X64.341 Y38.381
G1 F1200 X64.524 Y38.088 E10.82972
G1 X64.687 Y37.839 E10.83962
G1 X65.417 Y36.708 E10.88439
G1 X65.604 Y36.432 E10.89548
G1 X66.558 Y35.084 E10.95041
G1 X66.744 Y34.831 E10.96085
G1 X67.771 Y33.5 E11.01677
G1 X67.98 Y33.242 E11.02781
G1 X68.194 Y32.989 E11.03883
G1 X69.037 Y31.983 E11.08249
G1 X69.244 Y31.746 E11.09295
G1 X70.382 Y30.499 E11.1491
G1 X70.585 Y30.285 E11.15891
G1 X71.767 Y29.089 E11.21484
G1 X72.021 Y28.844 E11.22658
G1 X72.257 Y28.627 E11.23724
G1 X73.202 Y27.744 E11.28026
G1 X73.461 Y27.513 E11.2918
G1 X73.689 Y27.319 E11.30176
G1 X74.713 Y26.441 E11.34662
G1 X74.948 Y26.248 E11.35674
G1 X76.267 Y25.208 E11.4126
G1 X76.513 Y25.022 E11.42286
G1 X77.874 Y24.038 E11.47872
G1 X78.118 Y23.869 E11.48859
G1 X79.518 Y22.94 E11.54448
G1 X79.783 Y22.773 E11.55489
G1 X81.221 Y21.904 E11.61078
G1 X81.478 Y21.755 E11.62066
G1 X82.958 Y20.94 E11.67685
G1 X83.227 Y20.799 E11.68695
G1 X84.724 Y20.053 E11.74258
G1 X84.997 Y19.924 E11.75263
G1 X86.529 Y19.237 E11.80847
G1 X86.855 Y19.1 E11.82023
G1 X87.113 Y18.999 E11.82945
G1 X88.365 Y18.496 E11.87432
G1 X88.709 Y18.368 E11.88653
G1 X88.984 Y18.273 E11.89621
G1 X90.246 Y17.827 E11.94073
G1 X90.543 Y17.729 E11.95113
G1 X92.141 Y17.239 E12.00672
G1 X92.43 Y17.157 E12.01671
G1 X94.063 Y16.728 E12.07287
G1 X94.354 Y16.658 E12.08282
G1 X95.987 Y16.299 E12.13843
G1 X96.297 Y16.237 E12.14895
G1 X97.961 Y15.945 E12.20514
G1 X98.28 Y15.897 E12.21587
G1 X98.566 Y15.86 E12.22546
G1 X99.907 Y15.677 E12.27048
G1 X100.222 Y15.641 E12.28102
G1 X101.89 Y15.487 E12.33674
G1 X102.189 Y15.466 E12.3467
G1 X103.877 Y15.379 E12.40292
G1 X104.183 Y15.369 E12.41311
G1 X105.857 Y15.352 E12.46879
G1 X106.16 Y15.356 E12.47886
G1 X107.846 Y15.408 E12.53497
G1 X108.145 Y15.423 E12.54492
G1 X109.812 Y15.542 E12.60051
G1 X110.124 Y15.571 E12.61093
G1 X111.797 Y15.762 E12.66694
G1 X112.131 Y15.808 E12.67815
G1 X112.405 Y15.852 E12.68738
G1 X113.747 Y16.058 E12.73254
G1 X114.055 Y16.112 E12.74294
G1 X115.704 Y16.437 E12.79884
G1 X116.007 Y16.503 E12.80916
G1 X117.633 Y16.895 E12.86479
G1 X117.921 Y16.971 E12.87469
G1 X119.537 Y17.43 E12.93057
G1 X119.862 Y17.53 E12.94188
G1 X120.176 Y17.635 E12.95289
G1 X121.42 Y18.044 E12.99644
G1 X121.735 Y18.155 E13.00755
G1 X122.046 Y18.273 E13.01862
G1 X123.27 Y18.73 E13.06207
G1 X123.595 Y18.86 E13.07371
G1 X123.873 Y18.979 E13.08377
G1 X125.123 Y19.508 E13.12892
G1 X125.429 Y19.646 E13.14008
G1 X125.685 Y19.768 E13.14951
G1 X126.905 Y20.343 E13.19437
G1 X127.201 Y20.491 E13.20538
G1 X128.664 Y21.256 E13.26029
G1 X128.94 Y21.408 E13.27077
G1 X130.396 Y22.249 E13.32669
G1 X130.652 Y22.404 E13.33665
G1 X132.079 Y23.307 E13.39281
G1 X132.333 Y23.475 E13.40294
G1 X133.707 Y24.426 E13.45852
G1 X133.989 Y24.631 E13.47012
G1 X134.252 Y24.832 E13.48113
G1 X135.287 Y25.612 E13.52423
G1 X135.533 Y25.805 E13.53463
G1 X136.833 Y26.873 E13.59059
G1 X137.062 Y27.069 E13.60061
G1 X138.314 Y28.186 E13.65642
G1 X138.539 Y28.395 E13.66663
G1 X139.747 Y29.566 E13.72259
G1 X139.982 Y29.805 E13.73374
G1 X140.183 Y30.018 E13.74348
G1 X141.119 Y31.001 E13.78862
G1 X141.369 Y31.277 E13.80101
G1 X141.559 Y31.498 E13.8107
G1 X142.422 Y32.481 E13.85421
G1 X142.649 Y32.753 E13.86599
G1 X142.827 Y32.976 E13.87548
G1 X143.678 Y34.031 E13.92057
G1 X143.867 Y34.276 E13.93086
G1 X144.862 Y35.621 E13.9865
G1 X145.07 Y35.917 E13.99854
G1 X145.215 Y36.135 E14.00724
G1 X145.973 Y37.249 E14.05206
G1 X146.165 Y37.546 E14.06382
G1 X146.339 Y37.83 E14.0749
G1 X147.031 Y38.945 E14.11855
G1 X147.206 Y39.242 E14.13001
G1 X147.347 Y39.495 E14.13965
G1 X148.013 Y40.675 E14.18471
G1 X148.159 Y40.946 E14.19495
G1 X148.92 Y42.436 E14.2506
G1 X149.052 Y42.708 E14.26065
G1 X149.758 Y44.242 E14.31682
G1 X149.885 Y44.533 E14.32738
G1 X150.618 Y46.329 E14.3919
G1 X150.728 Y46.615 E14.40209
G1 X150.931 Y47.067 E14.41857
G1 X151.105 Y47.353 E14.4297
G1 X151.3 Y47.602 E14.44022
G1 X151.526 Y47.827 E14.45083
G1 X151.794 Y48.036 E14.46213
G1 X152.043 Y48.186 E14.4718
G1 X152.51 Y48.393 E14.48879
G1 X152.618 Y48.43 E14.49259
G1 X161.887 Y51.49 E14.81724
G1 X162.604 Y51.769 E14.84283
G1 X163.288 Y52.12 E14.8684
G1 X163.931 Y52.541 E14.89397
G1 X164.528 Y53.026 E14.91955
G1 X165.071 Y53.571 E14.94514
