;FLAVOR:Marlin
;TIME:5017
;Filament used: 3.25065m
;Layer height: 0.2
;MINX:80.08
;MINY:9.554
;MINZ:0.2
;MAXX:153.776
;MAXY:175.43
;MAXZ:10.2
;Generated with Cura_SteamEngine 4.5.0
M140 S60
M105
M190 S60
M104 S190
M105
M109 S190
M82 ;absolute extrusion mode
M201 X500.00 Y500.00 Z100.00 E5000.00 ;Setup machine max acceleration
M203 X500.00 Y500.00 Z10.00 E50.00 ;Setup machine max feedrate
M204 P500.00 R1000.00 T500.00 ;Setup Print/Retract/Travel acceleration
M205 X8.00 Y8.00 Z0.40 E5.00 ;Setup Jerk
M220 S100 ;Reset Feedrate
M221 S100 ;Reset Flowrate

G28 ;Home
M420 S1 Z2 ;Enable ABL using saved Mesh and Fade Height
G29     ;autobedlevel
G92 E0 ;Reset Extruder
G1 Z2.0 F3000 ;Move Z Axis up
G1 X10.1 Y20 Z0.28 F5000.0 ;Move to start position
G1 X10.1 Y200.0 Z0.28 F1500.0 E15 ;Draw the first line
G1 X10.4 Y200.0 Z0.28 F5000.0 ;Move to side a little
G1 X10.4 Y20 Z0.28 F1500.0 E30 ;Draw the second line
G92 E0 ;Reset Extruder
G92 E0
G92 E0
G1 F1500 E-6.5
;LAYER_COUNT:51
;LAYER:0
M107
G0 F6000 X80.513 Y24.627 Z0.2
;TYPE:SKIRT
G1 F1500 E0
G1 F1200 X80.811 Y23.896 E0.02626
G1 X81.181 Y23.198 E0.05253
G1 X81.494 Y22.717 E0.07162
G1 X82.543 Y21.224 E0.13231
G1 X83.029 Y20.601 E0.15859
G1 X83.364 Y20.239 E0.17499
G1 X83.483 Y20.118 E0.18064
G1 X84.064 Y19.583 E0.20691
G1 X84.39 Y19.34 E0.22043
G1 X84.6 Y18.731 E0.24186
G1 X84.668 Y18.561 E0.24795
G1 X84.998 Y17.844 E0.2742
G1 X85.526 Y16.977 E0.30796
G1 X87 Y14.877 E0.3933
G1 X87.486 Y14.254 E0.41958
G1 X88.032 Y13.684 E0.44583
G1 X88.633 Y13.172 E0.47209
G1 X89.283 Y12.723 E0.49836
G1 X89.975 Y12.343 E0.52462
G1 X90.701 Y12.034 E0.55086
G1 X91.456 Y11.8 E0.57715
G1 X92.042 Y11.674 E0.59709
G1 X92.208 Y11.645 E0.60269
G1 X92.991 Y11.549 E0.62893
G1 X93.781 Y11.532 E0.65521
G1 X94.568 Y11.596 E0.68148
G1 X95.345 Y11.738 E0.70775
G1 X96.031 Y11.938 E0.73151
G1 X96.715 Y11.48 E0.75889
G1 X97.449 Y11.042 E0.78732
G1 X98.147 Y10.672 E0.8136
G1 X98.887 Y10.372 E0.84016
G1 X99.696 Y10.091 E0.86864
G1 X100.454 Y9.87 E0.8949
G1 X101.275 Y9.721 E0.92265
G1 X102.12 Y9.614 E0.95098
G1 X102.908 Y9.554 E0.97727
G1 X103.703 Y9.575 E1.00372
G1 X104.554 Y9.641 E1.03211
G1 X105.337 Y9.742 E1.05837
G1 X106.134 Y9.93 E1.0856
G1 X106.954 Y10.169 E1.11401
G1 X107.7 Y10.428 E1.14028
G1 X108.443 Y10.776 E1.16756
G1 X109.2 Y11.18 E1.1961
G1 X109.877 Y11.586 E1.22236
G1 X110.526 Y12.073 E1.24935
G1 X111.179 Y12.618 E1.27764
G1 X111.759 Y13.154 E1.3039
G1 X112.298 Y13.767 E1.33105
G1 X112.828 Y14.437 E1.35946
G1 X113.286 Y15.08 E1.38572
G1 X113.688 Y15.788 E1.4128
G1 X114.07 Y16.552 E1.44121
G1 X114.386 Y17.275 E1.46745
G1 X114.635 Y18.052 E1.49459
G1 X114.853 Y18.879 E1.52304
G1 X115.016 Y19.652 E1.54931
G1 X115.101 Y20.464 E1.57647
G1 X115.145 Y21.314 E1.60478
G1 X115.145 Y22.103 E1.63102
G1 X115.05 Y22.991 E1.66072
G1 X115.852 Y22.902 E1.68756
G1 X116.668 Y22.898 E1.7147
G1 X117.524 Y22.938 E1.7432
G1 X118.31 Y23.014 E1.76947
G1 X119.115 Y23.178 E1.79679
G1 X119.934 Y23.39 E1.82493
G1 X120.687 Y23.626 E1.85118
G1 X121.431 Y23.946 E1.87811
G1 X122.201 Y24.326 E1.90667
G1 X122.89 Y24.711 E1.93292
G1 X123.559 Y25.181 E1.96012
G1 X124.233 Y25.709 E1.98859
G1 X124.829 Y26.227 E2.01486
G1 X125.383 Y26.817 E2.04178
G1 X125.931 Y27.466 E2.07003
G1 X126.409 Y28.094 E2.09628
G1 X126.837 Y28.797 E2.12365
G1 X127.244 Y29.552 E2.15218
G1 X127.583 Y30.265 E2.17844
G1 X127.854 Y31.029 E2.2054
G1 X128.097 Y31.846 E2.23375
G1 X128.284 Y32.614 E2.26004
G1 X128.395 Y33.431 E2.28746
G1 X128.465 Y34.282 E2.31586
G1 X128.49 Y35.071 E2.34212
G1 X128.434 Y35.863 E2.36853
G1 X128.331 Y36.71 E2.39691
G1 X128.196 Y37.488 E2.42317
G1 X127.947 Y38.356 E2.4532
G1 X128.747 Y38.408 E2.47987
G1 X129.554 Y38.546 E2.5071
G1 X130.388 Y38.734 E2.53553
G1 X131.149 Y38.946 E2.56181
G1 X131.911 Y39.247 E2.58906
G1 X132.689 Y39.602 E2.6175
G1 X133.39 Y39.966 E2.64377
G1 X134.065 Y40.409 E2.67063
G1 X134.756 Y40.916 E2.69913
G1 X135.368 Y41.415 E2.72539
G1 X135.943 Y41.991 E2.75246
G1 X136.512 Y42.624 E2.78077
G1 X137.009 Y43.237 E2.80702
G1 X137.456 Y43.921 E2.8342
G1 X137.884 Y44.658 E2.86255
G1 X138.246 Y45.36 E2.88882
G1 X138.541 Y46.114 E2.91574
G1 X138.81 Y46.923 E2.9441
G1 X139.02 Y47.684 E2.97036
G1 X139.157 Y48.49 E2.99755
G1 X139.255 Y49.339 E3.02598
G1 X139.305 Y50.127 E3.05224
G1 X139.274 Y50.942 E3.07936
G1 X139.196 Y51.797 E3.10792
G1 X139.084 Y52.578 E3.13416
G1 X138.887 Y53.37 E3.16131
G1 X138.638 Y54.184 E3.18962
G1 X138.369 Y54.926 E3.21587
G1 X137.975 Y55.729 E3.24562
G1 X138.771 Y55.924 E3.27288
G1 X139.523 Y56.193 E3.29944
G1 X140.307 Y56.52 E3.32769
G1 X141.019 Y56.861 E3.35395
G1 X141.716 Y57.287 E3.38112
G1 X142.423 Y57.772 E3.40964
G1 X143.051 Y58.251 E3.4359
G1 X143.653 Y58.818 E3.46341
G1 X144.243 Y59.436 E3.49183
G1 X144.758 Y60.034 E3.51808
G1 X145.218 Y60.692 E3.54478
G1 X145.668 Y61.413 E3.57305
G1 X146.052 Y62.103 E3.59931
G1 X146.374 Y62.858 E3.62661
G1 X146.668 Y63.66 E3.65502
G1 X146.902 Y64.415 E3.68131
G1 X147.062 Y65.21 E3.70828
G1 X147.187 Y66.06 E3.73686
G1 X147.262 Y66.846 E3.76312
G1 X147.256 Y67.659 E3.79016
G1 X147.205 Y68.514 E3.81865
G1 X147.118 Y69.299 E3.84492
G1 X146.943 Y70.105 E3.87235
G1 X146.719 Y70.925 E3.90062
G1 X146.473 Y71.676 E3.92691
G1 X146.144 Y72.413 E3.95375
G1 X145.758 Y73.17 E3.98201
G1 X145.364 Y73.855 E4.0083
G1 X144.836 Y74.579 E4.0381
G1 X145.576 Y74.903 E4.06497
G1 X146.29 Y75.311 E4.09232
G1 X147.006 Y75.771 E4.12063
G1 X147.648 Y76.231 E4.14689
G1 X148.259 Y76.772 E4.17404
G1 X148.864 Y77.367 E4.20226
G1 X149.399 Y77.948 E4.22853
G1 X149.881 Y78.595 E4.25536
G1 X150.36 Y79.312 E4.28404
G1 X150.765 Y79.99 E4.31031
G1 X151.107 Y80.724 E4.33724
G1 X151.426 Y81.514 E4.36558
G1 X151.684 Y82.261 E4.39187
G1 X151.874 Y83.076 E4.4197
G1 X152.023 Y83.918 E4.44814
G1 X152.121 Y84.701 E4.47439
G1 X152.139 Y85.487 E4.50054
G1 X152.116 Y86.342 E4.52898
G1 X152.055 Y87.129 E4.55524
G1 X151.904 Y87.95 E4.583
G1 X151.707 Y88.772 E4.61112
G1 X151.485 Y89.53 E4.63739
G1 X151.174 Y90.286 E4.66458
G1 X150.805 Y91.067 E4.69331
G1 X150.432 Y91.763 E4.71957
G1 X149.992 Y92.416 E4.74576
G1 X149.481 Y93.097 E4.77408
G1 X148.976 Y93.704 E4.80034
G1 X148.324 Y94.334 E4.83049
G1 X148.982 Y94.774 E4.85682
G1 X149.615 Y95.299 E4.88417
G1 X150.248 Y95.883 E4.91282
G1 X150.801 Y96.447 E4.93909
G1 X151.31 Y97.088 E4.96631
G1 X151.807 Y97.785 E4.99479
G1 X152.232 Y98.45 E5.02104
G1 X152.597 Y99.176 E5.04806
G1 X152.937 Y99.95 E5.07618
G1 X153.218 Y100.688 E5.10244
G1 X153.428 Y101.477 E5.1296
G1 X153.606 Y102.321 E5.15829
G1 X153.73 Y103.101 E5.18456
G1 X153.774 Y103.913 E5.21161
G1 X153.776 Y104.76 E5.23978
G1 X153.738 Y105.548 E5.26602
G1 X153.617 Y106.342 E5.29273
G1 X153.444 Y107.187 E5.32142
G1 X153.247 Y107.952 E5.34769
G1 X152.962 Y108.719 E5.37491
G1 X152.626 Y109.496 E5.40306
G1 X152.277 Y110.204 E5.42932
G1 X151.826 Y110.916 E5.45735
G1 X151.331 Y111.613 E5.48578
G1 X150.842 Y112.233 E5.51205
G1 X150.299 Y112.795 E5.53804
G1 X149.67 Y113.383 E5.56667
G1 X149.066 Y113.892 E5.59295
G1 X148.323 Y114.393 E5.62275
G1 X148.896 Y114.94 E5.6491
G1 X149.434 Y115.574 E5.67676
G1 X149.95 Y116.252 E5.70509
G1 X150.396 Y116.904 E5.73137
G1 X150.785 Y117.622 E5.75853
G1 X151.157 Y118.403 E5.7873
G1 X151.46 Y119.132 E5.81356
G1 X151.69 Y119.898 E5.84016
G1 X151.891 Y120.717 E5.86821
G1 X152.04 Y121.492 E5.89446
G1 X152.112 Y122.33 E5.92243
G1 X152.139 Y123.187 E5.95095
G1 X152.124 Y123.977 E5.97723
G1 X152.029 Y124.76 E6.00346
G1 X151.884 Y125.6 E6.03181
G1 X151.711 Y126.37 E6.05806
G1 X151.45 Y127.145 E6.08526
G1 X151.136 Y127.938 E6.11363
G1 X150.809 Y128.656 E6.13987
G1 X150.395 Y129.361 E6.16706
G1 X149.92 Y130.081 E6.19575
G1 X149.452 Y130.718 E6.22204
G1 X148.906 Y131.32 E6.24907
G1 X148.303 Y131.919 E6.27734
G1 X147.715 Y132.446 E6.30361
G1 X147.05 Y132.929 E6.33094
G1 X146.336 Y133.392 E6.35925
G1 X145.652 Y133.788 E6.38553
G1 X144.838 Y134.149 E6.41515
G1 X145.315 Y134.799 E6.44197
G1 X145.73 Y135.509 E6.46932
G1 X146.12 Y136.265 E6.49761
G1 X146.446 Y136.984 E6.52387
G1 X146.702 Y137.749 E6.5507
G1 X146.93 Y138.568 E6.57898
G1 X147.103 Y139.339 E6.60526
G1 X147.2 Y140.159 E6.63272
G1 X147.255 Y141.014 E6.66122
G1 X147.266 Y141.804 E6.68749
G1 X147.195 Y142.601 E6.71411
G1 X147.076 Y143.447 E6.74252
G1 X146.927 Y144.223 E6.7688
G1 X146.687 Y145.015 E6.79633
G1 X146.395 Y145.822 E6.82487
G1 X146.089 Y146.55 E6.85114
G1 X145.702 Y147.258 E6.87798
G1 X145.258 Y147.979 E6.90614
G1 X144.81 Y148.63 E6.93242
G1 X144.279 Y149.253 E6.95965
G1 X143.687 Y149.878 E6.98828
G1 X143.116 Y150.423 E7.01453
G1 X142.477 Y150.918 E7.04142
G1 X141.778 Y151.404 E7.06973
G1 X141.107 Y151.822 E7.09603
G1 X140.357 Y152.187 E7.12377
G1 X139.57 Y152.519 E7.15218
G1 X138.828 Y152.788 E7.17843
G1 X137.977 Y152.999 E7.20759
G1 X138.335 Y153.725 E7.23452
G1 X138.614 Y154.478 E7.26122
G1 X138.869 Y155.294 E7.28966
G1 X139.066 Y156.059 E7.31593
G1 X139.188 Y156.869 E7.34318
G1 X139.27 Y157.716 E7.37148
G1 X139.306 Y158.505 E7.39775
G1 X139.26 Y159.31 E7.42457
G1 X139.167 Y160.166 E7.45321
G1 X139.042 Y160.946 E7.47948
G1 X138.827 Y161.747 E7.50706
G1 X138.562 Y162.558 E7.53544
G1 X138.279 Y163.295 E7.5617
G1 X137.912 Y164.02 E7.58873
G1 X137.487 Y164.76 E7.61711
G1 X137.059 Y165.424 E7.64339
G1 X136.554 Y166.055 E7.67027
G1 X135.989 Y166.691 E7.69856
G1 X135.436 Y167.254 E7.72481
G1 X134.802 Y167.778 E7.75217
G1 X134.111 Y168.29 E7.78077
G1 X133.453 Y168.728 E7.80706
G1 X132.738 Y169.104 E7.83393
G1 X131.963 Y169.462 E7.86232
G1 X131.23 Y169.756 E7.88859
G1 X130.435 Y169.984 E7.9161
G1 X129.606 Y170.174 E7.94439
G1 X128.828 Y170.311 E7.97066
G1 X128.037 Y170.369 E7.99704
G1 X127.186 Y170.388 E8.02535
G1 X126.397 Y170.366 E8.0516
G1 X125.582 Y170.258 E8.07895
G1 X124.735 Y170.1 E8.1076
G1 X123.967 Y169.916 E8.13387
G1 X123.751 Y169.84 E8.14149
G1 X123.661 Y169.912 E8.14532
G1 X123.02 Y170.373 E8.17158
G1 X122.336 Y170.768 E8.19785
G1 X121.615 Y171.091 E8.22413
G1 X120.866 Y171.339 E8.25037
G1 X120.141 Y171.501 E8.27508
G1 X119.986 Y171.705 E8.2836
G1 X119.23 Y172.484 E8.31971
G1 X118.717 Y172.944 E8.34262
G1 X118.103 Y173.441 E8.3689
G1 X117.155 Y174.033 E8.40607
G1 X116.544 Y174.356 E8.42906
G1 X115.828 Y174.689 E8.45532
G1 X114.801 Y175.024 E8.49125
G1 X114.137 Y175.191 E8.51402
G1 X113.363 Y175.345 E8.54027
G1 X112.269 Y175.427 E8.57676
G1 X111.575 Y175.43 E8.59984
G1 X110.786 Y175.393 E8.62611
G1 X109.7 Y175.21 E8.66274
G1 X109.033 Y175.048 E8.68557
G1 X108.276 Y174.823 E8.71184
G1 X107.282 Y174.392 E8.74787
G1 X106.669 Y174.074 E8.77084
G1 X105.988 Y173.675 E8.79709
G1 X105.112 Y173.009 E8.83369
G1 X104.592 Y172.552 E8.85672
G1 X104.026 Y172.001 E8.88299
G1 X103.331 Y171.137 E8.91987
G1 X102.94 Y170.573 E8.9427
G1 X102.523 Y169.902 E8.96897
G1 X102.076 Y168.946 E9.00407
G1 X101.827 Y168.303 E9.02701
G1 X101.58 Y167.553 E9.05327
G1 X101.361 Y166.449 E9.09071
G1 X101.276 Y165.766 E9.1136
G1 X101.218 Y164.979 E9.13985
G1 X101.267 Y163.912 E9.17537
G1 X101.346 Y163.225 E9.19837
G1 X101.476 Y162.446 E9.22464
G1 X101.794 Y161.371 E9.26193
G1 X102.035 Y160.73 E9.2847
G1 X102.35 Y160.006 E9.31096
G1 X102.896 Y159.074 E9.34689
G1 X103.168 Y158.677 E9.3629
G1 X103.147 Y158.213 E9.37834
G1 X103.193 Y157.425 E9.4046
G1 X103.339 Y156.55 E9.4341
G1 X103.36 Y156.457 E9.43727
G1 X103.572 Y155.696 E9.46355
G1 X103.861 Y154.961 E9.48982
G1 X104.222 Y154.259 E9.51607
G1 X104.468 Y153.864 E9.53155
G1 X105.235 Y152.708 E9.57769
G1 X106.162 Y151.348 E9.63243
G1 X108.165 Y148.103 E9.75927
G1 X110.031 Y144.757 E9.88669
G1 X111.739 Y141.352 E10.01339
G1 X113.3 Y137.855 E10.14076
G1 X114.716 Y134.279 E10.26869
G1 X115.943 Y130.705 E10.39437
G1 X117.028 Y127.034 E10.52169
G1 X117.957 Y123.297 E10.64976
G1 X118.712 Y119.563 E10.77647
G1 X119.297 Y115.79 E10.90346
G1 X119.719 Y111.998 E11.03036
G1 X119.973 Y108.176 E11.15776
G1 X120.057 Y104.36 E11.28471
G1 X119.972 Y100.515 E11.41263
G1 X119.722 Y96.75 E11.53813
G1 X119.299 Y92.944 E11.6655
G1 X118.705 Y89.144 E11.79342
G1 X117.95 Y85.399 E11.92049
G1 X117.032 Y81.71 E12.04693
G1 X115.944 Y78.029 E12.17459
G1 X114.705 Y74.431 E12.30116
G1 X113.292 Y70.857 E12.42898
G1 X111.742 Y67.389 E12.55533
G1 X110.017 Y63.948 E12.68335
G1 X108.17 Y60.636 E12.80948
G1 X106.151 Y57.364 E12.93736
G1 X104.014 Y54.224 E13.06369
G1 X101.71 Y51.139 E13.19175
G1 X99.301 Y48.198 E13.3182
G1 X96.749 Y45.345 E13.44551
G1 X94.063 Y42.597 E13.57332
G1 X91.293 Y40.008 E13.69942
G1 X88.382 Y37.516 E13.82688
G1 X85.363 Y35.155 E13.95435
G1 X83.329 Y33.682 E14.03788
G1 X82.714 Y33.187 E14.06413
G1 X82.152 Y32.632 E14.0904
G1 X81.649 Y32.023 E14.11668
G1 X81.21 Y31.367 E14.14293
G1 X80.839 Y30.67 E14.16919
G1 X80.541 Y29.938 E14.19548
G1 X80.319 Y29.181 E14.22172
G1 X80.217 Y28.685 E14.23856
G1 X80.189 Y28.522 E14.24406
G1 X80.094 Y27.737 E14.27036
G1 X80.08 Y26.948 E14.29661
G1 X80.146 Y26.161 E14.32287
G1 X80.29 Y25.385 E14.34912
G1 X80.513 Y24.627 E14.3754
G0 F6000 X80.924 Y24.665
G1 F1200 X81.225 Y23.957 E14.40099
G1 X81.598 Y23.284 E14.42658
G1 X81.821 Y22.947 E14.44002
G1 X82.87 Y21.454 E14.50071
G1 X83.344 Y20.848 E14.5263
G1 X83.649 Y20.519 E14.54122
G1 X83.768 Y20.398 E14.54687
G1 X84.335 Y19.879 E14.57243
G1 X84.737 Y19.581 E14.58908
G1 X84.772 Y19.443 E14.59381
G1 X84.971 Y18.88 E14.61367
G1 X85.039 Y18.71 E14.61976
G1 X85.362 Y18.011 E14.64537
G1 X85.853 Y17.207 E14.67671
G1 X87.327 Y15.107 E14.76204
G1 X87.801 Y14.501 E14.78763
G1 X88.335 Y13.948 E14.8132
G1 X88.924 Y13.453 E14.83879
G1 X89.561 Y13.022 E14.86437
G1 X90.24 Y12.659 E14.88998
G1 X90.952 Y12.369 E14.91555
G1 X91.691 Y12.154 E14.94115
G1 X92.277 Y12.039 E14.96101
G1 X93.04 Y11.947 E14.98657
G1 X93.809 Y11.934 E15.01215
G1 X94.575 Y12 E15.03772
G1 X95.331 Y12.146 E15.06333
G1 X96.066 Y12.37 E15.08889
G1 X96.114 Y12.39 E15.09062
G1 X96.287 Y12.246 E15.0981
G1 X96.92 Y11.823 E15.12343
G1 X97.654 Y11.385 E15.15186
G1 X98.334 Y11.026 E15.17743
G1 X99.018 Y10.75 E15.20196
G1 X99.827 Y10.469 E15.23045
G1 X100.566 Y10.254 E15.25605
G1 X101.325 Y10.118 E15.28169
G1 X102.17 Y10.011 E15.31002
G1 X102.937 Y9.954 E15.3356
G1 X103.672 Y9.974 E15.36006
G1 X104.523 Y10.04 E15.38845
G1 X105.286 Y10.139 E15.41404
G1 X106.022 Y10.314 E15.4392
G1 X106.842 Y10.553 E15.46761
G1 X107.568 Y10.806 E15.49318
G1 X108.255 Y11.129 E15.51843
G1 X109.012 Y11.533 E15.54697
G1 X109.671 Y11.929 E15.57254
G1 X110.27 Y12.38 E15.59748
G1 X110.923 Y12.925 E15.62577
G1 X111.487 Y13.448 E15.65135
G1 X111.985 Y14.015 E15.67645
G1 X112.515 Y14.685 E15.70486
G1 X112.96 Y15.312 E15.73043
G1 X113.33 Y15.967 E15.75546
G1 X113.712 Y16.731 E15.78387
G1 X114.02 Y17.436 E15.80945
G1 X114.249 Y18.154 E15.83452
G1 X114.467 Y18.981 E15.86297
G1 X114.624 Y19.734 E15.88855
G1 X114.701 Y20.484 E15.91362
G1 X114.745 Y21.334 E15.94193
G1 X114.745 Y22.104 E15.96754
G1 X114.668 Y22.848 E15.99242
G1 X114.571 Y23.473 E16.01346
G1 X115.131 Y23.383 E16.03232
G1 X115.896 Y23.3 E16.05792
G1 X116.649 Y23.297 E16.08296
G1 X117.505 Y23.337 E16.11146
G1 X118.271 Y23.413 E16.13707
G1 X119.014 Y23.565 E16.16229
G1 X119.833 Y23.777 E16.19043
G1 X120.567 Y24.008 E16.21602
G1 X121.254 Y24.305 E16.24091
G1 X122.024 Y24.685 E16.26947
G1 X122.695 Y25.061 E16.29506
G1 X123.312 Y25.496 E16.32017
G1 X123.986 Y26.024 E16.34864
G1 X124.566 Y26.529 E16.37422
G1 X125.077 Y27.075 E16.39909
G1 X125.625 Y27.724 E16.42734
G1 X126.09 Y28.337 E16.45294
G1 X126.485 Y28.987 E16.47823
G1 X126.892 Y29.742 E16.50676
G1 X127.221 Y30.437 E16.53234
G1 X127.471 Y31.143 E16.55725
G1 X127.714 Y31.96 E16.5856
G1 X127.895 Y32.708 E16.61119
G1 X127.996 Y33.463 E16.63653
G1 X128.066 Y34.314 E16.66493
G1 X128.089 Y35.083 E16.69052
G1 X128.037 Y35.814 E16.71489
G1 X127.934 Y36.661 E16.74327
G1 X127.801 Y37.419 E16.76887
G1 X127.594 Y38.149 E16.7941
G1 X127.391 Y38.747 E16.81511
G1 X127.952 Y38.756 E16.83377
G1 X128.72 Y38.808 E16.85937
G1 X129.466 Y38.936 E16.88455
G1 X130.3 Y39.124 E16.91298
G1 X131.041 Y39.332 E16.93858
G1 X131.745 Y39.611 E16.96377
G1 X132.523 Y39.966 E16.99221
G1 X133.205 Y40.321 E17.01778
G1 X133.829 Y40.732 E17.04263
G1 X134.52 Y41.239 E17.07114
G1 X135.115 Y41.725 E17.09669
G1 X135.645 Y42.258 E17.12169
