;FLAVOR:Marlin
;TIME:10138
;Filament used: 6.46293m
;Layer height: 0.2
;MINX:58.359
;MINY:5.019
;MINZ:0.2
;MAXX:164.419
;MAXY:181.624
;MAXZ:10.2
;Generated with Cura_SteamEngine 4.5.0
M140 S60
M105
M190 S60
M104 S190
M105
M109 S190
M82 ;absolute extrusion mode
M201 X500.00 Y500.00 Z100.00 E5000.00 ;Setup machine max acceleration
M203 X500.00 Y500.00 Z10.00 E50.00 ;Setup machine max feedrate
M204 P500.00 R1000.00 T500.00 ;Setup Print/Retract/Travel acceleration
M205 X8.00 Y8.00 Z0.40 E5.00 ;Setup Jerk
M220 S100 ;Reset Feedrate
M221 S100 ;Reset Flowrate

G28 ;Home
M420 S1 Z2 ;Enable ABL using saved Mesh and Fade Height
G29     ;autobedlevel
G92 E0 ;Reset Extruder
G1 Z2.0 F3000 ;Move Z Axis up
G1 X10.1 Y20 Z0.28 F5000.0 ;Move to start position
G1 X10.1 Y200.0 Z0.28 F1500.0 E15 ;Draw the first line
G1 X10.4 Y200.0 Z0.28 F5000.0 ;Move to side a little
G1 X10.4 Y20 Z0.28 F1500.0 E30 ;Draw the second line
G92 E0 ;Reset Extruder
G92 E0
G92 E0
G1 F1500 E-6.5
;LAYER_COUNT:51
;LAYER:0
M107
G0 F6000 X130.39 Y92.596 Z0.2
;TYPE:SKIRT
G1 F1500 E0
G1 F1200 X130.334 Y93.324 E0.02428
G1 X130.183 Y94.147 E0.05211
G1 X129.986 Y94.968 E0.0802
G1 X129.763 Y95.726 E0.10648
G1 X129.453 Y96.48 E0.13359
G1 X129.084 Y97.261 E0.16232
G1 X128.711 Y97.957 E0.18858
G1 X128.265 Y98.618 E0.21511
G1 X127.755 Y99.296 E0.24332
G1 X127.249 Y99.902 E0.26958
G1 X126.6 Y100.528 E0.29957
G1 X127.271 Y100.977 E0.32643
G1 X127.894 Y101.494 E0.35335
G1 X128.527 Y102.078 E0.382
G1 X129.08 Y102.642 E0.40827
G1 X129.589 Y103.283 E0.43549
G1 X130.086 Y103.98 E0.46397
G1 X130.511 Y104.645 E0.49021
G1 X130.545 Y104.712 E0.49271
G1 X130.616 Y103.641 E0.52841
G1 X130.7 Y99.822 E0.65546
G1 X130.616 Y95.984 E0.78315
G1 X130.39 Y92.596 E0.89608
G0 F6000 X129.995 Y92.526
G1 F1200 X129.935 Y93.293 E0.92167
G1 X129.794 Y94.054 E0.94741
G1 X129.597 Y94.875 E0.9755
G1 X129.379 Y95.612 E1.00106
G1 X129.092 Y96.309 E1.02613
G1 X128.723 Y97.09 E1.05486
G1 X128.359 Y97.768 E1.08045
G1 X127.946 Y98.377 E1.10493
G1 X127.436 Y99.055 E1.13314
G1 X126.942 Y99.645 E1.15874
G1 X126.402 Y100.17 E1.18379
G1 X125.924 Y100.589 E1.20493
G1 X126.41 Y100.88 E1.22377
G1 X127.048 Y101.309 E1.24934
G1 X127.623 Y101.788 E1.27423
G1 X128.256 Y102.372 E1.30288
G1 X128.793 Y102.922 E1.32844
G1 X129.263 Y103.515 E1.35361
G1 X129.76 Y104.212 E1.38208
G1 X130.174 Y104.86 E1.40766
G1 X130.51 Y105.532 E1.43265
G1 X130.841 Y106.286 E1.46004
G1 X131.016 Y103.654 E1.54777
G1 X131.1 Y99.824 E1.67519
G1 X131.016 Y95.972 E1.80334
G1 X130.763 Y92.173 E1.92997
G1 X130.335 Y88.322 E2.05884
G1 X129.744 Y84.548 E2.1859
G1 X128.986 Y80.79 E2.31341
G1 X128.059 Y77.061 E2.44121
G1 X126.966 Y73.364 E2.56943
G1 X125.724 Y69.759 E2.69625
G1 X124.306 Y66.172 E2.82454
G1 X122.742 Y62.672 E2.95204
G1 X121.021 Y59.237 E3.07983
G1 X119.153 Y55.889 E3.20734
G1 X117.135 Y52.62 E3.33512
G1 X114.966 Y49.432 E3.46337
G1 X112.684 Y46.377 E3.5902
G1 X110.239 Y43.392 E3.71853
G1 X107.693 Y40.545 E3.84556
G1 X106.187 Y39.006 E3.91718
G1 X106.276 Y39.658 E3.93907
G1 X106.346 Y40.507 E3.9674
G1 X106.369 Y41.276 E3.99299
G1 X106.316 Y42.016 E4.01767
G1 X106.212 Y42.864 E4.04608
G1 X106.079 Y43.621 E4.07164
G1 X105.872 Y44.347 E4.09675
G1 X105.67 Y44.942 E4.11765
G1 X106.24 Y44.951 E4.13661
G1 X107.008 Y45.004 E4.16222
G1 X107.742 Y45.13 E4.18699
G1 X108.578 Y45.318 E4.21549
G1 X109.318 Y45.526 E4.24105
G1 X110.025 Y45.805 E4.26633
G1 X110.799 Y46.158 E4.29463
G1 X111.481 Y46.513 E4.3202
G1 X112.103 Y46.923 E4.34498
G1 X112.796 Y47.431 E4.37356
G1 X113.392 Y47.917 E4.39914
G1 X113.92 Y48.447 E4.42402
G1 X114.49 Y49.08 E4.45235
G1 X114.974 Y49.678 E4.47794
G1 X115.394 Y50.322 E4.50351
G1 X115.821 Y51.059 E4.53184
G1 X116.171 Y51.744 E4.55742
G1 X116.44 Y52.434 E4.58206
G1 X116.709 Y53.243 E4.61041
G1 X116.913 Y53.985 E4.63601
G1 X117.038 Y54.729 E4.6611
G1 X117.136 Y55.578 E4.68952
G1 X117.185 Y56.346 E4.71512
G1 X117.155 Y57.091 E4.73992
G1 X117.078 Y57.946 E4.76847
G1 X116.969 Y58.707 E4.79404
G1 X116.781 Y59.457 E4.81976
G1 X116.531 Y60.27 E4.84805
G1 X116.267 Y60.992 E4.87362
G1 X115.945 Y61.657 E4.89819
G1 X115.641 Y62.212 E4.91924
G1 X116.209 Y62.322 E4.93848
G1 X116.956 Y62.508 E4.96409
G1 X117.648 Y62.757 E4.98855
G1 X118.434 Y63.085 E5.01687
G1 X119.127 Y63.417 E5.04243
G1 X119.768 Y63.811 E5.06746
G1 X120.474 Y64.295 E5.09593
G1 X121.085 Y64.762 E5.1215
G1 X121.642 Y65.288 E5.14699
G1 X122.232 Y65.906 E5.1754
G1 X122.734 Y66.489 E5.20099
G1 X123.16 Y67.102 E5.22582
G1 X123.61 Y67.824 E5.25412
G1 X123.982 Y68.497 E5.27969
G1 X124.278 Y69.191 E5.30479
G1 X124.572 Y69.993 E5.3332
G1 X124.799 Y70.728 E5.35878
G1 X124.945 Y71.462 E5.38367
G1 X125.07 Y72.311 E5.41222
G1 X125.142 Y73.077 E5.43781
G1 X125.136 Y73.83 E5.46285
G1 X125.085 Y74.685 E5.49134
G1 X124.999 Y75.449 E5.51691
G1 X124.836 Y76.194 E5.54228
G1 X124.612 Y77.014 E5.57055
G1 X124.371 Y77.744 E5.59612
G1 X124.066 Y78.426 E5.62097
G1 X123.68 Y79.183 E5.64923
G1 X123.296 Y79.849 E5.6748
G1 X122.856 Y80.456 E5.69973
G1 X122.459 Y80.95 E5.72081
G1 X122.988 Y81.152 E5.73964
G1 X123.691 Y81.463 E5.76521
G1 X124.349 Y81.84 E5.79044
G1 X125.073 Y82.305 E5.81905
G1 X125.698 Y82.753 E5.84463
G1 X126.267 Y83.259 E5.86996
G1 X126.865 Y83.848 E5.89787
G1 X127.384 Y84.415 E5.92344
G1 X127.825 Y85.009 E5.94805
G1 X128.304 Y85.726 E5.97673
G1 X128.698 Y86.387 E6.00232
G1 X129.01 Y87.06 E6.02699
G1 X129.331 Y87.853 E6.05545
G1 X129.582 Y88.58 E6.08103
G1 X129.759 Y89.341 E6.10701
G1 X129.908 Y90.183 E6.13545
G1 X130.002 Y90.946 E6.16102
G1 X130.018 Y91.671 E6.18514
G1 X129.995 Y92.526 E6.21359
G0 F6000 X129.595 Y92.515
G1 F1200 X129.535 Y93.261 E6.23848
G1 X129.405 Y93.96 E6.26213
G1 X129.208 Y94.781 E6.29021
G1 X128.995 Y95.498 E6.31509
G1 X128.73 Y96.138 E6.33813
G1 X128.361 Y96.919 E6.36686
G1 X128.006 Y97.578 E6.39175
G1 X127.626 Y98.137 E6.41424
G1 X127.116 Y98.815 E6.44245
G1 X126.635 Y99.388 E6.46734
G1 X126.138 Y99.869 E6.49034
G1 X125.494 Y100.434 E6.51884
G1 X125.22 Y100.65 E6.53044
G1 X125.48 Y100.789 E6.54025
G1 X126.204 Y101.223 E6.56832
G1 X126.824 Y101.641 E6.59319
G1 X127.352 Y102.082 E6.61607
G1 X127.985 Y102.666 E6.64472
G1 X128.507 Y103.202 E6.6696
G1 X128.937 Y103.747 E6.69269
G1 X129.434 Y104.444 E6.72116
G1 X129.836 Y105.075 E6.74605
G1 X130.144 Y105.693 E6.76901
G1 X130.484 Y106.467 E6.79713
G1 X130.748 Y107.167 E6.82201
G1 X130.924 Y107.836 E6.84502
G1 X131.056 Y108.462 E6.8663
G1 X131.158 Y107.542 E6.89709
G1 X131.416 Y103.666 E7.02629
G1 X131.501 Y99.824 E7.15411
G1 X131.416 Y95.958 E7.28272
G1 X131.161 Y92.134 E7.41019
G1 X130.735 Y88.297 E7.53859
G1 X130.139 Y84.483 E7.66699
G1 X129.371 Y80.68 E7.79603
G1 X128.448 Y76.965 E7.92335
G1 X127.347 Y73.239 E8.05257
G1 X126.1 Y69.621 E8.17985
G1 X124.677 Y66.022 E8.30857
G1 X123.098 Y62.49 E8.43725
G1 X121.379 Y59.059 E8.56489
G1 X119.49 Y55.673 E8.69385
G1 X117.474 Y52.407 E8.82151
G1 X115.292 Y49.201 E8.95049
G1 X113.002 Y46.134 E9.0778
G1 X110.541 Y43.13 E9.20696
G1 X107.983 Y40.27 E9.33458
G1 X105.426 Y37.655 E9.45623
G1 X105.607 Y38.26 E9.47723
G1 X105.783 Y38.987 E9.50211
G1 X105.877 Y39.691 E9.52573
G1 X105.947 Y40.54 E9.55406
G1 X105.969 Y41.288 E9.57895
G1 X105.919 Y41.967 E9.6016
G1 X105.815 Y42.815 E9.63001
G1 X105.684 Y43.552 E9.65491
G1 X105.494 Y44.218 E9.67795
G1 X105.218 Y45.029 E9.70644
G1 X105.09 Y45.347 E9.71784
G1 X105.386 Y45.337 E9.72769
G1 X106.234 Y45.351 E9.7559
G1 X106.98 Y45.403 E9.78077
G1 X107.654 Y45.521 E9.80353
G1 X108.49 Y45.709 E9.83203
G1 X109.21 Y45.911 E9.8569
G1 X109.859 Y46.169 E9.88013
G1 X110.633 Y46.522 E9.90843
G1 X111.296 Y46.868 E9.9333
G1 X111.866 Y47.245 E9.95603
G1 X112.559 Y47.753 E9.98461
G1 X113.138 Y48.227 E10.0095
G1 X113.623 Y48.715 E10.03238
G1 X114.193 Y49.348 E10.06071
G1 X114.663 Y49.93 E10.08559
G1 X115.048 Y50.523 E10.10911
G1 X115.475 Y51.26 E10.13744
G1 X115.815 Y51.926 E10.16231
G1 X116.06 Y52.56 E10.18491
G1 X116.329 Y53.369 E10.21327
G1 X116.527 Y54.091 E10.23817
G1 X116.641 Y54.775 E10.26123
G1 X116.739 Y55.624 E10.28966
G1 X116.785 Y56.371 E10.31455
G1 X116.757 Y57.055 E10.33732
G1 X116.68 Y57.91 E10.36587
G1 X116.573 Y58.65 E10.39074
G1 X116.399 Y59.339 E10.41438
G1 X116.149 Y60.152 E10.44267
G1 X115.891 Y60.855 E10.46757
G1 X115.594 Y61.464 E10.49011
G1 X115.18 Y62.218 E10.51872
G1 X114.999 Y62.509 E10.53012
G1 X115.294 Y62.551 E10.54003
G1 X116.133 Y62.714 E10.56846
G1 X116.859 Y62.896 E10.59335
G1 X117.494 Y63.126 E10.61581
G1 X118.28 Y63.454 E10.64414
G1 X118.954 Y63.778 E10.66901
G1 X119.542 Y64.14 E10.69198
G1 X120.248 Y64.624 E10.72045
G1 X120.842 Y65.08 E10.74536
G1 X121.353 Y65.564 E10.76877
G1 X121.943 Y66.182 E10.79718
G1 X122.43 Y66.75 E10.82207
G1 X122.821 Y67.313 E10.84487
G1 X123.271 Y68.035 E10.87316
G1 X123.632 Y68.69 E10.89804
G1 X123.902 Y69.329 E10.92111
G1 X124.196 Y70.131 E10.94952
G1 X124.416 Y70.846 E10.9744
G1 X124.549 Y71.52 E10.99725
G1 X124.674 Y72.369 E11.02579
G1 X124.744 Y73.114 E11.05068
G1 X124.737 Y73.806 E11.0737
G1 X124.686 Y74.661 E11.10219
G1 X124.601 Y75.404 E11.12706
G1 X124.451 Y76.089 E11.15038
G1 X124.227 Y76.909 E11.17866
G1 X123.991 Y77.619 E11.20354
G1 X123.71 Y78.244 E11.22633
G1 X123.324 Y79.001 E11.2546
G1 X122.949 Y79.648 E11.27947
G1 X122.545 Y80.206 E11.30238
G1 X122.005 Y80.878 E11.33105
G1 X121.776 Y81.133 E11.34245
G1 X122.043 Y81.22 E11.35179
G1 X122.845 Y81.526 E11.38034
G1 X123.529 Y81.83 E11.40524
G1 X124.133 Y82.176 E11.42839
G1 X124.857 Y82.641 E11.45701
G1 X125.464 Y83.078 E11.48189
G1 X125.986 Y83.544 E11.50516
G1 X126.584 Y84.133 E11.53308
G1 X127.088 Y84.686 E11.55796
G1 X127.493 Y85.231 E11.58055
G1 X127.972 Y85.948 E11.60923
G1 X128.353 Y86.592 E11.63411
G1 X128.64 Y87.21 E11.65678
G1 X128.961 Y88.003 E11.68523
G1 X129.204 Y88.711 E11.71013
G1 X129.365 Y89.41 E11.73399
G1 X129.514 Y90.252 E11.76243
G1 X129.605 Y90.995 E11.78732
G1 X129.618 Y91.66 E11.80945
G1 X129.595 Y92.515 E11.83789
G0 F6000 X129.196 Y92.504
G1 F1200 X129.136 Y93.228 E11.86206
G1 X129.016 Y93.867 E11.88368
G1 X128.819 Y94.688 E11.91176
G1 X128.611 Y95.384 E11.93592
G1 X128.368 Y95.967 E11.95693
G1 X127.999 Y96.748 E11.98566
G1 X127.654 Y97.387 E12.00981
G1 X127.306 Y97.896 E12.03032
G1 X126.796 Y98.574 E12.05854
G1 X126.328 Y99.13 E12.08271
G1 X125.875 Y99.568 E12.10367
G1 X125.231 Y100.133 E12.13216
G1 X124.659 Y100.582 E12.15635
G1 X124.44 Y100.72 E12.16496
G1 X124.718 Y100.834 E12.17495
G1 X125.274 Y101.132 E12.19593
G1 X125.998 Y101.566 E12.22401
G1 X126.6 Y101.973 E12.24818
G1 X127.08 Y102.376 E12.26902
G1 X127.713 Y102.96 E12.29767
G1 X128.219 Y103.481 E12.32182
G1 X128.612 Y103.979 E12.34292
G1 X129.109 Y104.676 E12.3714
G1 X129.497 Y105.29 E12.39555
G1 X129.778 Y105.854 E12.41651
G1 X130.118 Y106.628 E12.44463
G1 X130.373 Y107.308 E12.46879
G1 X130.533 Y107.918 E12.48976
G1 X130.711 Y108.761 E12.51842
G1 X130.821 Y109.479 E12.54258
G1 X130.853 Y110.109 E12.56356
G1 X130.855 Y110.957 E12.59176
G1 X130.817 Y111.683 E12.61594
G1 X130.721 Y112.298 E12.63664
G1 X130.548 Y113.142 E12.6653
G1 X130.363 Y113.845 E12.68948
G1 X130.139 Y114.439 E12.71059
G1 X129.803 Y115.215 E12.73872
G1 X129.478 Y115.865 E12.76289
G1 X129.132 Y116.407 E12.78428
G1 X128.637 Y117.106 E12.81276
G1 X128.185 Y117.675 E12.83693
G1 X127.758 Y118.113 E12.85728
G1 X127.129 Y118.701 E12.88592
G1 X126.572 Y119.167 E12.91007
G1 X126.042 Y119.525 E12.93134
G1 X125.319 Y119.963 E12.95946
G1 X124.678 Y120.305 E12.98362
G1 X124.441 Y120.401 E12.99213
G1 X124.691 Y120.56 E13.00198
G1 X125.175 Y120.94 E13.02245
G1 X125.82 Y121.497 E13.05079
G1 X126.342 Y122.001 E13.07493
G1 X126.758 Y122.495 E13.09641
G1 X127.274 Y123.173 E13.12475
G1 X127.681 Y123.774 E13.14889
G1 X127.981 Y124.332 E13.16996
G1 X128.228 Y124.851 E13.18908
G1 X128.835 Y122.8 E13.26022
G1 X129.767 Y119.048 E13.3888
G1 X130.537 Y115.237 E13.51812
G1 X131.129 Y111.422 E13.64652
G1 X131.56 Y107.544 E13.7763
G1 X131.815 Y103.702 E13.90437
G1 X131.901 Y99.821 E14.03348
G1 X131.815 Y95.923 E14.16316
G1 X131.563 Y92.13 E14.28959
G1 X131.13 Y88.235 E14.41994
G1 X130.532 Y84.411 E14.54867
G1 X129.762 Y80.596 E14.67812
G1 X128.836 Y76.868 E14.80588
G1 X127.729 Y73.122 E14.9358
G1 X126.469 Y69.466 E15.06442
G1 X125.048 Y65.872 E15.19296
G1 X123.463 Y62.326 E15.32215
G1 X121.726 Y58.86 E15.45109
G1 X119.837 Y55.474 E15.58005
G1 X117.796 Y52.167 E15.7093
G1 X115.637 Y48.994 E15.83695
G1 X113.307 Y45.875 E15.96644
G1 X110.846 Y42.87 E16.09563
G1 X108.284 Y40.006 E16.22344
G1 X105.545 Y37.206 E16.35371
G1 X104.336 Y36.075 E16.40878
G1 X104.466 Y36.316 E16.41788
G1 X104.775 Y36.973 E16.44203
G1 X104.979 Y37.555 E16.46254
G1 X105.224 Y38.374 E16.49098
G1 X105.394 Y39.081 E16.51516
G1 X105.479 Y39.724 E16.53673
G1 X105.549 Y40.573 E16.56507
G1 X105.568 Y41.299 E16.58922
G1 X105.522 Y41.918 E16.60987
G1 X105.418 Y42.766 E16.63828
G1 X105.29 Y43.481 E16.66244
G1 X105.115 Y44.089 E16.68349
G1 X104.839 Y44.9 E16.71198
G1 X104.568 Y45.574 E16.73614
G1 X104.45 Y45.797 E16.74453
G1 X104.749 Y45.757 E16.75457
G1 X105.379 Y45.737 E16.77553
G1 X106.227 Y45.751 E16.80374
G1 X106.951 Y45.803 E16.82788
G1 X107.566 Y45.911 E16.84865
G1 X108.402 Y46.099 E16.87715
G1 X109.101 Y46.297 E16.90131
G1 X109.693 Y46.533 E16.92251
G1 X110.467 Y46.886 E16.9508
G1 X111.11 Y47.223 E16.97495
G1 X111.63 Y47.568 E16.9957
G1 X112.323 Y48.076 E17.02428
G1 X112.884 Y48.537 E17.04843
G1 X113.326 Y48.983 E17.06932
G1 X113.896 Y49.616 E17.09765
G1 X114.351 Y50.181 E17.12178
G1 X114.702 Y50.723 E17.14326
G1 X115.129 Y51.46 E17.17158
G1 X115.458 Y52.108 E17.19576
G1 X115.681 Y52.687 E17.21639
G1 X115.95 Y53.496 E17.24475
G1 X116.141 Y54.196 E17.26888
G1 X116.243 Y54.821 E17.28994
G1 X116.341 Y55.67 E17.31837
G1 X116.385 Y56.395 E17.34253
G1 X116.358 Y57.019 E17.3633
G1 X116.281 Y57.874 E17.39185
G1 X116.177 Y58.593 E17.41602
G1 X116.016 Y59.222 E17.43761
G1 X115.766 Y60.035 E17.4659
G1 X115.515 Y60.716 E17.49004
G1 X115.243 Y61.272 E17.51063
G1 X114.829 Y62.026 E17.53924
G1 X114.445 Y62.642 E17.56338
G1 X114.29 Y62.841 E17.57177
G1 X114.577 Y62.852 E17.58132
G1 X115.218 Y62.944 E17.60286
G1 X116.057 Y63.107 E17.63129
G1 X116.761 Y63.285 E17.65544
G1 X117.34 Y63.495 E17.67593
G1 X118.126 Y63.823 E17.70425
G1 X118.78 Y64.139 E17.72841
G1 X119.316 Y64.47 E17.74936
G1 X120.022 Y64.954 E17.77783
G1 X120.597 Y65.397 E17.80198
G1 X121.064 Y65.84 E17.82339
G1 X121.654 Y66.458 E17.8518
G1 X122.126 Y67.011 E17.87599
G1 X122.481 Y67.525 E17.89676
G1 X122.931 Y68.247 E17.92506
G1 X123.281 Y68.884 E17.94923
G1 X123.527 Y69.466 E17.97025
G1 X123.821 Y70.268 E17.99866
G1 X124.033 Y70.963 E18.02283
G1 X124.154 Y71.579 E18.04371
G1 X124.279 Y72.428 E18.07225
G1 X124.345 Y73.151 E18.09639
G1 X124.337 Y73.782 E18.11738
G1 X124.286 Y74.637 E18.14587
G1 X124.203 Y75.359 E18.17004
G1 X124.065 Y75.983 E18.1913
G1 X123.841 Y76.803 E18.21957
G1 X123.611 Y77.492 E18.24373
G1 X123.354 Y78.062 E18.26453
G1 X122.968 Y78.819 E18.29279
G1 X122.603 Y79.447 E18.31695
G1 X122.233 Y79.955 E18.33785
G1 X121.693 Y80.627 E18.36652
G1 X121.207 Y81.167 E18.39069
G1 X121.021 Y81.336 E18.39905
G1 X121.301 Y81.397 E18.40858
G1 X121.901 Y81.594 E18.42958
G1 X122.703 Y81.9 E18.45813
G1 X123.366 Y82.195 E18.48227
G1 X123.917 Y82.513 E18.50343
G1 X124.641 Y82.978 E18.53205
G1 X125.229 Y83.403 E18.55618
G1 X125.705 Y83.829 E18.57742
G1 X126.303 Y84.418 E18.60534
G1 X126.792 Y84.955 E18.6295
G1 X127.16 Y85.454 E18.65012
G1 X127.639 Y86.171 E18.6788
G1 X128.009 Y86.796 E18.70296
G1 X128.269 Y87.361 E18.72364
G1 X128.59 Y88.154 E18.7521
G1 X128.825 Y88.841 E18.77625
G1 X128.971 Y89.48 E18.79805
G1 X129.12 Y90.322 E18.82649
G1 X129.207 Y91.043 E18.85064
G1 X129.219 Y91.649 E18.8708
G1 X129.196 Y92.504 E18.89925
G0 F6000 X128.796 Y92.494
G1 F1200 X128.737 Y93.195 E18.92265
G1 X128.627 Y93.774 E18.94225
G1 X128.43 Y94.595 E18.97033
G1 X128.227 Y95.269 E18.99374
G1 X128.007 Y95.797 E19.01277
G1 X127.638 Y96.578 E19.0415
G1 X127.301 Y97.196 E19.06491
G1 X126.987 Y97.656 E19.08343
G1 X126.477 Y98.334 E19.11165
G1 X126.022 Y98.872 E19.13509
G1 X125.611 Y99.268 E19.15407
G1 X124.967 Y99.833 E19.18256
G1 X124.412 Y100.266 E19.20598
G1 X123.917 Y100.576 E19.2254
