;FLAVOR:Marlin
;TIME:5961
;Filament used: 3.62539m
;Layer height: 0.2
;MINX:85.868
;MINY:22.921
;MINZ:0.2
;MAXX:133.218
;MAXY:89.313
;MAXZ:38
;Generated with Cura_SteamEngine 4.5.0
M140 S60
M105
M190 S60
M104 S190
M105
M109 S190
M82 ;absolute extrusion mode
M201 X500.00 Y500.00 Z100.00 E5000.00 ;Setup machine max acceleration
M203 X500.00 Y500.00 Z10.00 E50.00 ;Setup machine max feedrate
M204 P500.00 R1000.00 T500.00 ;Setup Print/Retract/Travel acceleration
M205 X8.00 Y8.00 Z0.40 E5.00 ;Setup Jerk
M220 S100 ;Reset Feedrate
M221 S100 ;Reset Flowrate

G28 ;Home
M420 S1 Z2 ;Enable ABL using saved Mesh and Fade Height
G29     ;autobedlevel
G92 E0 ;Reset Extruder
G1 Z2.0 F3000 ;Move Z Axis up
G1 X10.1 Y20 Z0.28 F5000.0 ;Move to start position
G1 X10.1 Y200.0 Z0.28 F1500.0 E15 ;Draw the first line
G1 X10.4 Y200.0 Z0.28 F5000.0 ;Move to side a little
G1 X10.4 Y20 Z0.28 F1500.0 E30 ;Draw the second line
G92 E0 ;Reset Extruder
G92 E0
G92 E0
G1 F1500 E-6.5
;LAYER_COUNT:190
;LAYER:0
M107
G0 F6000 X86.225 Y28.504 Z0.2
;TYPE:SKIRT
G1 F1500 E0
G1 F1200 X86.499 Y27.764 E0.02625
G1 X86.847 Y27.055 E0.05251
G1 X87.265 Y26.384 E0.07881
G1 X87.748 Y25.76 E0.10505
G1 X88.153 Y25.323 E0.12487
G1 X88.27 Y25.206 E0.13037
G1 X88.856 Y24.676 E0.15665
G1 X89.492 Y24.209 E0.1829
G1 X90.172 Y23.808 E0.20915
G1 X90.89 Y23.478 E0.23544
G1 X91.637 Y23.223 E0.26169
G1 X92.406 Y23.044 E0.28795
G1 X93.19 Y22.944 E0.31424
G1 X93.785 Y22.921 E0.33404
G1 X125.301 Y22.921 E1.38227
G1 X126.09 Y22.961 E1.40854
G1 X126.87 Y23.08 E1.43479
G1 X127.635 Y23.278 E1.46107
G1 X128.375 Y23.552 E1.48731
G1 X129.084 Y23.9 E1.51358
G1 X129.755 Y24.318 E1.53988
G1 X130.379 Y24.801 E1.56612
G1 X130.816 Y25.206 E1.58594
G1 X130.933 Y25.323 E1.59144
G1 X131.463 Y25.909 E1.61772
G1 X131.93 Y26.545 E1.64397
G1 X132.331 Y27.225 E1.67022
G1 X132.661 Y27.943 E1.6965
G1 X132.916 Y28.69 E1.72276
G1 X133.095 Y29.459 E1.74902
G1 X133.195 Y30.243 E1.77531
G1 X133.218 Y30.838 E1.79511
G1 X133.218 Y33.779 E1.89293
G1 X133.178 Y34.568 E1.9192
G1 X133.059 Y35.348 E1.94545
G1 X132.861 Y36.113 E1.97173
G1 X132.587 Y36.853 E1.99798
G1 X132.239 Y37.562 E2.02424
G1 X131.821 Y38.233 E2.05054
G1 X131.338 Y38.857 E2.07678
G1 X130.933 Y39.294 E2.0966
G1 X130.816 Y39.411 E2.1021
G1 X130.23 Y39.941 E2.12838
G1 X129.594 Y40.408 E2.15463
G1 X128.914 Y40.809 E2.18088
G1 X128.196 Y41.139 E2.20717
G1 X127.449 Y41.394 E2.23342
G1 X126.68 Y41.573 E2.25968
G1 X125.896 Y41.673 E2.28597
G1 X125.301 Y41.696 E2.30577
G1 X119.666 Y41.696 E2.49319
G1 X119.667 Y70.538 E3.45248
G1 X120.676 Y70.538 E3.48604
G1 X121.465 Y70.578 E3.51232
G1 X122.245 Y70.697 E3.53856
G1 X123.01 Y70.895 E3.56484
G1 X123.75 Y71.169 E3.59109
G1 X124.459 Y71.517 E3.61736
G1 X125.13 Y71.935 E3.64365
G1 X125.754 Y72.418 E3.6699
G1 X126.191 Y72.823 E3.68971
G1 X126.346 Y72.978 E3.697
G1 X126.876 Y73.564 E3.72328
G1 X127.343 Y74.2 E3.74953
G1 X127.744 Y74.88 E3.77578
G1 X128.074 Y75.598 E3.80207
G1 X128.329 Y76.345 E3.82832
G1 X128.508 Y77.114 E3.85458
G1 X128.608 Y77.898 E3.88087
G1 X128.631 Y78.49 E3.90057
G1 X128.632 Y81.393 E3.99713
G1 X128.592 Y82.182 E4.0234
G1 X128.473 Y82.963 E4.04968
G1 X128.275 Y83.727 E4.07593
G1 X128.002 Y84.468 E4.10219
G1 X127.654 Y85.177 E4.12846
G1 X127.237 Y85.847 E4.15471
G1 X126.754 Y86.472 E4.18098
G1 X126.347 Y86.911 E4.20089
G1 X126.23 Y87.028 E4.2064
G1 X125.644 Y87.558 E4.23267
G1 X125.008 Y88.025 E4.25892
G1 X124.328 Y88.426 E4.28517
G1 X123.61 Y88.756 E4.31146
G1 X122.863 Y89.011 E4.33771
G1 X122.094 Y89.19 E4.36397
G1 X121.31 Y89.29 E4.39026
G1 X120.715 Y89.313 E4.41006
G1 X98.411 Y89.313 E5.1519
G1 X97.622 Y89.273 E5.17817
G1 X96.842 Y89.154 E5.20442
G1 X96.077 Y88.956 E5.2307
G1 X95.337 Y88.682 E5.25694
G1 X94.628 Y88.334 E5.28321
G1 X93.957 Y87.916 E5.30951
G1 X93.333 Y87.433 E5.33575
G1 X92.896 Y87.028 E5.35557
G1 X92.741 Y86.873 E5.36286
G1 X92.211 Y86.287 E5.38914
G1 X91.744 Y85.651 E5.41538
G1 X91.343 Y84.971 E5.44164
G1 X91.013 Y84.253 E5.46792
G1 X90.758 Y83.506 E5.49417
G1 X90.579 Y82.737 E5.52044
G1 X90.479 Y81.953 E5.54672
G1 X90.456 Y81.361 E5.56643
G1 X90.455 Y78.458 E5.66298
G1 X90.495 Y77.669 E5.68926
G1 X90.614 Y76.888 E5.71553
G1 X90.812 Y76.124 E5.74178
G1 X91.085 Y75.383 E5.76805
G1 X91.433 Y74.674 E5.79432
G1 X91.85 Y74.004 E5.82057
G1 X92.333 Y73.379 E5.84684
G1 X92.74 Y72.94 E5.86675
G1 X92.857 Y72.823 E5.87225
G1 X93.443 Y72.293 E5.89853
G1 X94.079 Y71.826 E5.92477
G1 X94.759 Y71.425 E5.95103
G1 X95.477 Y71.095 E5.97731
G1 X96.224 Y70.84 E6.00357
G1 X96.993 Y70.661 E6.02983
G1 X97.777 Y70.561 E6.05611
G1 X98.372 Y70.538 E6.07592
G1 X99.421 Y70.538 E6.11081
G1 X99.42 Y69.658 E6.14008
G1 X99.419 Y41.696 E7.0701
G1 X93.785 Y41.696 E7.25749
G1 X92.996 Y41.656 E7.28376
G1 X92.216 Y41.537 E7.31
G1 X91.451 Y41.339 E7.33629
G1 X90.711 Y41.065 E7.36253
G1 X90.002 Y40.717 E7.3888
G1 X89.331 Y40.299 E7.4151
G1 X88.707 Y39.816 E7.44134
G1 X88.27 Y39.411 E7.46116
G1 X88.153 Y39.294 E7.46666
G1 X87.623 Y38.708 E7.49294
G1 X87.156 Y38.072 E7.51918
G1 X86.755 Y37.392 E7.54544
G1 X86.425 Y36.674 E7.57172
G1 X86.17 Y35.927 E7.59798
G1 X85.991 Y35.158 E7.62424
G1 X85.891 Y34.374 E7.65052
G1 X85.868 Y33.779 E7.67033
G1 X85.868 Y30.838 E7.76815
G1 X85.908 Y30.049 E7.79442
G1 X86.027 Y29.269 E7.82067
G1 X86.225 Y28.504 E7.84695
G0 F6000 X86.625 Y28.567
G1 F1200 X86.899 Y27.848 E7.87254
G1 X87.246 Y27.162 E7.89811
G1 X87.662 Y26.515 E7.92369
G1 X88.143 Y25.915 E7.94927
G1 X88.552 Y25.488 E7.96894
G1 X89.124 Y24.974 E7.99451
G1 X89.746 Y24.521 E8.02011
G1 X90.411 Y24.135 E8.04568
G1 X91.113 Y23.82 E8.07127
G1 X91.844 Y23.58 E8.09686
G1 X92.595 Y23.417 E8.12242
G1 X93.36 Y23.333 E8.14802
G1 X93.785 Y23.321 E8.16216
G1 X125.301 Y23.321 E9.21039
G1 X126.069 Y23.361 E9.23596
G1 X126.829 Y23.48 E9.26155
G1 X127.572 Y23.678 E9.28712
G1 X128.291 Y23.952 E9.31272
G1 X128.977 Y24.299 E9.33829
G1 X129.624 Y24.715 E9.36387
G1 X130.224 Y25.196 E9.38945
G1 X130.651 Y25.605 E9.40911
G1 X131.165 Y26.177 E9.43469
G1 X131.618 Y26.799 E9.46028
G1 X132.004 Y27.464 E9.48586
G1 X132.319 Y28.166 E9.51145
G1 X132.559 Y28.897 E9.53704
G1 X132.722 Y29.648 E9.5626
G1 X132.806 Y30.413 E9.58819
G1 X132.818 Y30.838 E9.60234
G1 X132.818 Y33.779 E9.70015
G1 X132.778 Y34.547 E9.72573
G1 X132.659 Y35.307 E9.75132
G1 X132.461 Y36.05 E9.77689
G1 X132.187 Y36.769 E9.80248
G1 X131.84 Y37.455 E9.82805
G1 X131.424 Y38.102 E9.85364
G1 X130.943 Y38.702 E9.87921
G1 X130.534 Y39.129 E9.89888
G1 X129.962 Y39.643 E9.92446
G1 X129.34 Y40.096 E9.95005
G1 X128.675 Y40.482 E9.97562
G1 X127.973 Y40.797 E10.00122
G1 X127.242 Y41.037 E10.02681
G1 X126.491 Y41.2 E10.05237
G1 X125.726 Y41.284 E10.07796
G1 X125.301 Y41.296 E10.0921
G1 X119.266 Y41.296 E10.29283
G1 X119.267 Y70.938 E11.27873
G1 X120.676 Y70.938 E11.32559
G1 X121.444 Y70.978 E11.35117
G1 X122.204 Y71.097 E11.37675
G1 X122.947 Y71.295 E11.40233
G1 X123.666 Y71.569 E11.42792
G1 X124.352 Y71.916 E11.45349
G1 X124.999 Y72.332 E11.47907
G1 X125.599 Y72.813 E11.50465
G1 X125.909 Y73.105 E11.51881
G1 X126.064 Y73.26 E11.52611
G1 X126.578 Y73.832 E11.55168
G1 X127.031 Y74.454 E11.57728
G1 X127.417 Y75.119 E11.60285
G1 X127.732 Y75.821 E11.62844
G1 X127.972 Y76.552 E11.65403
G1 X128.135 Y77.303 E11.67959
G1 X128.219 Y78.068 E11.70519
G1 X128.231 Y78.49 E11.71923
G1 X128.232 Y81.393 E11.81578
G1 X128.192 Y82.162 E11.8414
G1 X128.073 Y82.921 E11.86695
G1 X127.876 Y83.665 E11.89255
G1 X127.602 Y84.384 E11.91814
G1 X127.255 Y85.07 E11.94371
G1 X126.839 Y85.717 E11.96929
G1 X126.358 Y86.317 E11.99487
G1 X126.065 Y86.629 E12.0091
G1 X125.948 Y86.746 E12.01461
G1 X125.376 Y87.26 E12.04018
G1 X124.754 Y87.713 E12.06578
G1 X124.089 Y88.099 E12.09135
G1 X123.387 Y88.414 E12.11694
G1 X122.656 Y88.654 E12.14253
G1 X121.905 Y88.817 E12.16809
G1 X121.14 Y88.901 E12.19369
G1 X120.715 Y88.913 E12.20783
G1 X98.411 Y88.913 E12.94967
G1 X97.643 Y88.873 E12.97524
G1 X96.883 Y88.754 E13.00083
G1 X96.14 Y88.556 E13.0264
G1 X95.421 Y88.282 E13.052
G1 X94.735 Y87.935 E13.07757
G1 X94.088 Y87.519 E13.10315
G1 X93.488 Y87.038 E13.12873
G1 X93.178 Y86.746 E13.14289
G1 X93.023 Y86.591 E13.15018
G1 X92.509 Y86.019 E13.17576
G1 X92.056 Y85.397 E13.20135
G1 X91.67 Y84.732 E13.22693
G1 X91.355 Y84.03 E13.25252
G1 X91.115 Y83.299 E13.27811
G1 X90.952 Y82.548 E13.30367
G1 X90.868 Y81.783 E13.32926
G1 X90.856 Y81.361 E13.34331
G1 X90.855 Y78.458 E13.43986
G1 X90.895 Y77.689 E13.46547
G1 X91.014 Y76.93 E13.49102
G1 X91.211 Y76.186 E13.51662
G1 X91.485 Y75.467 E13.54221
G1 X91.832 Y74.781 E13.56778
G1 X92.248 Y74.134 E13.59337
G1 X92.729 Y73.534 E13.61894
G1 X93.022 Y73.222 E13.63318
G1 X93.139 Y73.105 E13.63868
G1 X93.711 Y72.591 E13.66426
G1 X94.333 Y72.138 E13.68985
G1 X94.998 Y71.752 E13.71543
G1 X95.7 Y71.437 E13.74102
G1 X96.431 Y71.197 E13.76661
G1 X97.182 Y71.034 E13.79217
G1 X97.947 Y70.95 E13.81777
G1 X98.372 Y70.938 E13.83191
G1 X99.772 Y70.938 E13.87847
G1 X99.822 Y70.751 E13.88491
G1 X99.82 Y69.657 E13.9213
G1 X99.819 Y41.296 E14.86459
G1 X93.785 Y41.296 E15.06528
G1 X93.017 Y41.256 E15.09086
G1 X92.257 Y41.137 E15.11644
G1 X91.514 Y40.939 E15.14202
G1 X90.795 Y40.665 E15.16761
G1 X90.109 Y40.318 E15.19318
G1 X89.462 Y39.902 E15.21876
G1 X88.862 Y39.421 E15.24434
G1 X88.435 Y39.012 E15.264
G1 X87.921 Y38.44 E15.28958
G1 X87.468 Y37.818 E15.31517
G1 X87.082 Y37.153 E15.34075
G1 X86.767 Y36.451 E15.36634
G1 X86.527 Y35.72 E15.39193
G1 X86.364 Y34.969 E15.41749
G1 X86.28 Y34.204 E15.44309
G1 X86.268 Y33.779 E15.45723
G1 X86.268 Y30.838 E15.55505
G1 X86.308 Y30.07 E15.58062
G1 X86.427 Y29.31 E15.60621
G1 X86.625 Y28.567 E15.63179
G0 F6000 X87.025 Y28.631
G1 F1200 X87.298 Y27.935 E15.65665
G1 X87.645 Y27.272 E15.68154
G1 X88.06 Y26.649 E15.70644
G1 X88.718 Y25.888 E15.7399
G1 X88.835 Y25.771 E15.7454
G1 X89.392 Y25.271 E15.7703
G1 X89.998 Y24.834 E15.79515
G1 X90.648 Y24.463 E15.82004
G1 X91.334 Y24.164 E15.84493
G1 X92.048 Y23.94 E15.86982
G1 X92.781 Y23.793 E15.89468
G1 X93.785 Y23.721 E15.92816
G1 X125.301 Y23.721 E16.97639
G1 X126.048 Y23.761 E17.00127
G1 X126.786 Y23.88 E17.02613
G1 X127.508 Y24.078 E17.05103
G1 X128.204 Y24.351 E17.0759
G1 X128.867 Y24.698 E17.10079
G1 X129.49 Y25.113 E17.12569
G1 X130.251 Y25.771 E17.15915
G1 X130.368 Y25.888 E17.16465
G1 X130.868 Y26.445 E17.18954
G1 X131.305 Y27.051 E17.21439
G1 X131.676 Y27.701 E17.23929
G1 X131.975 Y28.387 E17.26418
G1 X132.199 Y29.101 E17.28907
G1 X132.346 Y29.834 E17.31393
G1 X132.418 Y30.838 E17.34741
G1 X132.418 Y33.779 E17.44523
G1 X132.378 Y34.526 E17.47011
G1 X132.259 Y35.264 E17.49497
G1 X132.061 Y35.986 E17.51987
G1 X131.788 Y36.682 E17.54474
G1 X131.441 Y37.345 E17.56963
G1 X131.026 Y37.968 E17.59452
G1 X130.368 Y38.729 E17.62798
G1 X130.251 Y38.846 E17.63349
G1 X129.694 Y39.346 E17.65838
G1 X129.088 Y39.783 E17.68323
G1 X128.438 Y40.154 E17.70813
G1 X127.752 Y40.453 E17.73302
G1 X127.038 Y40.677 E17.7579
G1 X126.305 Y40.824 E17.78277
G1 X125.301 Y40.896 E17.81625
G1 X118.866 Y40.896 E18.03028
G1 X118.867 Y71.338 E19.04278
G1 X120.676 Y71.338 E19.10295
G1 X121.423 Y71.378 E19.12783
G1 X122.161 Y71.497 E19.15269
G1 X122.883 Y71.695 E19.17759
G1 X123.579 Y71.968 E19.20246
G1 X124.242 Y72.315 E19.22735
G1 X124.865 Y72.73 E19.25225
G1 X125.626 Y73.388 E19.28571
G1 X125.781 Y73.543 E19.293
G1 X126.281 Y74.1 E19.31789
G1 X126.718 Y74.706 E19.34274
G1 X127.089 Y75.356 E19.36764
G1 X127.388 Y76.042 E19.39253
G1 X127.612 Y76.756 E19.41741
G1 X127.759 Y77.489 E19.44228
G1 X127.831 Y78.491 E19.47569
G1 X127.832 Y81.394 E19.57225
G1 X127.792 Y82.141 E19.59713
G1 X127.673 Y82.879 E19.62199
G1 X127.476 Y83.601 E19.64688
G1 X127.203 Y84.297 E19.67175
G1 X126.857 Y84.96 E19.69662
G1 X126.442 Y85.583 E19.72152
G1 X125.782 Y86.346 E19.75507
G1 X125.665 Y86.463 E19.76058
G1 X125.108 Y86.963 E19.78547
G1 X124.502 Y87.4 E19.81032
G1 X123.852 Y87.771 E19.83521
G1 X123.166 Y88.07 E19.8601
G1 X122.452 Y88.294 E19.88499
G1 X121.719 Y88.441 E19.90986
G1 X120.715 Y88.513 E19.94334
G1 X98.411 Y88.513 E20.68517
G1 X97.664 Y88.473 E20.71005
G1 X96.926 Y88.354 E20.73492
G1 X96.204 Y88.156 E20.75982
G1 X95.508 Y87.883 E20.78468
G1 X94.845 Y87.536 E20.80957
G1 X94.222 Y87.121 E20.83447
G1 X93.461 Y86.463 E20.86793
G1 X93.306 Y86.308 E20.87522
G1 X92.806 Y85.751 E20.90011
G1 X92.369 Y85.145 E20.92496
G1 X91.998 Y84.495 E20.94986
G1 X91.699 Y83.809 E20.97475
G1 X91.475 Y83.095 E20.99964
G1 X91.328 Y82.362 E21.0245
G1 X91.256 Y81.36 E21.05791
G1 X91.255 Y78.457 E21.15447
G1 X91.295 Y77.71 E21.17935
G1 X91.414 Y76.972 E21.20421
G1 X91.611 Y76.25 E21.2291
G1 X91.884 Y75.554 E21.25397
G1 X92.23 Y74.891 E21.27884
G1 X92.645 Y74.268 E21.30374
G1 X93.305 Y73.505 E21.33729
G1 X93.422 Y73.388 E21.3428
G1 X93.979 Y72.888 E21.36769
G1 X94.585 Y72.451 E21.39254
G1 X95.235 Y72.08 E21.41744
G1 X95.921 Y71.781 E21.44233
G1 X96.635 Y71.557 E21.46721
G1 X97.368 Y71.41 E21.49208
G1 X98.372 Y71.338 E21.52556
G1 X100.078 Y71.338 E21.5823
G1 X100.222 Y70.812 E21.60044
G1 X100.22 Y69.657 E21.63885
G1 X100.219 Y40.896 E22.59545
G1 X93.785 Y40.896 E22.80944
G1 X93.038 Y40.856 E22.83433
G1 X92.3 Y40.737 E22.85919
G1 X91.578 Y40.539 E22.88409
G1 X90.882 Y40.266 E22.90896
G1 X90.219 Y39.919 E22.93384
G1 X89.596 Y39.504 E22.95874
G1 X88.835 Y38.846 E22.9922
G1 X88.718 Y38.729 E22.99771
G1 X88.218 Y38.172 E23.0226
G1 X87.781 Y37.566 E23.04745
G1 X87.41 Y36.916 E23.07234
G1 X87.111 Y36.23 E23.09723
G1 X86.887 Y35.516 E23.12212
G1 X86.74 Y34.783 E23.14699
G1 X86.668 Y33.779 E23.18047
G1 X86.668 Y30.838 E23.27828
G1 X86.708 Y30.091 E23.30316
G1 X86.827 Y29.353 E23.32803
G1 X87.025 Y28.631 E23.35293
G0 F6000 X87.425 Y28.697
G1 F1200 X87.698 Y28.024 E23.37708
G1 X88.043 Y27.385 E23.40124
G1 X88.457 Y26.788 E23.4254
G1 X89.001 Y26.171 E23.45276
G1 X89.118 Y26.054 E23.45826
G1 X89.659 Y25.57 E23.48241
G1 X90.25 Y25.147 E23.50658
G1 X90.884 Y24.793 E23.53073
G1 X91.553 Y24.51 E23.55489
G1 X92.249 Y24.302 E23.57905
G1 X92.964 Y24.172 E23.60322
G1 X93.785 Y24.121 E23.63058
G1 X125.301 Y24.121 E24.67881
G1 X126.026 Y24.161 E24.70296
G1 X126.743 Y24.28 E24.72713
G1 X127.442 Y24.478 E24.7513
G1 X128.115 Y24.751 E24.77545
G1 X128.754 Y25.096 E24.7996
G1 X129.351 Y25.51 E24.82377
G1 X129.968 Y26.054 E24.85113
G1 X130.085 Y26.171 E24.85663
G1 X130.569 Y26.712 E24.88077
G1 X130.992 Y27.303 E24.90495
G1 X131.346 Y27.937 E24.9291
G1 X131.629 Y28.606 E24.95326
G1 X131.837 Y29.302 E24.97742
G1 X131.967 Y30.017 E25.00159
G1 X132.018 Y30.838 E25.02895
G1 X132.018 Y33.779 E25.12677
G1 X131.978 Y34.504 E25.15092
G1 X131.859 Y35.221 E25.17509
G1 X131.661 Y35.92 E25.19925
G1 X131.388 Y36.593 E25.22341
G1 X131.043 Y37.232 E25.24756
G1 X130.629 Y37.829 E25.27173
G1 X130.085 Y38.446 E25.29908
G1 X129.968 Y38.563 E25.30459
G1 X129.427 Y39.047 E25.32873
G1 X128.836 Y39.47 E25.3529
G1 X128.202 Y39.824 E25.37706
G1 X127.533 Y40.107 E25.40122
G1 X126.837 Y40.315 E25.42538
G1 X126.122 Y40.445 E25.44955
G1 X125.301 Y40.496 E25.47691
G1 X118.466 Y40.496 E25.70424
G1 X118.467 Y71.738 E26.74335
G1 X120.676 Y71.738 E26.81682
G1 X121.401 Y71.778 E26.84097
G1 X122.118 Y71.897 E26.86515
G1 X122.817 Y72.095 E26.88931
G1 X123.49 Y72.368 E26.91347
G1 X124.129 Y72.713 E26.93762
G1 X124.726 Y73.127 E26.96178
G1 X125.343 Y73.671 E26.98914
G1 X125.498 Y73.826 E26.99643
G1 X125.982 Y74.367 E27.02058
G1 X126.405 Y74.958 E27.04475
G1 X126.759 Y75.592 E27.0689
G1 X127.042 Y76.261 E27.09306
G1 X127.25 Y76.957 E27.11722
G1 X127.38 Y77.672 E27.14139
G1 X127.431 Y78.491 E27.16869
G1 X127.432 Y81.394 E27.26524
G1 X127.392 Y82.119 E27.28939
G1 X127.273 Y82.836 E27.31356
G1 X127.076 Y83.535 E27.33772
G1 X126.803 Y84.208 E27.36187
G1 X126.458 Y84.847 E27.38603
G1 X126.045 Y85.444 E27.41017
G1 X125.499 Y86.063 E27.43762
G1 X125.382 Y86.18 E27.44313
G1 X124.841 Y86.664 E27.46727
G1 X124.25 Y87.087 E27.49144
G1 X123.616 Y87.441 E27.5156
G1 X122.947 Y87.724 E27.53976
G1 X122.251 Y87.932 E27.56392
G1 X121.536 Y88.062 E27.58809
G1 X120.715 Y88.113 E27.61545
G1 X98.411 Y88.113 E28.35728
G1 X97.686 Y88.073 E28.38143
G1 X96.969 Y87.954 E28.4056
G1 X96.27 Y87.756 E28.42977
G1 X95.597 Y87.483 E28.45392
G1 X94.958 Y87.138 E28.47808
G1 X94.361 Y86.724 E28.50224
