;FLAVOR:Marlin
;TIME:3168
;Filament used: 1.81595m
;Layer height: 0.2
;MINX:142.795
;MINY:9.025
;MINZ:0.2
;MAXX:208.728
;MAXY:105.651
;MAXZ:4.4
;Generated with Cura_SteamEngine 4.5.0
M140 S60
M105
M190 S60
M104 S190
M105
M109 S190
M82 ;absolute extrusion mode
M201 X500.00 Y500.00 Z100.00 E5000.00 ;Setup machine max acceleration
M203 X500.00 Y500.00 Z10.00 E50.00 ;Setup machine max feedrate
M204 P500.00 R1000.00 T500.00 ;Setup Print/Retract/Travel acceleration
M205 X8.00 Y8.00 Z0.40 E5.00 ;Setup Jerk
M220 S100 ;Reset Feedrate
M221 S100 ;Reset Flowrate

G28 ;Home
M420 S1 Z2 ;Enable ABL using saved Mesh and Fade Height
G29     ;autobedlevel
G92 E0 ;Reset Extruder
G1 Z2.0 F3000 ;Move Z Axis up
G1 X10.1 Y20 Z0.28 F5000.0 ;Move to start position
G1 X10.1 Y200.0 Z0.28 F1500.0 E15 ;Draw the first line
G1 X10.4 Y200.0 Z0.28 F5000.0 ;Move to side a little
G1 X10.4 Y20 Z0.28 F1500.0 E30 ;Draw the second line
G92 E0 ;Reset Extruder
G92 E0
G92 E0
G1 F1500 E-6.5
;LAYER_COUNT:22
;LAYER:0
M107
G0 F6000 X143.289 Y17.653 Z0.2
;TYPE:SKIRT
G1 F1500 E0
G1 F1200 X143.408 Y16.873 E0.02624
G1 X143.606 Y16.108 E0.05253
G1 X143.88 Y15.368 E0.07877
G1 X144.228 Y14.659 E0.10504
G1 X144.646 Y13.988 E0.13133
G1 X145.129 Y13.364 E0.15758
G1 X145.534 Y12.927 E0.1774
G1 X145.651 Y12.81 E0.1829
G1 X146.237 Y12.28 E0.20918
G1 X146.873 Y11.813 E0.23542
G1 X147.553 Y11.412 E0.26168
G1 X148.271 Y11.082 E0.28796
G1 X149.018 Y10.827 E0.31421
G1 X149.787 Y10.648 E0.34048
G1 X150.571 Y10.548 E0.36676
G1 X151.166 Y10.525 E0.38657
G1 X164.987 Y10.525 E0.84626
G1 X165.235 Y10.343 E0.85649
G1 X165.915 Y9.942 E0.88274
G1 X166.6 Y9.625 E0.90785
G1 X167.343 Y9.359 E0.9341
G1 X168.11 Y9.169 E0.96038
G1 X168.892 Y9.057 E0.98665
G1 X169.6 Y9.025 E1.01022
G1 X170.498 Y9.025 E1.04009
G1 X171.287 Y9.065 E1.06637
G1 X172.067 Y9.184 E1.09261
G1 X172.832 Y9.382 E1.11889
G1 X173.572 Y9.656 E1.14514
G1 X174.281 Y10.004 E1.17141
G1 X174.952 Y10.422 E1.1977
G1 X175.18 Y10.605 E1.20743
G1 X176.768 Y10.605 E1.26024
G1 X177.557 Y10.645 E1.28652
G1 X178.337 Y10.764 E1.31276
G1 X179.102 Y10.962 E1.33904
G1 X179.842 Y11.236 E1.36529
G1 X180.551 Y11.584 E1.39156
G1 X181.222 Y12.002 E1.41785
G1 X181.846 Y12.485 E1.4441
G1 X182.283 Y12.89 E1.46391
G1 X182.4 Y13.007 E1.46942
G1 X182.93 Y13.593 E1.4957
G1 X183.397 Y14.229 E1.52194
G1 X183.798 Y14.909 E1.5482
G1 X184.128 Y15.627 E1.57448
G1 X184.383 Y16.374 E1.60073
G1 X184.562 Y17.143 E1.62699
G1 X184.662 Y17.927 E1.65328
G1 X184.685 Y18.522 E1.67309
G1 X184.685 Y51.32 E2.76395
G1 X185.475 Y51.466 E2.79067
G1 X186.779 Y51.583 E2.83422
G1 X188.02 Y51.584 E2.87549
G1 X189.296 Y51.465 E2.91812
G1 X190.068 Y51.321 E2.94424
G1 X190.085 Y18.518 E4.03527
G1 X190.125 Y17.729 E4.06155
G1 X190.245 Y16.949 E4.08779
G1 X190.444 Y16.184 E4.11408
G1 X190.718 Y15.444 E4.14033
G1 X191.066 Y14.735 E4.1666
G1 X191.484 Y14.065 E4.19286
G1 X191.967 Y13.441 E4.21911
G1 X192.37 Y13.007 E4.23881
G1 X192.487 Y12.89 E4.24431
G1 X193.073 Y12.36 E4.27059
G1 X193.709 Y11.893 E4.29683
G1 X194.389 Y11.492 E4.32309
G1 X195.107 Y11.162 E4.34937
G1 X195.854 Y10.907 E4.37563
G1 X196.623 Y10.728 E4.40189
G1 X197.407 Y10.628 E4.42817
G1 X198.002 Y10.605 E4.44798
G1 X199.768 Y10.605 E4.50672
G1 X200.557 Y10.645 E4.53299
G1 X201.337 Y10.764 E4.55924
G1 X202.102 Y10.962 E4.58552
G1 X202.842 Y11.236 E4.61176
G1 X203.551 Y11.584 E4.63803
G1 X204.222 Y12.002 E4.66433
G1 X204.846 Y12.485 E4.69057
G1 X205.283 Y12.89 E4.71039
G1 X205.4 Y13.007 E4.71589
G1 X205.93 Y13.593 E4.74217
G1 X206.397 Y14.229 E4.76841
G1 X206.798 Y14.909 E4.79467
G1 X207.128 Y15.627 E4.82095
G1 X207.383 Y16.374 E4.84721
G1 X207.562 Y17.143 E4.87347
G1 X207.662 Y17.927 E4.89975
G1 X207.67 Y18.122 E4.90625
G1 X207.797 Y18.438 E4.91757
G1 X208.057 Y19.377 E4.94998
G1 X208.104 Y19.6 E4.95756
G1 X208.259 Y20.757 E4.99638
G1 X208.286 Y21.222 E5.01188
G1 X208.283 Y22.181 E5.04377
G1 X208.201 Y23.37 E5.08341
G1 X208.175 Y23.636 E5.0923
G1 X208.139 Y23.945 E5.10265
G1 X208.084 Y24.343 E5.11601
G1 X207.936 Y25.119 E5.14229
G1 X207.833 Y25.465 E5.1543
G1 X207.84 Y25.52 E5.15614
G1 X207.941 Y25.811 E5.16638
G1 X208.141 Y26.53 E5.19121
G1 X208.226 Y26.903 E5.20393
G1 X208.4 Y28.07 E5.24317
G1 X208.482 Y29.198 E5.28079
G1 X208.498 Y30.03 E5.30847
G1 X208.475 Y30.703 E5.33087
G1 X208.409 Y31.49 E5.35713
G1 X208.324 Y31.988 E5.37394
G1 X208.281 Y32.2 E5.38113
G1 X208.085 Y32.964 E5.40736
G1 X208.002 Y33.191 E5.4154
G1 X208.15 Y33.864 E5.43832
G1 X208.231 Y34.529 E5.4606
G1 X208.291 Y35.283 E5.48576
G1 X208.311 Y36.17 E5.51527
G1 X208.281 Y37.044 E5.54436
G1 X208.159 Y38.179 E5.58232
G1 X208.093 Y38.54 E5.59453
G1 X207.912 Y39.308 E5.62077
G1 X207.879 Y39.404 E5.62415
G1 X207.882 Y39.744 E5.63546
G1 X207.862 Y40.076 E5.64652
G1 X207.973 Y40.45 E5.6595
G1 X208.12 Y41.226 E5.68577
G1 X208.175 Y41.765 E5.70379
G1 X208.226 Y42.52 E5.72896
G1 X208.243 Y43.199 E5.75155
G1 X208.214 Y44.68 E5.80081
G1 X208.17 Y45.36 E5.82348
G1 X208.063 Y46.356 E5.8568
G1 X208.006 Y46.714 E5.86885
G1 X208.053 Y47.541 E5.8964
G1 X208.052 Y48.03 E5.91267
G1 X208.011 Y48.804 E5.93845
G1 X208.032 Y48.94 E5.94302
G1 X208.093 Y49.701 E5.96842
G1 X208.115 Y50.553 E5.99676
G1 X208.085 Y51.576 E6.0308
G1 X207.992 Y52.565 E6.06384
G1 X207.973 Y52.683 E6.06782
G1 X207.99 Y52.81 E6.07208
G1 X208.056 Y53.749 E6.10339
G1 X208.064 Y54.572 E6.13076
G1 X208.002 Y55.538 E6.16296
G1 X208.037 Y55.786 E6.17129
G1 X208.097 Y56.696 E6.20162
G1 X208.096 Y57.744 E6.23648
G1 X208.051 Y58.398 E6.25828
G1 X207.957 Y59.182 E6.28454
G1 X207.879 Y59.575 E6.29787
G1 X207.816 Y59.855 E6.30741
G1 X207.604 Y60.616 E6.33369
G1 X207.316 Y61.351 E6.35995
G1 X207.237 Y61.508 E6.36579
G1 X206.947 Y62.206 E6.39093
G1 X206.926 Y62.246 E6.39243
G1 X206.973 Y62.298 E6.39476
G1 X207.44 Y62.934 E6.42101
G1 X207.841 Y63.614 E6.44726
G1 X208.171 Y64.332 E6.47355
G1 X208.426 Y65.079 E6.4998
G1 X208.605 Y65.848 E6.52606
G1 X208.705 Y66.632 E6.55235
G1 X208.728 Y67.227 E6.57215
G1 X208.728 Y93.695 E7.45248
G1 X208.688 Y94.484 E7.47876
G1 X208.569 Y95.264 E7.505
G1 X208.371 Y96.029 E7.53128
G1 X208.097 Y96.769 E7.55753
G1 X207.749 Y97.478 E7.5838
G1 X207.331 Y98.149 E7.61009
G1 X206.848 Y98.773 E7.63634
G1 X206.443 Y99.21 E7.65615
G1 X206.326 Y99.327 E7.66166
G1 X205.74 Y99.857 E7.68794
G1 X205.104 Y100.324 E7.71418
G1 X204.424 Y100.725 E7.74044
G1 X203.706 Y101.055 E7.76672
G1 X202.959 Y101.31 E7.79297
G1 X202.19 Y101.489 E7.81923
G1 X201.406 Y101.589 E7.84552
G1 X200.809 Y101.612 E7.86539
G1 X197.201 Y101.611 E7.98539
G1 X174.459 Y101.612 E8.7418
G1 X174.294 Y101.714 E8.74825
G1 X173.911 Y101.911 E8.76257
G1 X172.36 Y102.656 E8.8198
G1 X171.825 Y102.889 E8.83921
G1 X171.531 Y103.003 E8.8497
G1 X170.04 Y103.566 E8.90271
G1 X169.43 Y103.768 E8.92408
G1 X167.703 Y104.262 E8.98382
G1 X167.052 Y104.419 E9.0061
G1 X165.289 Y104.763 E9.06584
G1 X164.645 Y104.861 E9.08751
G1 X162.847 Y105.058 E9.14766
G1 X162.19 Y105.102 E9.16957
G1 X160.415 Y105.146 E9.22862
G1 X159.746 Y105.133 E9.25088
G1 X157.916 Y105.021 E9.31186
G1 X157.26 Y104.953 E9.33379
G1 X155.734 Y104.729 E9.38509
G1 X155.042 Y105.051 E9.41048
G1 X154.299 Y105.317 E9.43672
G1 X153.532 Y105.507 E9.46301
G1 X152.75 Y105.619 E9.48928
G1 X152.042 Y105.651 E9.51285
G1 X151.149 Y105.651 E9.54255
G1 X150.36 Y105.611 E9.56883
G1 X149.58 Y105.492 E9.59507
G1 X148.815 Y105.294 E9.62136
G1 X148.075 Y105.02 E9.6476
G1 X147.136 Y104.539 E9.68269
G1 X147.021 Y104.47 E9.68715
G1 X146.365 Y104.03 E9.71342
G1 X145.512 Y103.291 E9.75096
G1 X145.112 Y102.89 E9.7698
G1 X144.583 Y102.303 E9.79608
G1 X144.116 Y101.666 E9.82235
G1 X143.717 Y100.985 E9.8486
G1 X143.419 Y100.346 E9.87205
G1 X143.149 Y99.604 E9.89832
G1 X142.955 Y98.838 E9.9246
G1 X142.84 Y98.057 E9.95085
G1 X142.804 Y97.323 E9.9753
G1 X142.8 Y94.867 E10.05698
G1 X142.795 Y58.781 E11.25721
G1 X142.804 Y57.819 E11.28921
G1 X142.852 Y57.031 E11.31546
G1 X142.979 Y56.251 E11.34175
G1 X143.183 Y55.489 E11.36799
G1 X143.31 Y55.151 E11.37999
G1 X143.261 Y54.683 E11.39565
G1 X143.249 Y54.255 E11.40989
G1 X143.249 Y18.442 E12.60103
G1 X143.289 Y17.653 E12.62731
G0 F6000 X143.689 Y17.674
G1 F1200 X143.808 Y16.914 E12.65289
G1 X144.006 Y16.171 E12.67847
G1 X144.28 Y15.452 E12.70406
G1 X144.627 Y14.766 E12.72963
G1 X145.043 Y14.119 E12.75521
G1 X145.524 Y13.519 E12.78079
G1 X145.933 Y13.092 E12.80046
G1 X146.505 Y12.578 E12.82603
G1 X147.127 Y12.125 E12.85163
G1 X147.792 Y11.739 E12.8772
G1 X148.494 Y11.424 E12.90279
G1 X149.225 Y11.184 E12.92838
G1 X149.976 Y11.021 E12.95394
G1 X150.741 Y10.937 E12.97954
G1 X151.166 Y10.925 E12.99368
G1 X165.118 Y10.925 E13.45772
G1 X165.489 Y10.655 E13.47299
G1 X166.154 Y10.269 E13.49856
G1 X166.754 Y9.994 E13.52051
G1 X167.478 Y9.736 E13.54608
G1 X168.226 Y9.554 E13.57168
G1 X168.988 Y9.45 E13.59726
G1 X169.6 Y9.425 E13.61763
G1 X170.498 Y9.425 E13.6475
G1 X171.266 Y9.465 E13.67308
G1 X172.026 Y9.584 E13.69866
G1 X172.769 Y9.782 E13.72424
G1 X173.488 Y10.056 E13.74983
G1 X174.174 Y10.403 E13.7754
G1 X174.821 Y10.819 E13.80098
G1 X175.049 Y11.005 E13.81077
G1 X176.768 Y11.005 E13.86794
G1 X177.536 Y11.045 E13.89352
G1 X178.296 Y11.164 E13.91911
G1 X179.039 Y11.362 E13.94468
G1 X179.758 Y11.636 E13.97027
G1 X180.444 Y11.983 E13.99584
G1 X181.091 Y12.399 E14.02143
G1 X181.691 Y12.88 E14.047
G1 X182.118 Y13.289 E14.06667
G1 X182.632 Y13.861 E14.09225
G1 X183.085 Y14.483 E14.11784
G1 X183.471 Y15.148 E14.14341
G1 X183.786 Y15.85 E14.16901
G1 X184.026 Y16.581 E14.1946
G1 X184.189 Y17.332 E14.22016
G1 X184.273 Y18.097 E14.24575
G1 X184.285 Y18.522 E14.25989
G1 X184.285 Y51.653 E15.36184
G1 X185.419 Y51.862 E15.40019
G1 X186.765 Y51.983 E15.44514
G1 X188.035 Y51.984 E15.48738
G1 X189.362 Y51.86 E15.53171
G1 X190.468 Y51.654 E15.56912
G1 X190.485 Y18.518 E16.67123
G1 X190.525 Y17.75 E16.69681
G1 X190.645 Y16.99 E16.7224
G1 X190.843 Y16.247 E16.74798
G1 X191.118 Y15.528 E16.77358
G1 X191.465 Y14.842 E16.79915
G1 X191.881 Y14.196 E16.8247
G1 X192.363 Y13.596 E16.8503
G1 X192.769 Y13.172 E16.86983
G1 X193.341 Y12.658 E16.8954
G1 X193.963 Y12.205 E16.921
G1 X194.628 Y11.819 E16.94657
G1 X195.33 Y11.504 E16.97216
G1 X196.061 Y11.264 E16.99775
G1 X196.812 Y11.101 E17.02331
G1 X197.577 Y11.017 E17.04891
G1 X198.002 Y11.005 E17.06305
G1 X199.768 Y11.005 E17.12179
G1 X200.536 Y11.045 E17.14737
G1 X201.296 Y11.164 E17.17295
G1 X202.039 Y11.362 E17.19853
G1 X202.758 Y11.636 E17.22412
G1 X203.444 Y11.983 E17.24969
G1 X204.091 Y12.399 E17.27527
G1 X204.691 Y12.88 E17.30085
G1 X205.118 Y13.289 E17.32051
G1 X205.632 Y13.861 E17.34609
G1 X206.085 Y14.483 E17.37169
G1 X206.471 Y15.148 E17.39726
G1 X206.786 Y15.85 E17.42285
G1 X207.026 Y16.581 E17.44844
G1 X207.189 Y17.332 E17.474
G1 X207.273 Y18.097 E17.4996
G1 X207.276 Y18.216 E17.50356
G1 X207.426 Y18.588 E17.5169
G1 X207.666 Y19.46 E17.54698
G1 X207.713 Y19.683 E17.55456
G1 X207.86 Y20.78 E17.59137
G1 X207.887 Y21.245 E17.60686
G1 X207.883 Y22.155 E17.63713
G1 X207.803 Y23.331 E17.67633
G1 X207.777 Y23.597 E17.68522
G1 X207.742 Y23.89 E17.69504
G1 X207.687 Y24.288 E17.7084
G1 X207.543 Y25.043 E17.73397
G1 X207.425 Y25.431 E17.74745
G1 X207.448 Y25.647 E17.75468
G1 X207.586 Y26.013 E17.76769
G1 X207.751 Y26.619 E17.78858
G1 X207.836 Y26.992 E17.8013
G1 X208.002 Y28.099 E17.83853
G1 X208.084 Y29.227 E17.87615
G1 X208.099 Y30.017 E17.90243
G1 X208.076 Y30.69 E17.92483
G1 X208.009 Y31.456 E17.9504
G1 X207.932 Y31.908 E17.96565
G1 X207.889 Y32.12 E17.97285
G1 X207.697 Y32.865 E17.99843
G1 X207.584 Y33.169 E18.00922
G1 X207.6 Y33.217 E18.0109
G1 X207.762 Y33.969 E18.03649
G1 X207.833 Y34.561 E18.05632
G1 X207.893 Y35.315 E18.08148
G1 X207.912 Y36.156 E18.10946
G1 X207.882 Y37.03 E18.13854
G1 X207.765 Y38.107 E18.17458
G1 X207.699 Y38.468 E18.18678
G1 X207.522 Y39.216 E18.21235
G1 X207.479 Y39.343 E18.21681
G1 X207.482 Y39.747 E18.23024
G1 X207.459 Y40.124 E18.24281
G1 X207.589 Y40.564 E18.25807
G1 X207.729 Y41.321 E18.28367
G1 X207.776 Y41.792 E18.29941
G1 X207.827 Y42.547 E18.32458
G1 X207.843 Y43.191 E18.34601
G1 X207.814 Y44.672 E18.39528
G1 X207.773 Y45.317 E18.41677
G1 X207.666 Y46.313 E18.45009
G1 X207.605 Y46.692 E18.46286
G1 X207.653 Y47.54 E18.49111
G1 X207.652 Y48.029 E18.50737
G1 X207.61 Y48.797 E18.53295
G1 X207.633 Y48.972 E18.53883
G1 X207.694 Y49.733 E18.56422
G1 X207.715 Y50.541 E18.5911
G1 X207.685 Y51.564 E18.62514
G1 X207.597 Y52.503 E18.65651
G1 X207.569 Y52.68 E18.66247
G1 X207.593 Y52.862 E18.66857
G1 X207.656 Y53.753 E18.69828
G1 X207.664 Y54.576 E18.72566
G1 X207.601 Y55.548 E18.75805
G1 X207.638 Y55.812 E18.76692
G1 X207.698 Y56.722 E18.79725
G1 X207.697 Y57.717 E18.83035
G1 X207.652 Y58.371 E18.85215
G1 X207.489 Y59.487 E18.88966
G1 X207.426 Y59.767 E18.89921
G1 X207.218 Y60.508 E18.92481
G1 X206.935 Y61.223 E18.95038
G1 X206.856 Y61.378 E18.95617
G1 X206.832 Y61.455 E18.95885
G1 X206.524 Y62.16 E18.98444
G1 X206.444 Y62.309 E18.99007
G1 X206.675 Y62.566 E19.00156
G1 X207.128 Y63.188 E19.02715
G1 X207.514 Y63.853 E19.05273
G1 X207.829 Y64.555 E19.07832
G1 X208.069 Y65.286 E19.10391
G1 X208.232 Y66.037 E19.12947
G1 X208.316 Y66.802 E19.15506
G1 X208.328 Y67.227 E19.1692
G1 X208.328 Y93.695 E20.04953
G1 X208.288 Y94.463 E20.07511
G1 X208.169 Y95.223 E20.1007
G1 X207.971 Y95.966 E20.12627
G1 X207.697 Y96.685 E20.15186
G1 X207.35 Y97.371 E20.17743
G1 X206.934 Y98.018 E20.20302
G1 X206.453 Y98.618 E20.22859
G1 X206.044 Y99.045 E20.24826
G1 X205.472 Y99.559 E20.27384
G1 X204.85 Y100.012 E20.29943
G1 X204.185 Y100.398 E20.32501
G1 X203.483 Y100.713 E20.3506
G1 X202.752 Y100.953 E20.37619
G1 X202.001 Y101.116 E20.40175
G1 X201.236 Y101.2 E20.42734
G1 X200.809 Y101.212 E20.44155
G1 X197.201 Y101.211 E20.56155
G1 X174.343 Y101.212 E21.32181
G1 X173.738 Y101.55 E21.34486
G1 X172.187 Y102.295 E21.40209
G1 X171.68 Y102.516 E21.42049
G1 X171.39 Y102.629 E21.43084
G1 X169.899 Y103.192 E21.48385
G1 X169.32 Y103.384 E21.50414
G1 X167.593 Y103.878 E21.56388
G1 X166.975 Y104.026 E21.58502
G1 X165.212 Y104.37 E21.64476
G1 X164.601 Y104.463 E21.66532
G1 X162.803 Y104.66 E21.72548
G1 X162.18 Y104.702 E21.74624
G1 X160.405 Y104.746 E21.8053
G1 X159.77 Y104.734 E21.82642
G1 X157.94 Y104.622 E21.8874
G1 X157.318 Y104.558 E21.9082
G1 X155.65 Y104.313 E21.96427
G1 X155.481 Y104.411 E21.97077
G1 X154.888 Y104.682 E21.99246
G1 X154.164 Y104.94 E22.01802
G1 X153.416 Y105.122 E22.04362
G1 X152.654 Y105.226 E22.0692
G1 X152.042 Y105.251 E22.08958
G1 X151.149 Y105.251 E22.11928
G1 X150.381 Y105.211 E22.14485
G1 X149.621 Y105.092 E22.17044
G1 X148.878 Y104.894 E22.19602
G1 X148.159 Y104.62 E22.22161
G1 X147.342 Y104.196 E22.25222
G1 X147.227 Y104.127 E22.25668
G1 X146.589 Y103.698 E22.28225
G1 X145.795 Y103.008 E22.31724
G1 X145.395 Y102.607 E22.33608
G1 X144.881 Y102.035 E22.36166
G1 X144.429 Y101.413 E22.38723
G1 X144.044 Y100.747 E22.41282
G1 X143.788 Y100.19 E22.4332
G1 X143.525 Y99.467 E22.45879
G1 X143.34 Y98.721 E22.48436
G1 X143.233 Y97.959 E22.50995
G1 X143.204 Y97.322 E22.53116
G1 X143.2 Y94.866 E22.61285
G1 X143.195 Y58.785 E23.8129
G1 X143.204 Y57.823 E23.8449
G1 X143.251 Y57.055 E23.87049
G1 X143.378 Y56.296 E23.89609
G1 X143.583 Y55.555 E23.92166
G1 X143.718 Y55.201 E23.93426
G1 X143.649 Y54.255 E23.96581
G1 X143.649 Y18.442 E25.15695
G1 X143.689 Y17.674 E25.18253
G0 F6000 X144.089 Y17.695
G1 F1200 X144.208 Y16.957 E25.2074
G1 X144.406 Y16.235 E25.2323
G1 X144.679 Y15.539 E25.25716
G1 X145.026 Y14.876 E25.28205
G1 X145.441 Y14.253 E25.30695
G1 X146.099 Y13.492 E25.34041
G1 X146.216 Y13.375 E25.34591
G1 X146.773 Y12.875 E25.37081
G1 X147.379 Y12.438 E25.39566
G1 X148.029 Y12.067 E25.42055
G1 X148.715 Y11.768 E25.44544
G1 X149.429 Y11.544 E25.47033
G1 X150.162 Y11.397 E25.49519
G1 X151.166 Y11.325 E25.52867
G1 X165.246 Y11.325 E25.99698
G1 X165.741 Y10.968 E26.01727
G1 X166.391 Y10.597 E26.04217
G1 X166.908 Y10.363 E26.06104
G1 X167.613 Y10.113 E26.08592
G1 X168.34 Y9.939 E26.11078
G1 X169.082 Y9.844 E26.13566
G1 X169.6 Y9.825 E26.15291
G1 X170.498 Y9.825 E26.18277
G1 X171.245 Y9.865 E26.20765
G1 X171.983 Y9.984 E26.23252
G1 X172.705 Y10.182 E26.25742
G1 X173.401 Y10.455 E26.28228
G1 X174.064 Y10.802 E26.30717
