;FLAVOR:Marlin
;TIME:5819
;Filament used: 2.84604m
;Layer height: 0.2
;MINX:85.827
;MINY:30.184
;MINZ:0.2
;MAXX:132.018
;MAXY:91.774
;MAXZ:38
;Generated with Cura_SteamEngine 4.5.0
M140 S60
M105
M190 S60
M104 S190
M105
M109 S190
M82 ;absolute extrusion mode
M201 X500.00 Y500.00 Z100.00 E5000.00 ;Setup machine max acceleration
M203 X500.00 Y500.00 Z10.00 E50.00 ;Setup machine max feedrate
M204 P500.00 R1000.00 T500.00 ;Setup Print/Retract/Travel acceleration
M205 X8.00 Y8.00 Z0.40 E5.00 ;Setup Jerk
M220 S100 ;Reset Feedrate
M221 S100 ;Reset Flowrate

G28 ;Home
M420 S1 Z2 ;Enable ABL using saved Mesh and Fade Height
G29     ;autobedlevel
G92 E0 ;Reset Extruder
G1 Z2.0 F3000 ;Move Z Axis up
G1 X10.1 Y20 Z0.28 F5000.0 ;Move to start position
G1 X10.1 Y200.0 Z0.28 F1500.0 E15 ;Draw the first line
G1 X10.4 Y200.0 Z0.28 F5000.0 ;Move to side a little
G1 X10.4 Y20 Z0.28 F1500.0 E30 ;Draw the second line
G92 E0 ;Reset Extruder
G92 E0
G92 E0
G1 F1500 E-6.5
;LAYER_COUNT:190
;LAYER:0
M107
G0 F6000 X86.458 Y35.027 Z0.2
;TYPE:SKIRT
G1 F1500 E0
G1 F1200 X86.806 Y34.318 E0.02627
G1 X87.224 Y33.647 E0.05256
G1 X87.707 Y33.023 E0.07881
G1 X88.112 Y32.586 E0.09862
G1 X88.229 Y32.469 E0.10413
G1 X88.815 Y31.939 E0.13041
G1 X89.451 Y31.472 E0.15665
G1 X90.131 Y31.071 E0.18291
G1 X90.849 Y30.741 E0.20919
G1 X91.596 Y30.486 E0.23544
G1 X92.365 Y30.307 E0.2617
G1 X93.149 Y30.207 E0.28799
G1 X93.744 Y30.184 E0.3078
G1 X97.079 Y30.184 E0.41872
G1 X97.868 Y30.224 E0.44499
G1 X98.648 Y30.343 E0.47124
G1 X99.413 Y30.541 E0.49752
G1 X99.804 Y30.686 E0.51139
G1 X100.639 Y30.707 E0.53917
G1 X101.103 Y30.752 E0.55468
G1 X101.316 Y30.784 E0.56184
G1 X101.536 Y30.764 E0.56919
G1 X101.926 Y30.753 E0.58216
G1 X102.428 Y30.755 E0.59886
G1 X102.838 Y30.77 E0.61251
G1 X103.323 Y30.741 E0.62867
G1 X104.154 Y30.734 E0.65631
G1 X104.452 Y30.747 E0.66623
G1 X104.867 Y30.735 E0.68004
G1 X105.191 Y30.72 E0.69082
G1 X105.861 Y30.722 E0.71311
G1 X106.726 Y30.687 E0.7419
G1 X107.228 Y30.701 E0.75861
G1 X107.328 Y30.695 E0.76194
G1 X107.915 Y30.68 E0.78147
G1 X108.147 Y30.683 E0.78918
G1 X108.953 Y30.643 E0.81602
G1 X109.741 Y30.685 E0.84227
G1 X110.185 Y30.744 E0.85717
G1 X110.387 Y30.777 E0.86398
G1 X110.921 Y30.751 E0.88176
G1 X111.133 Y30.75 E0.88881
G1 X111.606 Y30.761 E0.90455
G1 X111.726 Y30.751 E0.90855
G1 X112.114 Y30.732 E0.92147
G1 X112.475 Y30.723 E0.93348
G1 X112.851 Y30.722 E0.94599
G1 X113.318 Y30.735 E0.96153
G1 X113.507 Y30.746 E0.96782
G1 X113.89 Y30.735 E0.98057
G1 X114.214 Y30.72 E0.99135
G1 X114.883 Y30.722 E1.01361
G1 X115.749 Y30.687 E1.04243
G1 X116.251 Y30.701 E1.05914
G1 X116.351 Y30.695 E1.06247
G1 X116.938 Y30.68 E1.082
G1 X117.41 Y30.689 E1.0977
G1 X117.634 Y30.679 E1.10516
G1 X117.921 Y30.686 E1.11471
G1 X118.508 Y30.486 E1.13533
G1 X119.277 Y30.307 E1.16159
G1 X120.061 Y30.207 E1.18788
G1 X120.656 Y30.184 E1.20768
G1 X124.01 Y30.184 E1.31924
G1 X124.799 Y30.224 E1.34551
G1 X125.579 Y30.343 E1.37176
G1 X126.344 Y30.541 E1.39804
G1 X127.084 Y30.815 E1.42429
G1 X127.793 Y31.163 E1.45055
G1 X128.464 Y31.581 E1.47685
G1 X129.088 Y32.064 E1.50309
G1 X129.525 Y32.469 E1.52291
G1 X129.642 Y32.586 E1.52841
G1 X130.172 Y33.172 E1.55469
G1 X130.639 Y33.808 E1.58094
G1 X131.04 Y34.488 E1.60719
G1 X131.37 Y35.206 E1.63348
G1 X131.625 Y35.953 E1.65973
G1 X131.804 Y36.722 E1.68599
G1 X131.904 Y37.506 E1.71228
G1 X131.927 Y38.101 E1.73208
G1 X131.927 Y40.068 E1.7975
G1 X131.887 Y40.857 E1.82378
G1 X131.794 Y41.469 E1.84437
G1 X131.81 Y41.541 E1.84682
G1 X131.907 Y42.325 E1.8731
G1 X131.927 Y42.887 E1.8918
G1 X131.927 Y44.867 E1.95766
G1 X131.887 Y45.656 E1.98393
G1 X131.768 Y46.436 E2.01017
G1 X131.57 Y47.201 E2.03646
G1 X131.296 Y47.941 E2.0627
G1 X130.948 Y48.65 E2.08897
G1 X130.53 Y49.321 E2.11527
G1 X130.047 Y49.945 E2.14151
G1 X129.642 Y50.382 E2.16133
G1 X129.525 Y50.499 E2.16683
G1 X128.939 Y51.029 E2.19311
G1 X128.303 Y51.496 E2.21935
G1 X127.623 Y51.897 E2.24561
G1 X126.905 Y52.227 E2.27189
G1 X126.158 Y52.482 E2.29815
G1 X125.389 Y52.661 E2.32441
G1 X124.605 Y52.761 E2.35069
G1 X124.01 Y52.784 E2.3705
G1 X120.656 Y52.784 E2.48205
G1 X119.867 Y52.744 E2.50833
G1 X119.087 Y52.625 E2.53457
G1 X118.579 Y52.494 E2.55202
G1 X118.079 Y52.531 E2.5687
G1 X117.309 Y52.568 E2.59434
G1 X116.742 Y52.578 E2.6132
G1 X114.54 Y52.569 E2.68644
G1 X113.984 Y52.547 E2.70494
G1 X113.609 Y52.55 E2.71742
G1 X113.096 Y52.549 E2.73448
G1 X112.57 Y52.572 E2.75199
G1 X112.157 Y52.544 E2.76576
G1 X111.772 Y52.57 E2.77859
G1 X111.071 Y52.564 E2.80191
G1 X110.283 Y52.509 E2.82818
G1 X109.938 Y52.455 E2.8398
G1 X109.819 Y52.472 E2.84379
G1 X109.284 Y52.516 E2.86165
G1 X108.958 Y52.536 E2.87251
G1 X108.063 Y52.572 E2.9023
G1 X107.766 Y52.578 E2.91218
G1 X107.281 Y52.579 E2.92832
G1 X106.492 Y52.541 E2.95459
G1 X106.241 Y52.498 E2.96306
G1 X105.347 Y52.534 E2.99282
G1 X104.558 Y52.53 E3.01906
G1 X103.772 Y52.445 E3.04535
G1 X103.215 Y52.313 E3.06439
G1 X103.122 Y52.297 E3.06753
G1 X102.977 Y52.264 E3.07248
G1 X102.867 Y52.286 E3.07621
G1 X102.466 Y52.333 E3.08964
G1 X102.251 Y52.353 E3.09682
G1 X101.462 Y52.387 E3.12309
G1 X100.74 Y52.472 E3.14727
G1 X99.978 Y52.531 E3.17269
G1 X99.208 Y52.568 E3.19833
G1 X98.788 Y52.576 E3.2123
G1 X98.477 Y52.649 E3.22292
G1 X97.693 Y52.749 E3.24921
G1 X97.124 Y52.772 E3.26815
G1 X93.771 Y52.783 E3.37967
G1 X92.982 Y52.746 E3.40594
G1 X92.201 Y52.629 E3.43221
G1 X91.436 Y52.433 E3.45848
G1 X90.694 Y52.162 E3.48475
G1 X89.984 Y51.816 E3.51102
G1 X89.312 Y51.401 E3.53729
G1 X88.686 Y50.92 E3.56354
G1 X88.253 Y50.522 E3.58311
G1 X88.135 Y50.405 E3.58863
G1 X87.603 Y49.821 E3.61491
G1 X87.133 Y49.187 E3.64116
G1 X86.729 Y48.508 E3.66744
G1 X86.397 Y47.792 E3.69369
G1 X86.138 Y47.046 E3.71995
G1 X85.956 Y46.277 E3.74623
G1 X85.852 Y45.494 E3.77251
G1 X85.827 Y44.866 E3.79341
G1 X85.827 Y42.901 E3.85877
G1 X85.867 Y42.112 E3.88504
G1 X85.96 Y41.503 E3.90553
G1 X85.85 Y40.676 E3.93328
G1 X85.827 Y40.081 E3.95309
G1 X85.827 Y38.101 E4.01894
G1 X85.867 Y37.312 E4.04522
G1 X85.986 Y36.532 E4.07146
G1 X86.184 Y35.767 E4.09774
G1 X86.458 Y35.027 E4.12399
G0 F6000 X86.858 Y35.111
G1 F1200 X87.205 Y34.425 E4.14956
G1 X87.621 Y33.778 E4.17514
G1 X88.102 Y33.178 E4.20072
G1 X88.511 Y32.751 E4.22038
G1 X89.083 Y32.237 E4.24596
G1 X89.705 Y31.784 E4.27155
G1 X90.37 Y31.398 E4.29713
G1 X91.072 Y31.083 E4.32272
G1 X91.803 Y30.843 E4.34831
G1 X92.554 Y30.68 E4.37387
G1 X93.319 Y30.596 E4.39947
G1 X93.744 Y30.584 E4.41361
G1 X97.079 Y30.584 E4.52453
G1 X97.847 Y30.624 E4.55011
G1 X98.607 Y30.743 E4.57569
G1 X99.35 Y30.941 E4.60127
G1 X99.724 Y31.083 E4.61457
G1 X100.6 Y31.106 E4.64372
G1 X101.064 Y31.151 E4.65923
G1 X101.299 Y31.186 E4.66713
G1 X101.547 Y31.164 E4.67541
G1 X101.937 Y31.153 E4.68838
G1 X102.414 Y31.155 E4.70425
G1 X102.886 Y31.169 E4.71996
G1 X103.348 Y31.14 E4.73535
G1 X104.136 Y31.133 E4.76156
G1 X104.452 Y31.147 E4.77208
G1 X105.21 Y31.12 E4.79731
G1 X105.873 Y31.121 E4.81936
G1 X106.718 Y31.087 E4.84749
G1 X106.975 Y31.092 E4.85604
G1 X107.225 Y31.102 E4.86436
G1 X107.353 Y31.094 E4.86863
G1 X107.91 Y31.08 E4.88716
G1 X108.164 Y31.083 E4.89561
G1 X108.972 Y31.043 E4.92251
G1 X110.121 Y31.138 E4.96086
G1 X110.365 Y31.178 E4.96908
G1 X110.923 Y31.151 E4.98766
G1 X111.135 Y31.15 E4.99472
G1 X111.624 Y31.161 E5.01098
G1 X111.746 Y31.151 E5.01506
G1 X112.134 Y31.132 E5.02798
G1 X112.476 Y31.123 E5.03935
G1 X112.852 Y31.122 E5.05186
G1 X113.295 Y31.134 E5.0666
G1 X113.501 Y31.146 E5.07346
G1 X114.233 Y31.12 E5.09782
G1 X114.894 Y31.121 E5.11981
G1 X115.741 Y31.087 E5.148
G1 X115.998 Y31.092 E5.15655
G1 X116.248 Y31.102 E5.16488
G1 X116.376 Y31.094 E5.16914
G1 X116.933 Y31.08 E5.18767
G1 X117.414 Y31.09 E5.20367
G1 X117.652 Y31.079 E5.2116
G1 X117.974 Y31.087 E5.22231
G1 X118.715 Y30.843 E5.24826
G1 X119.466 Y30.68 E5.27382
G1 X120.231 Y30.596 E5.29942
G1 X120.656 Y30.584 E5.31356
G1 X124.01 Y30.584 E5.42511
G1 X124.778 Y30.624 E5.45069
G1 X125.538 Y30.743 E5.47628
G1 X126.281 Y30.941 E5.50185
G1 X127 Y31.215 E5.52744
G1 X127.686 Y31.562 E5.55301
G1 X128.333 Y31.978 E5.57859
G1 X128.933 Y32.459 E5.60417
G1 X129.36 Y32.868 E5.62384
G1 X129.874 Y33.44 E5.64942
G1 X130.327 Y34.062 E5.67501
G1 X130.713 Y34.727 E5.70058
G1 X131.028 Y35.429 E5.72617
G1 X131.268 Y36.16 E5.75176
G1 X131.431 Y36.911 E5.77732
G1 X131.515 Y37.676 E5.80292
G1 X131.527 Y38.101 E5.81706
G1 X131.527 Y40.068 E5.88248
G1 X131.487 Y40.836 E5.90806
G1 X131.385 Y41.488 E5.93001
G1 X131.436 Y41.729 E5.93821
G1 X131.517 Y42.494 E5.96379
G1 X131.527 Y42.887 E5.97687
G1 X131.527 Y44.867 E6.04272
G1 X131.487 Y45.635 E6.0683
G1 X131.368 Y46.395 E6.09389
G1 X131.17 Y47.138 E6.11946
G1 X130.896 Y47.857 E6.14505
G1 X130.549 Y48.543 E6.17062
G1 X130.133 Y49.19 E6.19621
G1 X129.652 Y49.79 E6.22178
G1 X129.243 Y50.217 E6.24145
G1 X128.671 Y50.731 E6.26703
G1 X128.049 Y51.184 E6.29262
G1 X127.384 Y51.57 E6.31819
G1 X126.682 Y51.885 E6.34378
G1 X125.951 Y52.125 E6.36937
G1 X125.2 Y52.288 E6.39493
G1 X124.435 Y52.372 E6.42053
G1 X124.01 Y52.384 E6.43467
G1 X120.656 Y52.384 E6.54623
G1 X119.888 Y52.344 E6.57181
G1 X119.128 Y52.225 E6.59739
G1 X118.617 Y52.089 E6.61498
G1 X118.058 Y52.132 E6.63363
G1 X117.301 Y52.168 E6.65883
G1 X116.744 Y52.178 E6.67736
G1 X114.542 Y52.169 E6.7506
G1 X113.964 Y52.144 E6.76984
G1 X113.611 Y52.15 E6.78159
G1 X113.096 Y52.149 E6.79871
G1 X112.552 Y52.172 E6.81682
G1 X112.151 Y52.144 E6.83019
G1 X111.771 Y52.17 E6.84286
G1 X111.079 Y52.164 E6.86588
G1 X110.312 Y52.109 E6.89146
G1 X109.942 Y52.05 E6.90392
G1 X109.787 Y52.073 E6.90913
G1 X109.252 Y52.117 E6.92698
G1 X108.942 Y52.136 E6.93731
G1 X108.047 Y52.172 E6.96711
G1 X107.765 Y52.178 E6.97649
G1 X107.28 Y52.179 E6.99262
G1 X106.512 Y52.141 E7.01819
G1 X106.27 Y52.099 E7.02636
G1 X105.329 Y52.135 E7.05768
G1 X104.56 Y52.129 E7.08326
G1 X103.796 Y52.044 E7.10883
G1 X102.953 Y51.849 E7.13761
G1 X102.429 Y51.935 E7.15527
G1 X102.214 Y51.955 E7.16245
G1 X101.446 Y51.987 E7.18802
G1 X100.707 Y52.073 E7.21276
G1 X99.957 Y52.132 E7.23778
G1 X99.2 Y52.168 E7.26299
G1 X98.745 Y52.177 E7.27813
G1 X98.288 Y52.276 E7.29368
G1 X97.523 Y52.36 E7.31928
G1 X97.122 Y52.372 E7.33262
G1 X93.769 Y52.383 E7.44414
G1 X93.001 Y52.346 E7.46971
G1 X92.241 Y52.229 E7.49529
G1 X91.497 Y52.033 E7.52088
G1 X90.777 Y51.762 E7.54647
G1 X90.09 Y51.417 E7.57204
G1 X89.441 Y51.003 E7.59764
G1 X88.84 Y50.524 E7.6232
G1 X88.417 Y50.121 E7.64263
G1 X87.899 Y49.552 E7.66823
G1 X87.444 Y48.932 E7.6938
G1 X87.055 Y48.268 E7.7194
G1 X86.738 Y47.568 E7.74496
G1 X86.495 Y46.838 E7.77055
G1 X86.328 Y46.087 E7.79614
G1 X86.241 Y45.323 E7.82171
G1 X86.227 Y44.866 E7.83692
G1 X86.227 Y42.901 E7.90227
G1 X86.267 Y42.133 E7.92785
G1 X86.369 Y41.482 E7.94977
G1 X86.323 Y41.271 E7.95695
G1 X86.239 Y40.506 E7.98255
G1 X86.227 Y40.081 E7.99669
G1 X86.227 Y38.101 E8.06255
G1 X86.267 Y37.333 E8.08812
G1 X86.386 Y36.573 E8.11371
G1 X86.584 Y35.83 E8.13928
G1 X86.858 Y35.111 E8.16488
G0 F6000 X87.257 Y35.198
G1 F1200 X87.604 Y34.535 E8.18976
G1 X88.019 Y33.912 E8.21466
G1 X88.677 Y33.151 E8.24812
G1 X88.794 Y33.034 E8.25363
G1 X89.351 Y32.534 E8.27852
G1 X89.957 Y32.097 E8.30337
G1 X90.607 Y31.726 E8.32826
G1 X91.293 Y31.427 E8.35315
G1 X92.007 Y31.203 E8.37804
G1 X92.74 Y31.056 E8.40291
G1 X93.744 Y30.984 E8.43639
G1 X97.079 Y30.984 E8.54731
G1 X97.826 Y31.024 E8.57219
G1 X98.564 Y31.143 E8.59705
G1 X99.286 Y31.341 E8.62195
G1 X99.64 Y31.48 E8.6346
G1 X100.562 Y31.504 E8.66528
G1 X101.026 Y31.549 E8.68078
G1 X101.282 Y31.588 E8.6894
G1 X101.559 Y31.564 E8.69864
G1 X101.949 Y31.553 E8.71162
G1 X102.399 Y31.555 E8.72659
G1 X102.832 Y31.571 E8.741
G1 X102.921 Y31.568 E8.74396
G1 X103.373 Y31.54 E8.75902
G1 X104.118 Y31.533 E8.7838
G1 X104.453 Y31.548 E8.79496
G1 X104.882 Y31.535 E8.80923
G1 X105.228 Y31.519 E8.82075
G1 X105.876 Y31.521 E8.8423
G1 X106.71 Y31.487 E8.87007
G1 X107.225 Y31.502 E8.8872
G1 X107.379 Y31.493 E8.89233
G1 X107.905 Y31.479 E8.90983
G1 X108.16 Y31.482 E8.91832
G1 X108.243 Y31.477 E8.92108
G1 X108.991 Y31.443 E8.94599
G1 X110.056 Y31.533 E8.98153
G1 X110.337 Y31.579 E8.99101
G1 X110.925 Y31.551 E9.01058
G1 X111.137 Y31.55 E9.01764
G1 X111.625 Y31.561 E9.03387
G1 X111.766 Y31.55 E9.03857
G1 X112.154 Y31.531 E9.0515
G1 X112.477 Y31.523 E9.06224
G1 X112.853 Y31.522 E9.07475
G1 X113.272 Y31.533 E9.08869
G1 X113.507 Y31.546 E9.09652
G1 X113.905 Y31.535 E9.10976
G1 X114.251 Y31.519 E9.12128
G1 X114.898 Y31.521 E9.1428
G1 X115.733 Y31.487 E9.17059
G1 X116.248 Y31.502 E9.18773
G1 X116.402 Y31.493 E9.19286
G1 X116.928 Y31.479 E9.21036
G1 X117.418 Y31.489 E9.22666
G1 X117.67 Y31.478 E9.23505
G1 X118.064 Y31.488 E9.24816
G1 X118.205 Y31.427 E9.25327
G1 X118.919 Y31.203 E9.27816
G1 X119.652 Y31.056 E9.30302
G1 X120.656 Y30.984 E9.3365
G1 X124.01 Y30.984 E9.44806
G1 X124.757 Y31.024 E9.47294
G1 X125.495 Y31.143 E9.4978
G1 X126.217 Y31.341 E9.5227
G1 X126.913 Y31.614 E9.54757
G1 X127.576 Y31.961 E9.57246
G1 X128.199 Y32.376 E9.59736
G1 X128.96 Y33.034 E9.63082
G1 X129.077 Y33.151 E9.63632
G1 X129.577 Y33.708 E9.66121
G1 X130.014 Y34.314 E9.68606
G1 X130.385 Y34.964 E9.71096
G1 X130.684 Y35.65 E9.73585
G1 X130.908 Y36.364 E9.76074
G1 X131.055 Y37.097 E9.7856
G1 X131.127 Y38.101 E9.81908
G1 X131.127 Y40.068 E9.8845
G1 X131.087 Y40.815 E9.90938
G1 X130.977 Y41.496 E9.93233
G1 X131.059 Y41.913 E9.94646
G1 X131.127 Y42.887 E9.97894
G1 X131.127 Y44.867 E10.04479
G1 X131.087 Y45.614 E10.06967
G1 X130.968 Y46.352 E10.09453
G1 X130.77 Y47.074 E10.11944
G1 X130.497 Y47.77 E10.1443
G1 X130.15 Y48.433 E10.16919
G1 X129.735 Y49.056 E10.19409
G1 X129.077 Y49.817 E10.22755
G1 X128.96 Y49.934 E10.23305
G1 X128.403 Y50.434 E10.25795
G1 X127.797 Y50.871 E10.2828
G1 X127.147 Y51.242 E10.30769
G1 X126.461 Y51.541 E10.33258
G1 X125.747 Y51.765 E10.35747
G1 X125.014 Y51.912 E10.38233
G1 X124.01 Y51.984 E10.41581
G1 X120.656 Y51.984 E10.52737
G1 X119.909 Y51.944 E10.55225
G1 X119.171 Y51.825 E10.57711
G1 X118.659 Y51.685 E10.59476
G1 X118.037 Y51.732 E10.61551
G1 X117.292 Y51.768 E10.64032
G1 X116.745 Y51.778 E10.65852
G1 X114.543 Y51.769 E10.73176
G1 X113.975 Y51.744 E10.75067
G1 X113.612 Y51.75 E10.76274
G1 X113.076 Y51.749 E10.78057
G1 X112.535 Y51.771 E10.79858
G1 X112.153 Y51.744 E10.81131
G1 X111.769 Y51.77 E10.82411
G1 X111.087 Y51.765 E10.8468
G1 X110.341 Y51.71 E10.87168
G1 X109.947 Y51.646 E10.88495
G1 X109.754 Y51.674 E10.89144
G1 X109.219 Y51.718 E10.90929
G1 X108.926 Y51.736 E10.91906
G1 X107.764 Y51.778 E10.95773
G1 X107.279 Y51.779 E10.97386
G1 X106.532 Y51.741 E10.99874
G1 X106.271 Y51.695 E11.00756
G1 X106.212 Y51.704 E11.00954
G1 X105.311 Y51.735 E11.03953
G1 X104.563 Y51.728 E11.06441
G1 X103.82 Y51.642 E11.08928
G1 X103.295 Y51.515 E11.10725
G1 X102.975 Y51.444 E11.11815
G1 X102.392 Y51.537 E11.13779
G1 X102.177 Y51.557 E11.14497
G1 X101.43 Y51.586 E11.16983
G1 X100.675 Y51.675 E11.19512
G1 X99.936 Y51.732 E11.21977
G1 X99.191 Y51.768 E11.24458
G1 X98.715 Y51.777 E11.26041
G1 X98.102 Y51.9 E11.28121
G1 X97.121 Y51.972 E11.31392
G1 X93.768 Y51.983 E11.42544
G1 X93.021 Y51.945 E11.45032
G1 X92.282 Y51.828 E11.47521
G1 X91.56 Y51.633 E11.50008
G1 X90.863 Y51.362 E11.52495
G1 X90.198 Y51.018 E11.54986
G1 X89.575 Y50.605 E11.57472
G1 X88.816 Y49.954 E11.60797
G1 X88.698 Y49.837 E11.6135
G1 X88.196 Y49.282 E11.63839
G1 X87.756 Y48.678 E11.66325
G1 X87.383 Y48.029 E11.68814
G1 X87.081 Y47.345 E11.71301
G1 X86.853 Y46.632 E11.73791
G1 X86.704 Y45.899 E11.76279
G1 X86.627 Y44.866 E11.79724
G1 X86.627 Y42.901 E11.8626
G1 X86.667 Y42.154 E11.88748
G1 X86.777 Y41.473 E11.91042
G1 X86.699 Y41.085 E11.92358
G1 X86.627 Y40.081 E11.95706
G1 X86.627 Y38.101 E12.02292
G1 X86.667 Y37.354 E12.0478
G1 X86.786 Y36.616 E12.07266
G1 X86.984 Y35.894 E12.09756
G1 X87.257 Y35.198 E12.12243
G0 F6000 X87.657 Y35.287
G1 F1200 X88.002 Y34.648 E12.14658
G1 X88.416 Y34.051 E12.17075
G1 X88.96 Y33.434 E12.1981
G1 X89.077 Y33.317 E12.20361
G1 X89.618 Y32.833 E12.22775
G1 X90.209 Y32.41 E12.25192
G1 X90.843 Y32.056 E12.27608
G1 X91.512 Y31.773 E12.30024
G1 X92.208 Y31.565 E12.3244
G1 X92.923 Y31.435 E12.34857
G1 X93.744 Y31.384 E12.37593
G1 X97.079 Y31.384 E12.48685
