;FLAVOR:Marlin
;TIME:10662
;Filament used: 7.32541m
;Layer height: 0.2
;MINX:71.323
;MINY:11.826
;MINZ:0.2
;MAXX:211.836
;MAXY:102.426
;MAXZ:7.8
;Generated with Cura_SteamEngine 4.5.0
M140 S60
M105
M190 S60
M104 S190
M105
M109 S190
M82 ;absolute extrusion mode
M201 X500.00 Y500.00 Z100.00 E5000.00 ;Setup machine max acceleration
M203 X500.00 Y500.00 Z10.00 E50.00 ;Setup machine max feedrate
M204 P500.00 R1000.00 T500.00 ;Setup Print/Retract/Travel acceleration
M205 X8.00 Y8.00 Z0.40 E5.00 ;Setup Jerk
M220 S100 ;Reset Feedrate
M221 S100 ;Reset Flowrate

G28 ;Home
M420 S1 Z2 ;Enable ABL using saved Mesh and Fade Height
G29     ;autobedlevel
G92 E0 ;Reset Extruder
G1 Z2.0 F3000 ;Move Z Axis up
G1 X10.1 Y20 Z0.28 F5000.0 ;Move to start position
G1 X10.1 Y200.0 Z0.28 F1500.0 E15 ;Draw the first line
G1 X10.4 Y200.0 Z0.28 F5000.0 ;Move to side a little
G1 X10.4 Y20 Z0.28 F1500.0 E30 ;Draw the second line
G92 E0 ;Reset Extruder
G92 E0
G92 E0
G1 F1500 E-6.5
;LAYER_COUNT:39
;LAYER:0
M107
G0 F6000 X71.612 Y19.61 Z0.2
;TYPE:SKIRT
G1 F1500 E0
G1 F1200 X71.802 Y18.933 E0.02339
G1 X71.872 Y18.721 E0.03081
G1 X72.111 Y18.09 E0.05325
G1 X72.202 Y17.878 E0.06093
G1 X72.556 Y17.158 E0.08761
G1 X72.668 Y16.957 E0.09527
G1 X73.04 Y16.356 E0.11878
G1 X73.154 Y16.189 E0.1255
G1 X73.556 Y15.652 E0.14781
G1 X73.69 Y15.488 E0.15486
G1 X74.181 Y14.942 E0.17928
G1 X74.342 Y14.779 E0.1869
G1 X74.859 Y14.3 E0.21034
G1 X75.026 Y14.159 E0.21761
G1 X75.615 Y13.708 E0.24228
G1 X75.804 Y13.577 E0.24993
G1 X76.385 Y13.211 E0.27277
G1 X76.571 Y13.105 E0.27989
G1 X77.255 Y12.759 E0.30539
G1 X77.459 Y12.668 E0.31281
G1 X78.137 Y12.402 E0.33704
G1 X78.338 Y12.334 E0.3441
G1 X78.987 Y12.146 E0.36657
G1 X79.208 Y12.092 E0.37414
G1 X79.976 Y11.945 E0.40014
G1 X80.19 Y11.915 E0.40733
G1 X80.863 Y11.85 E0.42982
G1 X81.091 Y11.838 E0.43741
G1 X81.494 Y11.827 E0.45082
G1 X82.597 Y11.826 E0.48751
G1 X151.736 Y11.826 E2.78708
G1 X152.087 Y11.834 E2.79876
G1 X152.309 Y11.844 E2.80615
G1 X152.954 Y11.9 E2.82768
G1 X153.156 Y11.926 E2.83446
G1 X153.935 Y12.067 E2.86079
G1 X154.149 Y12.117 E2.8681
G1 X154.831 Y12.309 E2.89166
G1 X155.054 Y12.383 E2.89948
G1 X156.078 Y12.806 E2.93633
G1 X156.473 Y13.003 E2.95101
G1 X157.403 Y13.55 E2.98689
G1 X157.578 Y13.67 E2.99395
G1 X158.122 Y14.079 E3.01659
G1 X158.291 Y14.218 E3.02387
G1 X158.817 Y14.692 E3.04742
G1 X158.978 Y14.851 E3.05494
G1 X159.498 Y15.419 E3.08055
G1 X159.63 Y15.578 E3.08743
G1 X160.048 Y16.129 E3.11043
G1 X160.175 Y16.313 E3.11787
G1 X160.539 Y16.892 E3.14061
G1 X160.652 Y17.091 E3.14823
G1 X161.001 Y17.785 E3.17406
G1 X161.09 Y17.986 E3.18137
G1 X161.339 Y18.623 E3.20412
G1 X161.408 Y18.825 E3.21122
G1 X161.614 Y19.536 E3.23584
G1 X161.666 Y19.754 E3.2433
G1 X161.799 Y20.451 E3.2669
G1 X161.83 Y20.666 E3.27412
G1 X161.86 Y20.968 E3.28422
G1 X162.372 Y20.968 E3.30124
G1 X163.161 Y21.008 E3.32752
G1 X163.941 Y21.127 E3.35376
G1 X164.706 Y21.325 E3.38005
G1 X165.446 Y21.599 E3.40629
G1 X166.155 Y21.947 E3.43256
G1 X166.826 Y22.365 E3.45885
G1 X167.45 Y22.848 E3.4851
G1 X167.887 Y23.253 E3.50492
G1 X168.004 Y23.37 E3.51042
G1 X168.483 Y23.9 E3.53418
G1 X203.919 Y23.9 E4.71279
G1 X204.708 Y23.94 E4.73906
G1 X205.488 Y24.059 E4.7653
G1 X206.253 Y24.257 E4.79159
G1 X206.993 Y24.531 E4.81783
G1 X207.702 Y24.879 E4.8441
G1 X208.373 Y25.297 E4.8704
G1 X208.997 Y25.78 E4.89664
G1 X209.434 Y26.185 E4.91646
G1 X209.551 Y26.302 E4.92196
G1 X210.081 Y26.888 E4.94824
G1 X210.548 Y27.524 E4.97448
G1 X210.949 Y28.204 E5.00074
G1 X211.279 Y28.922 E5.02702
G1 X211.534 Y29.669 E5.05328
G1 X211.713 Y30.438 E5.07954
G1 X211.813 Y31.222 E5.10582
G1 X211.836 Y31.817 E5.12563
G1 X211.836 Y67.751 E6.3208
G1 X211.796 Y68.54 E6.34707
G1 X211.677 Y69.32 E6.37332
G1 X211.479 Y70.085 E6.3996
G1 X211.205 Y70.825 E6.42585
G1 X210.857 Y71.534 E6.45211
G1 X210.439 Y72.205 E6.47841
G1 X209.956 Y72.829 E6.50465
G1 X209.551 Y73.266 E6.52447
G1 X209.434 Y73.383 E6.52997
G1 X208.848 Y73.913 E6.55625
G1 X208.212 Y74.38 E6.5825
G1 X207.532 Y74.781 E6.60875
G1 X206.814 Y75.111 E6.63504
G1 X206.067 Y75.366 E6.66129
G1 X205.298 Y75.545 E6.68755
G1 X204.514 Y75.645 E6.71384
G1 X203.919 Y75.668 E6.73364
G1 X168.457 Y75.668 E7.91311
G1 X168.408 Y75.731 E7.91577
G1 X168.004 Y76.166 E7.93551
G1 X167.887 Y76.283 E7.94102
G1 X167.301 Y76.813 E7.96729
G1 X166.665 Y77.28 E7.99354
G1 X165.985 Y77.681 E8.0198
G1 X165.267 Y78.011 E8.04608
G1 X164.52 Y78.266 E8.07233
G1 X163.751 Y78.445 E8.09859
G1 X162.967 Y78.545 E8.12488
G1 X162.372 Y78.568 E8.14468
G1 X161.923 Y78.568 E8.15962
G1 X161.923 Y92.232 E8.61408
G1 X161.907 Y92.775 E8.63215
G1 X161.845 Y93.482 E8.65576
G1 X161.816 Y93.698 E8.66301
G1 X161.691 Y94.387 E8.6863
G1 X161.644 Y94.594 E8.69336
G1 X161.451 Y95.293 E8.71747
G1 X161.38 Y95.51 E8.72507
G1 X161.138 Y96.152 E8.74789
G1 X161.049 Y96.36 E8.75541
G1 X160.687 Y97.098 E8.78275
G1 X160.578 Y97.293 E8.79018
G1 X160.22 Y97.871 E8.8128
G1 X160.097 Y98.052 E8.82007
G1 X159.7 Y98.587 E8.84223
G1 X159.57 Y98.747 E8.84909
G1 X159.082 Y99.292 E8.87342
G1 X158.921 Y99.456 E8.88107
G1 X158.365 Y99.97 E8.90625
G1 X158.192 Y100.115 E8.91376
G1 X157.624 Y100.549 E8.93753
G1 X157.445 Y100.673 E8.94477
G1 X156.837 Y101.053 E8.96862
G1 X156.651 Y101.158 E8.97573
G1 X156.029 Y101.474 E8.99893
G1 X155.821 Y101.568 E9.00652
G1 X155.109 Y101.849 E9.03198
G1 X154.908 Y101.917 E9.03904
G1 X154.252 Y102.107 E9.06175
G1 X154.03 Y102.161 E9.06935
G1 X153.274 Y102.306 E9.09496
G1 X153.061 Y102.336 E9.10211
G1 X152.413 Y102.4 E9.12377
G1 X152.183 Y102.413 E9.13143
G1 X151.75 Y102.425 E9.14584
G1 X150.648 Y102.426 E9.18249
G1 X81.509 Y102.426 E11.48206
G1 X81.123 Y102.416 E11.4949
G1 X80.901 Y102.405 E11.5023
G1 X80.276 Y102.349 E11.52317
G1 X80.077 Y102.323 E11.52984
G1 X79.311 Y102.184 E11.55574
G1 X79.093 Y102.133 E11.56318
G1 X78.414 Y101.941 E11.58665
G1 X78.203 Y101.871 E11.59405
G1 X77.566 Y101.629 E11.61671
G1 X77.353 Y101.537 E11.62443
G1 X76.609 Y101.167 E11.65206
G1 X76.432 Y101.067 E11.65883
G1 X75.927 Y100.756 E11.67855
G1 X75.73 Y100.624 E11.68644
G1 X75.097 Y100.152 E11.7127
G1 X74.94 Y100.022 E11.71948
G1 X74.4 Y99.529 E11.7438
G1 X74.225 Y99.354 E11.75203
G1 X73.52 Y98.546 E11.7877
G1 X73.271 Y98.217 E11.80142
G1 X72.696 Y97.34 E11.8363
G1 X72.581 Y97.136 E11.84409
G1 X72.234 Y96.442 E11.8699
G1 X72.144 Y96.237 E11.87734
G1 X71.898 Y95.602 E11.89999
G1 X71.832 Y95.407 E11.90684
G1 X71.639 Y94.743 E11.92984
G1 X71.584 Y94.516 E11.93761
G1 X71.438 Y93.742 E11.9638
G1 X71.408 Y93.524 E11.97112
G1 X71.346 Y92.869 E11.99301
G1 X71.335 Y92.659 E12
G1 X71.324 Y92.258 E12.01334
G1 X71.323 Y91.144 E12.05039
G1 X71.323 Y22.019 E14.3495
G1 X71.339 Y21.479 E14.36747
G1 X71.395 Y20.81 E14.3898
G1 X71.421 Y20.607 E14.39661
G1 X71.561 Y19.829 E14.4229
G1 X71.612 Y19.61 E14.43038
G0 F6000 X72.002 Y19.701
G1 F1200 X72.182 Y19.059 E14.45255
G1 X72.252 Y18.847 E14.45998
G1 X72.479 Y18.248 E14.48128
G1 X72.57 Y18.036 E14.48896
G1 X72.906 Y17.353 E14.51427
G1 X73.018 Y17.152 E14.52193
G1 X73.37 Y16.582 E14.54421
G1 X73.484 Y16.415 E14.55093
G1 X73.866 Y15.905 E14.57213
G1 X74 Y15.741 E14.57917
G1 X74.465 Y15.223 E14.60232
G1 X74.626 Y15.06 E14.60994
G1 X75.117 Y14.606 E14.63219
G1 X75.284 Y14.465 E14.63946
G1 X75.843 Y14.037 E14.66287
G1 X76.032 Y13.906 E14.67052
G1 X76.583 Y13.559 E14.69218
G1 X76.769 Y13.453 E14.6993
G1 X77.418 Y13.124 E14.7235
G1 X77.622 Y13.033 E14.73093
G1 X78.266 Y12.781 E14.75393
G1 X78.467 Y12.713 E14.76099
G1 X79.082 Y12.534 E14.78229
G1 X79.303 Y12.48 E14.78986
G1 X80.032 Y12.341 E14.81454
G1 X80.246 Y12.311 E14.82173
G1 X80.884 Y12.249 E14.84305
G1 X81.112 Y12.237 E14.85064
G1 X81.494 Y12.227 E14.86335
G1 X82.597 Y12.226 E14.90004
G1 X151.736 Y12.226 E17.19961
G1 X152.069 Y12.233 E17.21069
G1 X152.291 Y12.243 E17.21808
G1 X152.903 Y12.297 E17.23851
G1 X153.105 Y12.323 E17.24529
G1 X153.844 Y12.456 E17.27026
G1 X154.058 Y12.506 E17.27757
G1 X154.705 Y12.689 E17.29993
G1 X154.928 Y12.763 E17.30775
G1 X155.9 Y13.164 E17.34272
G1 X156.295 Y13.361 E17.3574
G1 X157.177 Y13.88 E17.39144
G1 X157.352 Y14 E17.3985
G1 X157.868 Y14.388 E17.41997
G1 X158.037 Y14.527 E17.42725
G1 X158.536 Y14.977 E17.4496
G1 X158.697 Y15.136 E17.45712
G1 X159.191 Y15.674 E17.48142
G1 X159.323 Y15.833 E17.48829
G1 X159.719 Y16.356 E17.51011
G1 X159.846 Y16.54 E17.51754
G1 X160.191 Y17.09 E17.53914
G1 X160.304 Y17.289 E17.54675
G1 X160.635 Y17.947 E17.57125
G1 X160.724 Y18.148 E17.57856
G1 X160.961 Y18.752 E17.60014
G1 X161.03 Y18.954 E17.60724
G1 X161.225 Y19.629 E17.63061
G1 X161.277 Y19.847 E17.63806
G1 X161.403 Y20.508 E17.66044
G1 X161.434 Y20.723 E17.66767
G1 X161.498 Y21.372 E17.68936
G1 X161.632 Y21.368 E17.69382
G1 X162.372 Y21.368 E17.71843
G1 X163.14 Y21.408 E17.74401
G1 X163.9 Y21.527 E17.76959
G1 X164.643 Y21.725 E17.79517
G1 X165.362 Y21.999 E17.82076
G1 X166.048 Y22.346 E17.84633
G1 X166.695 Y22.762 E17.87191
G1 X167.295 Y23.243 E17.89749
G1 X167.722 Y23.652 E17.91716
G1 X168.236 Y24.224 E17.94273
G1 X168.291 Y24.3 E17.94585
G1 X203.919 Y24.3 E19.13085
G1 X204.687 Y24.34 E19.15642
G1 X205.447 Y24.459 E19.18201
G1 X206.19 Y24.657 E19.20758
G1 X206.909 Y24.931 E19.23318
G1 X207.595 Y25.278 E19.25875
G1 X208.242 Y25.694 E19.28433
G1 X208.842 Y26.175 E19.30991
G1 X209.269 Y26.584 E19.32957
G1 X209.783 Y27.156 E19.35515
G1 X210.236 Y27.778 E19.38074
G1 X210.622 Y28.443 E19.40632
G1 X210.937 Y29.145 E19.43191
G1 X211.177 Y29.876 E19.4575
G1 X211.34 Y30.627 E19.48306
G1 X211.424 Y31.392 E19.50866
G1 X211.436 Y31.817 E19.5228
G1 X211.436 Y67.751 E20.71797
G1 X211.396 Y68.519 E20.74354
G1 X211.277 Y69.279 E20.76913
G1 X211.079 Y70.022 E20.7947
G1 X210.805 Y70.741 E20.8203
G1 X210.458 Y71.427 E20.84587
G1 X210.042 Y72.074 E20.87145
G1 X209.561 Y72.674 E20.89703
G1 X209.152 Y73.101 E20.91669
G1 X208.58 Y73.615 E20.94227
G1 X207.958 Y74.068 E20.96786
G1 X207.293 Y74.454 E20.99344
G1 X206.591 Y74.769 E21.01903
G1 X205.86 Y75.009 E21.04462
G1 X205.109 Y75.172 E21.07018
G1 X204.344 Y75.256 E21.09578
G1 X203.919 Y75.268 E21.10992
G1 X168.259 Y75.268 E22.29597
G1 X168.012 Y75.576 E22.3091
G1 X167.605 Y76.001 E22.32868
G1 X167.033 Y76.515 E22.35425
G1 X166.411 Y76.968 E22.37985
G1 X165.746 Y77.354 E22.40542
G1 X165.044 Y77.669 E22.43101
G1 X164.313 Y77.909 E22.4566
G1 X163.562 Y78.072 E22.48216
G1 X162.797 Y78.156 E22.50776
G1 X162.372 Y78.168 E22.5219
G1 X161.632 Y78.168 E22.54651
G1 X161.523 Y78.162 E22.55014
G1 X161.523 Y92.232 E23.01811
G1 X161.507 Y92.758 E23.03562
G1 X161.448 Y93.429 E23.05802
G1 X161.419 Y93.645 E23.06527
G1 X161.301 Y94.298 E23.08734
G1 X161.254 Y94.505 E23.0944
G1 X161.071 Y95.168 E23.11728
G1 X161 Y95.385 E23.12487
G1 X160.77 Y95.995 E23.14655
G1 X160.681 Y96.203 E23.15408
G1 X160.337 Y96.903 E23.18002
G1 X160.228 Y97.098 E23.18745
G1 X159.89 Y97.646 E23.20886
G1 X159.767 Y97.827 E23.21614
G1 X159.389 Y98.334 E23.23718
G1 X159.259 Y98.494 E23.24403
G1 X158.797 Y99.012 E23.26712
G1 X158.636 Y99.176 E23.27476
G1 X158.108 Y99.663 E23.29865
G1 X157.935 Y99.808 E23.30616
G1 X157.396 Y100.22 E23.32873
G1 X157.217 Y100.344 E23.33597
G1 X156.641 Y100.705 E23.35858
G1 X156.455 Y100.81 E23.36568
G1 X155.864 Y101.109 E23.38771
G1 X155.656 Y101.203 E23.3953
G1 X154.98 Y101.47 E23.41948
G1 X154.779 Y101.538 E23.42653
G1 X154.157 Y101.718 E23.44807
G1 X153.935 Y101.772 E23.45567
G1 X153.218 Y101.91 E23.47995
G1 X153.005 Y101.94 E23.48711
G1 X152.391 Y102 E23.50763
G1 X152.161 Y102.013 E23.51529
G1 X151.75 Y102.025 E23.52897
G1 X150.648 Y102.026 E23.56562
G1 X81.509 Y102.026 E25.86519
G1 X81.143 Y102.017 E25.87737
G1 X80.921 Y102.006 E25.88476
G1 X80.328 Y101.953 E25.90456
G1 X80.129 Y101.927 E25.91124
G1 X79.402 Y101.794 E25.93582
G1 X79.184 Y101.743 E25.94327
G1 X78.54 Y101.562 E25.96552
G1 X78.329 Y101.492 E25.97291
G1 X77.725 Y101.261 E25.99442
G1 X77.512 Y101.169 E26.00213
G1 X76.806 Y100.819 E26.02834
G1 X76.629 Y100.719 E26.0351
G1 X76.15 Y100.424 E26.05382
G1 X75.953 Y100.292 E26.0617
G1 X75.353 Y99.844 E26.08661
G1 X75.196 Y99.714 E26.09339
G1 X74.682 Y99.247 E26.11649
G1 X74.507 Y99.072 E26.12472
G1 X73.839 Y98.305 E26.15855
G1 X73.59 Y97.976 E26.17227
G1 X73.045 Y97.144 E26.20535
G1 X72.93 Y96.94 E26.21314
G1 X72.6 Y96.281 E26.23765
G1 X72.51 Y96.076 E26.2451
G1 X72.277 Y95.473 E26.2666
G1 X72.211 Y95.278 E26.27345
G1 X72.028 Y94.649 E26.29523
G1 X71.973 Y94.422 E26.303
G1 X71.834 Y93.688 E26.32785
G1 X71.804 Y93.47 E26.33517
G1 X71.745 Y92.848 E26.35595
G1 X71.734 Y92.638 E26.36294
G1 X71.724 Y92.258 E26.37559
G1 X71.723 Y91.144 E26.41264
G1 X71.723 Y22.019 E28.71175
G1 X71.738 Y21.496 E28.72915
G1 X71.792 Y20.861 E28.75034
G1 X71.818 Y20.658 E28.75715
G1 X71.951 Y19.92 E28.78209
G1 X72.002 Y19.701 E28.78957
G0 F6000 X72.391 Y19.791
G1 F1200 X72.562 Y19.184 E28.81055
G1 X72.632 Y18.972 E28.81797
G1 X72.847 Y18.406 E28.83811
G1 X72.938 Y18.194 E28.84578
G1 X73.255 Y17.548 E28.86972
G1 X73.367 Y17.347 E28.87737
G1 X73.701 Y16.807 E28.89849
G1 X73.815 Y16.64 E28.90521
G1 X74.175 Y16.158 E28.92522
G1 X74.309 Y15.994 E28.93227
G1 X74.75 Y15.504 E28.95419
G1 X74.911 Y15.341 E28.96181
G1 X75.375 Y14.911 E28.98285
G1 X75.542 Y14.77 E28.99012
G1 X76.07 Y14.366 E29.01224
G1 X76.259 Y14.235 E29.01988
G1 X76.781 Y13.906 E29.04041
G1 X76.967 Y13.8 E29.04753
G1 X77.581 Y13.489 E29.07042
G1 X77.785 Y13.398 E29.07785
G1 X78.394 Y13.16 E29.0996
G1 X78.595 Y13.092 E29.10665
G1 X79.176 Y12.923 E29.12678
G1 X79.397 Y12.869 E29.13434
G1 X80.087 Y12.737 E29.15771
G1 X80.301 Y12.707 E29.1649
G1 X80.905 Y12.649 E29.18508
G1 X81.133 Y12.637 E29.19267
G1 X81.495 Y12.627 E29.20472
G1 X82.598 Y12.626 E29.2414
G1 X151.736 Y12.626 E31.54094
G1 X152.051 Y12.633 E31.55142
G1 X152.273 Y12.643 E31.55881
G1 X152.852 Y12.693 E31.57814
G1 X153.054 Y12.719 E31.58492
G1 X153.753 Y12.846 E31.60855
G1 X153.967 Y12.896 E31.61586
G1 X154.579 Y13.068 E31.637
G1 X154.802 Y13.142 E31.64481
G1 X155.721 Y13.522 E31.67789
G1 X156.116 Y13.719 E31.69257
G1 X156.951 Y14.21 E31.72479
G1 X157.126 Y14.33 E31.73185
G1 X157.614 Y14.697 E31.75216
G1 X157.783 Y14.836 E31.75943
G1 X158.255 Y15.261 E31.78056
G1 X158.416 Y15.42 E31.78808
G1 X158.883 Y15.93 E31.81108
G1 X159.015 Y16.089 E31.81796
G1 X159.39 Y16.584 E31.83861
G1 X159.517 Y16.768 E31.84605
G1 X159.843 Y17.288 E31.86646
G1 X159.956 Y17.487 E31.87407
G1 X160.27 Y18.109 E31.89725
G1 X160.359 Y18.31 E31.90456
G1 X160.582 Y18.881 E31.92495
G1 X160.651 Y19.083 E31.93205
G1 X160.836 Y19.722 E31.95417
G1 X160.888 Y19.94 E31.96163
G1 X161.007 Y20.565 E31.98279
G1 X161.038 Y20.78 E31.99001
G1 X161.1 Y21.399 E32.0107
G1 X161.112 Y21.62 E32.01807
G1 X161.117 Y21.805 E32.02422
G1 X161.632 Y21.768 E32.04139
G1 X162.372 Y21.768 E32.06601
G1 X163.119 Y21.808 E32.09089
G1 X163.857 Y21.927 E32.11575
G1 X164.579 Y22.125 E32.14065
G1 X165.275 Y22.398 E32.16552
G1 X165.938 Y22.745 E32.19041
G1 X166.561 Y23.16 E32.2153
G1 X167.322 Y23.818 E32.24876
G1 X167.439 Y23.935 E32.25427
G1 X167.939 Y24.492 E32.27916
G1 X168.089 Y24.7 E32.28769
G1 X203.919 Y24.7 E33.4794
G1 X204.666 Y24.74 E33.50428
G1 X205.404 Y24.859 E33.52915
G1 X206.126 Y25.057 E33.55405
G1 X206.822 Y25.33 E33.57891
G1 X207.485 Y25.677 E33.6038
G1 X208.108 Y26.092 E33.6287
G1 X208.869 Y26.75 E33.66216
G1 X208.986 Y26.867 E33.66766
G1 X209.486 Y27.424 E33.69256
G1 X209.923 Y28.03 E33.71741
G1 X210.294 Y28.68 E33.7423
G1 X210.593 Y29.366 E33.76719
G1 X210.817 Y30.08 E33.79208
G1 X210.964 Y30.813 E33.81694
G1 X211.036 Y31.817 E33.85042
G1 X211.036 Y67.751 E35.04559
G1 X210.996 Y68.498 E35.07047
G1 X210.877 Y69.236 E35.09534
G1 X210.679 Y69.958 E35.12024
G1 X210.406 Y70.654 E35.1451
G1 X210.059 Y71.317 E35.16999
G1 X209.644 Y71.94 E35.19489
G1 X208.986 Y72.701 E35.22835
G1 X208.869 Y72.818 E35.23385
G1 X208.312 Y73.318 E35.25875
G1 X207.706 Y73.755 E35.2836
G1 X207.056 Y74.126 E35.30849
G1 X206.37 Y74.425 E35.33338
G1 X205.656 Y74.649 E35.35827
G1 X204.923 Y74.796 E35.38314
G1 X203.919 Y74.868 E35.41661
G1 X168.073 Y74.868 E36.60886
G1 X167.439 Y75.601 E36.64109
G1 X167.322 Y75.718 E36.64659
G1 X166.765 Y76.218 E36.67149
G1 X166.159 Y76.655 E36.69634
G1 X165.509 Y77.026 E36.72123
