;FLAVOR:Marlin
;TIME:1840
;Filament used: 1.37416m
;Layer height: 0.2
;MINX:59.858
;MINY:10.108
;MINZ:0.2
;MAXX:124.574
;MAXY:74.823
;MAXZ:3.4
;Generated with Cura_SteamEngine 4.5.0
M140 S60
M105
M190 S60
M104 S190
M105
M109 S190
M82 ;absolute extrusion mode
M201 X500.00 Y500.00 Z100.00 E5000.00 ;Setup machine max acceleration
M203 X500.00 Y500.00 Z10.00 E50.00 ;Setup machine max feedrate
M204 P500.00 R1000.00 T500.00 ;Setup Print/Retract/Travel acceleration
M205 X8.00 Y8.00 Z0.40 E5.00 ;Setup Jerk
M220 S100 ;Reset Feedrate
M221 S100 ;Reset Flowrate

G28 ;Home
M420 S1 Z2 ;Enable ABL using saved Mesh and Fade Height
G29     ;autobedlevel
G92 E0 ;Reset Extruder
G1 Z2.0 F3000 ;Move Z Axis up
G1 X10.1 Y20 Z0.28 F5000.0 ;Move to start position
G1 X10.1 Y200.0 Z0.28 F1500.0 E15 ;Draw the first line
G1 X10.4 Y200.0 Z0.28 F5000.0 ;Move to side a little
G1 X10.4 Y20 Z0.28 F1500.0 E30 ;Draw the second line
G92 E0 ;Reset Extruder
G92 E0
G92 E0
G1 F1500 E-6.5
;LAYER_COUNT:17
;LAYER:0
M107
G0 F6000 X66.282 Y16.512 Z0.2
;TYPE:SKIRT
G1 F1500 E0
G1 F1200 X66.486 Y15.749 E0.02627
G1 X66.767 Y15.011 E0.05253
G1 X67.121 Y14.305 E0.0788
G1 X67.545 Y13.638 E0.10509
G1 X68.033 Y13.018 E0.13133
G1 X68.416 Y12.611 E0.14992
G1 X68.536 Y12.492 E0.15554
G1 X69.124 Y11.965 E0.1818
G1 X69.762 Y11.5 E0.20806
G1 X70.444 Y11.102 E0.23433
G1 X71.163 Y10.775 E0.2606
G1 X71.912 Y10.523 E0.28688
G1 X72.071 Y10.487 E0.2923
G1 X72.169 Y10.454 E0.29574
G1 X72.94 Y10.282 E0.32202
G1 X73.046 Y10.269 E0.32557
G1 X73.317 Y10.211 E0.33479
G1 X74.102 Y10.123 E0.36106
G1 X74.567 Y10.109 E0.37653
G1 X76.112 Y10.108 E0.42792
G1 X76.901 Y10.147 E0.45419
G1 X77.591 Y10.249 E0.47739
G1 X77.908 Y10.31 E0.48813
G1 X78.675 Y10.498 E0.51439
G1 X78.738 Y10.521 E0.51662
G1 X78.995 Y10.587 E0.52545
G1 X79.735 Y10.861 E0.5517
G1 X80.444 Y11.209 E0.57796
G1 X81.115 Y11.627 E0.60426
G1 X81.739 Y12.11 E0.6305
G1 X82.153 Y12.492 E0.64924
G1 X82.273 Y12.611 E0.65486
G1 X82.805 Y13.194 E0.68111
G1 X83.275 Y13.829 E0.70739
G1 X83.679 Y14.508 E0.73367
G1 X84.012 Y15.224 E0.75993
G1 X84.27 Y15.97 E0.78618
G1 X84.452 Y16.738 E0.81243
G1 X84.556 Y17.521 E0.83871
G1 X84.579 Y18.045 E0.85615
G1 X108.478 Y18.045 E1.65103
G1 X109.267 Y18.085 E1.67731
G1 X110.047 Y18.204 E1.70355
G1 X110.812 Y18.402 E1.72984
G1 X111.552 Y18.676 E1.75608
G1 X112.261 Y19.024 E1.78235
G1 X112.932 Y19.442 E1.80864
G1 X113.556 Y19.925 E1.83489
G1 X114.129 Y20.468 E1.86115
G1 X114.644 Y21.067 E1.88742
G1 X115.095 Y21.715 E1.91368
G1 X115.479 Y22.406 E1.93997
G1 X115.791 Y23.131 E1.96622
G1 X116.028 Y23.884 E1.99248
G1 X116.187 Y24.658 E2.01876
G1 X116.278 Y25.817 E2.05743
G1 X116.306 Y33.73 E2.32062
G1 X116.379 Y33.727 E2.32305
G1 X117.168 Y33.739 E2.34929
G1 X117.953 Y33.831 E2.37558
G1 X118.724 Y34.002 E2.40185
G1 X119.473 Y34.251 E2.4281
G1 X120.194 Y34.573 E2.45436
G1 X120.879 Y34.967 E2.48065
G1 X121.52 Y35.428 E2.50691
G1 X122.074 Y35.915 E2.53144
G1 X122.196 Y36.033 E2.53708
G1 X122.735 Y36.61 E2.56335
G1 X123.213 Y37.239 E2.58962
G1 X123.625 Y37.913 E2.6159
G1 X123.967 Y38.625 E2.64217
G1 X124.235 Y39.367 E2.66841
G1 X124.426 Y40.134 E2.6947
G1 X124.539 Y40.915 E2.72094
G1 X124.573 Y41.632 E2.74482
G1 X124.574 Y42.622 E2.77775
G1 X124.535 Y43.411 E2.80402
G1 X124.416 Y44.192 E2.8303
G1 X124.219 Y44.956 E2.85654
G1 X123.946 Y45.697 E2.8828
G1 X123.599 Y46.407 E2.90909
G1 X123.182 Y47.077 E2.93533
G1 X122.699 Y47.702 E2.96161
G1 X122.197 Y48.237 E2.98601
G1 X122.075 Y48.355 E2.99165
G1 X121.48 Y48.874 E3.01791
G1 X120.836 Y49.331 E3.04418
G1 X120.149 Y49.72 E3.07044
G1 X119.426 Y50.038 E3.09671
G1 X118.675 Y50.281 E3.12296
G1 X117.903 Y50.447 E3.14922
G1 X117.118 Y50.534 E3.17549
G1 X116.383 Y50.543 E3.19994
G1 X116.395 Y58.7 E3.47124
G1 X116.358 Y59.489 E3.49751
G1 X116.241 Y60.27 E3.52378
G1 X116.046 Y61.035 E3.55004
G1 X115.774 Y61.777 E3.57632
G1 X115.429 Y62.487 E3.60258
G1 X115.014 Y63.159 E3.62885
G1 X114.533 Y63.785 E3.65511
G1 X114.11 Y64.243 E3.67584
G1 X113.993 Y64.36 E3.68134
G1 X113.407 Y64.89 E3.70762
G1 X112.771 Y65.357 E3.73387
G1 X112.091 Y65.758 E3.76012
G1 X111.373 Y66.088 E3.78641
G1 X110.626 Y66.343 E3.81266
G1 X109.857 Y66.522 E3.83892
G1 X109.073 Y66.622 E3.86521
G1 X108.478 Y66.645 E3.88501
G1 X83.753 Y66.645 E4.70737
G1 X83.741 Y67.422 E4.73322
G1 X83.648 Y68.206 E4.75947
G1 X83.477 Y68.977 E4.78574
G1 X83.228 Y69.726 E4.81199
G1 X82.905 Y70.447 E4.83827
G1 X82.511 Y71.131 E4.86452
G1 X82.05 Y71.772 E4.89079
G1 X81.565 Y72.324 E4.91522
G1 X81.447 Y72.446 E4.92087
G1 X80.87 Y72.985 E4.94713
G1 X80.241 Y73.463 E4.97341
G1 X79.567 Y73.875 E4.99968
G1 X78.855 Y74.217 E5.02595
G1 X78.113 Y74.485 E5.05219
G1 X77.346 Y74.676 E5.07848
G1 X76.565 Y74.789 E5.10473
G1 X75.84 Y74.823 E5.12887
G1 X74.85 Y74.823 E5.1618
G1 X74.061 Y74.783 E5.18807
G1 X73.281 Y74.664 E5.21432
G1 X72.516 Y74.466 E5.2406
G1 X71.776 Y74.192 E5.26684
G1 X71.067 Y73.844 E5.29311
G1 X70.396 Y73.426 E5.31941
G1 X69.772 Y72.943 E5.34565
G1 X69.243 Y72.446 E5.36979
G1 X69.125 Y72.324 E5.37544
G1 X68.606 Y71.729 E5.4017
G1 X68.149 Y71.085 E5.42796
G1 X67.76 Y70.398 E5.45422
G1 X67.442 Y69.675 E5.48049
G1 X67.199 Y68.924 E5.50675
G1 X67.033 Y68.152 E5.53301
G1 X66.946 Y67.367 E5.55928
G1 X66.937 Y66.635 E5.58363
G1 X67.008 Y64.558 E5.65275
G1 X67.05 Y63.969 E5.67239
G1 X67.145 Y63.106 E5.70127
G1 X67.083 Y63.021 E5.70476
G1 X66.682 Y62.341 E5.73102
G1 X66.352 Y61.623 E5.7573
G1 X66.097 Y60.876 E5.78356
G1 X65.918 Y60.107 E5.80982
G1 X65.818 Y59.323 E5.8361
G1 X65.795 Y58.728 E5.85591
G1 X65.795 Y51.072 E6.11055
G1 X65.503 Y50.994 E6.1206
G1 X64.765 Y50.714 E6.14685
G1 X64.059 Y50.36 E6.17312
G1 X63.393 Y49.937 E6.19936
G1 X62.772 Y49.449 E6.22563
G1 X62.386 Y49.087 E6.24323
G1 X62.265 Y48.966 E6.24893
G1 X61.735 Y48.38 E6.2752
G1 X61.268 Y47.744 E6.30145
G1 X60.867 Y47.064 E6.3277
G1 X60.537 Y46.346 E6.35399
G1 X60.282 Y45.599 E6.38024
G1 X60.241 Y45.421 E6.38632
G1 X60.204 Y45.311 E6.39018
G1 X60.032 Y44.54 E6.41645
G1 X60.019 Y44.434 E6.42
G1 X59.961 Y44.163 E6.42922
G1 X59.873 Y43.378 E6.45549
G1 X59.859 Y42.913 E6.47096
G1 X59.858 Y41.368 E6.52235
G1 X59.897 Y40.579 E6.54863
G1 X60.016 Y39.799 E6.57487
G1 X60.047 Y39.678 E6.57902
G1 X60.078 Y39.477 E6.58579
G1 X60.337 Y38.486 E6.61986
G1 X60.611 Y37.746 E6.6461
G1 X60.959 Y37.037 E6.67237
G1 X61.377 Y36.366 E6.69866
G1 X61.86 Y35.742 E6.72491
G1 X62.265 Y35.305 E6.74473
G1 X62.386 Y35.184 E6.75042
G1 X62.972 Y34.654 E6.7767
G1 X63.608 Y34.187 E6.80294
G1 X64.288 Y33.786 E6.8292
G1 X65.006 Y33.456 E6.85548
G1 X65.753 Y33.201 E6.88173
G1 X65.795 Y33.191 E6.88317
G1 X65.795 Y25.962 E7.12361
G1 X65.835 Y25.173 E7.14988
G1 X65.954 Y24.393 E7.17613
G1 X66.152 Y23.628 E7.20241
G1 X66.206 Y23.483 E7.20755
G1 X66.104 Y22.759 E7.23187
G1 X66.073 Y21.996 E7.25727
G1 X66.108 Y18.079 E7.38756
G1 X66.155 Y17.291 E7.41381
G1 X66.282 Y16.512 E7.44006
G0 F6000 X66.681 Y16.556
G1 F1200 X66.886 Y15.815 E7.46563
G1 X67.166 Y15.099 E7.49121
G1 X67.519 Y14.415 E7.51681
G1 X67.941 Y13.772 E7.54239
G1 X68.428 Y13.177 E7.56796
G1 X68.817 Y12.776 E7.58654
G1 X69.391 Y12.263 E7.61215
G1 X70.015 Y11.813 E7.63773
G1 X70.682 Y11.43 E7.66332
G1 X71.385 Y11.118 E7.6889
G1 X72.116 Y10.881 E7.71446
G1 X72.248 Y10.853 E7.71894
G1 X72.373 Y10.813 E7.72331
G1 X73.126 Y10.657 E7.74889
G1 X73.5 Y10.587 E7.76154
G1 X74.567 Y10.509 E7.79713
G1 X76.112 Y10.508 E7.84851
G1 X76.88 Y10.547 E7.87409
G1 X77.515 Y10.641 E7.89544
G1 X77.832 Y10.702 E7.90618
G1 X78.579 Y10.887 E7.93177
G1 X78.642 Y10.91 E7.934
G1 X78.932 Y10.987 E7.94398
G1 X79.651 Y11.261 E7.96957
G1 X80.337 Y11.608 E7.99514
G1 X80.984 Y12.024 E8.02073
G1 X81.584 Y12.505 E8.0463
G1 X81.992 Y12.895 E8.06508
G1 X82.509 Y13.464 E8.09065
G1 X82.964 Y14.084 E8.11623
G1 X83.353 Y14.747 E8.14179
G1 X83.67 Y15.448 E8.16738
G1 X83.914 Y16.178 E8.19298
G1 X84.08 Y16.929 E8.21856
G1 X84.167 Y17.693 E8.24414
G1 X84.181 Y18.082 E8.25708
G1 X84.184 Y18.445 E8.26916
G1 X108.478 Y18.445 E9.07718
G1 X109.246 Y18.485 E9.10276
G1 X110.006 Y18.604 E9.12834
G1 X110.749 Y18.802 E9.15392
G1 X111.468 Y19.076 E9.17951
G1 X112.154 Y19.423 E9.20508
G1 X112.801 Y19.839 E9.23066
G1 X113.401 Y20.32 E9.25624
G1 X113.948 Y20.861 E9.28183
G1 X114.436 Y21.456 E9.30742
G1 X114.859 Y22.098 E9.33299
G1 X115.214 Y22.781 E9.3586
G1 X115.495 Y23.496 E9.38415
G1 X115.701 Y24.238 E9.40976
G1 X115.829 Y24.996 E9.43533
G1 X115.878 Y25.819 E9.46275
G1 X115.908 Y34.144 E9.73964
G1 X116.393 Y34.127 E9.75578
G1 X117.162 Y34.14 E9.78136
G1 X117.925 Y34.233 E9.80693
G1 X118.675 Y34.404 E9.83251
G1 X119.403 Y34.653 E9.85811
G1 X120.101 Y34.976 E9.88369
G1 X120.762 Y35.369 E9.90926
G1 X121.379 Y35.829 E9.93486
G1 X121.796 Y36.203 E9.95349
G1 X121.918 Y36.321 E9.95914
G1 X122.442 Y36.884 E9.98472
G1 X122.905 Y37.498 E10.01029
G1 X123.302 Y38.157 E10.03588
G1 X123.628 Y38.853 E10.06145
G1 X123.88 Y39.58 E10.08704
G1 X124.056 Y40.329 E10.11263
G1 X124.153 Y41.092 E10.13821
G1 X124.173 Y41.633 E10.15621
G1 X124.174 Y42.623 E10.18914
G1 X124.135 Y43.391 E10.21472
G1 X124.016 Y44.151 E10.2403
G1 X123.819 Y44.894 E10.26587
G1 X123.546 Y45.613 E10.29145
G1 X123.2 Y46.3 E10.31703
G1 X122.784 Y46.947 E10.34262
G1 X122.304 Y47.548 E10.3682
G1 X121.919 Y47.949 E10.38669
G1 X121.797 Y48.067 E10.39234
G1 X121.217 Y48.572 E10.41791
G1 X120.588 Y49.015 E10.4435
G1 X119.916 Y49.389 E10.46908
G1 X119.209 Y49.692 E10.49466
G1 X118.474 Y49.92 E10.52026
G1 X117.72 Y50.071 E10.54584
G1 X116.954 Y50.142 E10.57142
G1 X116.396 Y50.144 E10.58998
G1 X115.964 Y50.129 E10.60436
G1 X115.995 Y58.702 E10.8895
G1 X115.958 Y59.47 E10.91507
G1 X115.841 Y60.23 E10.94065
G1 X115.646 Y60.974 E10.96623
G1 X115.375 Y61.694 E10.99182
G1 X115.03 Y62.382 E11.01742
G1 X114.616 Y63.03 E11.04299
G1 X114.137 Y63.632 E11.06858
G1 X113.828 Y63.961 E11.08359
G1 X113.711 Y64.078 E11.0891
G1 X113.139 Y64.592 E11.11467
G1 X112.517 Y65.045 E11.14027
G1 X111.852 Y65.431 E11.16584
G1 X111.15 Y65.746 E11.19143
G1 X110.419 Y65.986 E11.21702
G1 X109.668 Y66.149 E11.24258
G1 X108.903 Y66.233 E11.26818
G1 X108.478 Y66.245 E11.28232
G1 X83.34 Y66.245 E12.11841
G1 X83.354 Y66.646 E12.13176
G1 X83.34 Y67.415 E12.15734
G1 X83.247 Y68.178 E12.1829
G1 X83.075 Y68.928 E12.2085
G1 X82.826 Y69.656 E12.23409
G1 X82.503 Y70.354 E12.25967
G1 X82.109 Y71.014 E12.28523
G1 X81.649 Y71.631 E12.31083
G1 X81.277 Y72.046 E12.32937
G1 X81.159 Y72.168 E12.33501
G1 X80.596 Y72.692 E12.36059
G1 X79.982 Y73.155 E12.38617
G1 X79.323 Y73.552 E12.41176
G1 X78.627 Y73.878 E12.43732
G1 X77.9 Y74.13 E12.46291
G1 X77.151 Y74.306 E12.4885
G1 X76.388 Y74.403 E12.51409
G1 X75.84 Y74.423 E12.53232
G1 X74.85 Y74.423 E12.56525
G1 X74.082 Y74.383 E12.59083
G1 X73.322 Y74.264 E12.61642
G1 X72.579 Y74.066 E12.64199
G1 X71.86 Y73.792 E12.66758
G1 X71.174 Y73.445 E12.69315
G1 X70.527 Y73.029 E12.71874
G1 X69.927 Y72.548 E12.74431
G1 X69.531 Y72.168 E12.76257
G1 X69.413 Y72.046 E12.76821
G1 X68.908 Y71.466 E12.79379
G1 X68.465 Y70.837 E12.81938
G1 X68.091 Y70.165 E12.84496
G1 X67.788 Y69.458 E12.87054
G1 X67.56 Y68.723 E12.89614
G1 X67.409 Y67.969 E12.92171
G1 X67.338 Y67.203 E12.9473
G1 X67.336 Y66.648 E12.96576
G1 X67.407 Y64.571 E13.03488
G1 X67.448 Y64.012 E13.05352
G1 X67.56 Y62.994 E13.08759
G1 X67.395 Y62.767 E13.09692
G1 X67.009 Y62.102 E13.12249
G1 X66.694 Y61.4 E13.14809
G1 X66.454 Y60.669 E13.17368
G1 X66.291 Y59.918 E13.19924
G1 X66.207 Y59.153 E13.22483
G1 X66.195 Y58.728 E13.23897
G1 X66.195 Y50.767 E13.50376
G1 X65.569 Y50.595 E13.52535
G1 X64.853 Y50.315 E13.55092
G1 X64.17 Y49.962 E13.57649
G1 X63.526 Y49.54 E13.6021
G1 X62.668 Y48.805 E13.63968
G1 X62.547 Y48.684 E13.64537
G1 X62.033 Y48.112 E13.67095
G1 X61.58 Y47.49 E13.69654
G1 X61.194 Y46.825 E13.72211
G1 X60.879 Y46.123 E13.7477
G1 X60.639 Y45.392 E13.77329
G1 X60.607 Y45.245 E13.7783
G1 X60.563 Y45.107 E13.78312
G1 X60.407 Y44.354 E13.80869
G1 X60.337 Y43.98 E13.82135
G1 X60.259 Y42.913 E13.85693
G1 X60.258 Y41.368 E13.90832
G1 X60.297 Y40.6 E13.93389
G1 X60.416 Y39.84 E13.95948
G1 X60.444 Y39.734 E13.96313
G1 X60.478 Y39.518 E13.9704
G1 X60.737 Y38.549 E14.00376
G1 X61.011 Y37.83 E14.02935
G1 X61.358 Y37.144 E14.05492
G1 X61.774 Y36.497 E14.0805
G1 X62.255 Y35.897 E14.10608
G1 X62.547 Y35.587 E14.12025
G1 X62.668 Y35.466 E14.12594
G1 X63.24 Y34.952 E14.15151
G1 X63.862 Y34.499 E14.17711
G1 X64.527 Y34.113 E14.20268
G1 X65.229 Y33.798 E14.22827
G1 X65.96 Y33.558 E14.25386
G1 X66.195 Y33.507 E14.26186
G1 X66.195 Y25.962 E14.51281
G1 X66.235 Y25.194 E14.53839
G1 X66.354 Y24.434 E14.56397
G1 X66.552 Y23.691 E14.58955
G1 X66.62 Y23.512 E14.59592
G1 X66.595 Y23.406 E14.59954
G1 X66.496 Y22.644 E14.6251
G1 X66.473 Y22 E14.64653
G1 X66.508 Y18.083 E14.77681
G1 X66.555 Y17.315 E14.80241
G1 X66.681 Y16.556 E14.828
G0 F6000 X67.081 Y16.602
G1 F1200 X67.285 Y15.883 E14.85285
G1 X67.565 Y15.189 E14.87774
G1 X67.917 Y14.529 E14.90262
G1 X68.337 Y13.91 E14.9275
G1 X68.979 Y13.179 E14.95986
G1 X69.099 Y13.06 E14.96548
G1 X69.658 Y12.562 E14.99038
G1 X70.266 Y12.127 E15.01525
G1 X70.917 Y11.759 E15.04012
G1 X71.604 Y11.463 E15.065
G1 X72.319 Y11.242 E15.08989
G1 X72.417 Y11.223 E15.09321
G1 X72.574 Y11.175 E15.09867
G1 X73.68 Y10.966 E15.13611
G1 X74.567 Y10.909 E15.16567
G1 X76.112 Y10.908 E15.21706
G1 X76.859 Y10.947 E15.24194
G1 X77.44 Y11.034 E15.26148
G1 X77.757 Y11.095 E15.27221
G1 X78.483 Y11.276 E15.2971
G1 X78.543 Y11.298 E15.29923
G1 X78.868 Y11.387 E15.31043
G1 X79.564 Y11.66 E15.3353
G1 X80.227 Y12.007 E15.36019
G1 X80.85 Y12.422 E15.38509
G1 X81.59 Y13.06 E15.41758
G1 X81.71 Y13.179 E15.4232
G1 X82.212 Y13.733 E15.44807
G1 X82.652 Y14.338 E15.47295
G1 X83.026 Y14.986 E15.49784
G1 X83.328 Y15.671 E15.52273
G1 X83.555 Y16.383 E15.54759
G1 X83.704 Y17.116 E15.57247
G1 X83.781 Y18.086 E15.60483
G1 X83.788 Y18.845 E15.63008
G1 X108.478 Y18.845 E16.45127
G1 X109.225 Y18.885 E16.47615
G1 X109.963 Y19.004 E16.50101
G1 X110.685 Y19.202 E16.52591
G1 X111.381 Y19.475 E16.55078
G1 X112.044 Y19.822 E16.57567
G1 X112.667 Y20.237 E16.60057
G1 X113.241 Y20.716 E16.62543
G1 X113.762 Y21.253 E16.65032
G1 X114.221 Y21.843 E16.67518
G1 X114.616 Y22.479 E16.70008
G1 X114.94 Y23.153 E16.72495
G1 X115.19 Y23.858 E16.74983
G1 X115.364 Y24.586 E16.77473
G1 X115.459 Y25.328 E16.79961
G1 X115.478 Y25.82 E16.81599
G1 X115.509 Y34.557 E17.10658
G1 X116.407 Y34.526 E17.13647
G1 X117.155 Y34.54 E17.16135
G1 X117.897 Y34.634 E17.18623
G1 X118.625 Y34.806 E17.21111
G1 X119.33 Y35.055 E17.23597
G1 X120.005 Y35.378 E17.26086
G1 X120.642 Y35.771 E17.28576
G1 X121.233 Y36.23 E17.31065
G1 X121.64 Y36.608 E17.32912
G1 X122.149 Y37.157 E17.35402
G1 X122.596 Y37.756 E17.37888
G1 X122.978 Y38.399 E17.40376
G1 X123.288 Y39.08 E17.42864
G1 X123.524 Y39.79 E17.45353
G1 X123.683 Y40.521 E17.47841
G1 X123.773 Y41.633 E17.51551
G1 X123.774 Y42.623 E17.54844
G1 X123.735 Y43.37 E17.57332
G1 X123.616 Y44.109 E17.59822
G1 X123.419 Y44.83 E17.62308
G1 X123.146 Y45.527 E17.64797
G1 X122.801 Y46.19 E17.67283
G1 X122.387 Y46.813 E17.69771
G1 X121.908 Y47.388 E17.7226
G1 X121.641 Y47.662 E17.73533
G1 X121.519 Y47.78 E17.74097
G1 X120.954 Y48.27 E17.76585
G1 X120.34 Y48.698 E17.79074
G1 X119.684 Y49.057 E17.81561
G1 X118.993 Y49.345 E17.84051
G1 X118.276 Y49.557 E17.86538
G1 X117.54 Y49.691 E17.89026
G1 X116.794 Y49.747 E17.91514
G1 X116.41 Y49.744 E17.92792
G1 X115.563 Y49.715 E17.9561
G1 X115.595 Y58.703 E18.25505
G1 X115.558 Y59.45 E18.27992
G1 X115.441 Y60.189 E18.30481
G1 X115.246 Y60.911 E18.32968
G1 X114.975 Y61.609 E18.35459
G1 X114.631 Y62.273 E18.37946
G1 X114.218 Y62.897 E18.40435
G1 X113.545 Y63.678 E18.43864
G1 X113.428 Y63.795 E18.44414
G1 X112.871 Y64.295 E18.46904
G1 X112.265 Y64.732 E18.49389
G1 X111.615 Y65.103 E18.51878
G1 X110.929 Y65.402 E18.54367
G1 X110.215 Y65.626 E18.56856
G1 X109.482 Y65.773 E18.59342
G1 X108.478 Y65.845 E18.6269
G1 X82.926 Y65.845 E19.47676
G1 X82.954 Y66.66 E19.50389
G1 X82.94 Y67.407 E19.52874
G1 X82.846 Y68.15 E19.55365
G1 X82.673 Y68.877 E19.5785
G1 X82.424 Y69.583 E19.6034
G1 X82.101 Y70.257 E19.62826
G1 X81.708 Y70.894 E19.65315
G1 X81.249 Y71.485 E19.67804
G1 X80.872 Y71.89 E19.69645
G1 X80.323 Y72.399 E19.72135
