;FLAVOR:Marlin
;TIME:802
;Filament used: 0.460957m
;Layer height: 0.2
;MINX:79.451
;MINY:15.045
;MINZ:0.2
;MAXX:123.921
;MAXY:82.134
;MAXZ:2
;Generated with Cura_SteamEngine 4.5.0
M140 S60
M105
M190 S60
M104 S190
M105
M109 S190
M82 ;absolute extrusion mode
M201 X500.00 Y500.00 Z100.00 E5000.00 ;Setup machine max acceleration
M203 X500.00 Y500.00 Z10.00 E50.00 ;Setup machine max feedrate
M204 P500.00 R1000.00 T500.00 ;Setup Print/Retract/Travel acceleration
M205 X8.00 Y8.00 Z0.40 E5.00 ;Setup Jerk
M220 S100 ;Reset Feedrate
M221 S100 ;Reset Flowrate

G28 ;Home
M420 S1 Z2 ;Enable ABL using saved Mesh and Fade Height
G29     ;autobedlevel
G92 E0 ;Reset Extruder
G1 Z2.0 F3000 ;Move Z Axis up
G1 X10.1 Y20 Z0.28 F5000.0 ;Move to start position
G1 X10.1 Y200.0 Z0.28 F1500.0 E15 ;Draw the first line
G1 X10.4 Y200.0 Z0.28 F5000.0 ;Move to side a little
G1 X10.4 Y20 Z0.28 F1500.0 E30 ;Draw the second line
G92 E0 ;Reset Extruder
G92 E0
G92 E0
G1 F1500 E-6.5
;LAYER_COUNT:10
;LAYER:0
M107
G0 F6000 X81.414 Y22.266 Z0.2
;TYPE:SKIRT
G1 F1500 E0
G1 F1200 X81.675 Y21.521 E0.02626
G1 X82.01 Y20.806 E0.05252
G1 X82.416 Y20.129 E0.07877
G1 X82.888 Y19.496 E0.10504
G1 X83.264 Y19.074 E0.12383
G1 X83.378 Y18.955 E0.12932
G1 X83.952 Y18.413 E0.15557
G1 X84.578 Y17.932 E0.18183
G1 X85.25 Y17.517 E0.2081
G1 X85.96 Y17.172 E0.23435
G1 X86.702 Y16.9 E0.26064
G1 X87.467 Y16.705 E0.2869
G1 X88.248 Y16.588 E0.31316
G1 X88.846 Y16.553 E0.33309
G1 X89.227 Y16.545 E0.34576
G1 X90.017 Y16.568 E0.37205
G1 X90.8 Y16.671 E0.39832
G1 X91.568 Y16.853 E0.42457
G1 X92.314 Y17.111 E0.45082
G1 X93.03 Y17.444 E0.47708
G1 X93.709 Y17.847 E0.50335
G1 X94.344 Y18.317 E0.52962
G1 X94.712 Y18.644 E0.546
G1 X95.115 Y18.104 E0.56841
G1 X95.467 Y17.707 E0.58605
G1 X95.58 Y17.588 E0.59151
G1 X96.152 Y17.044 E0.61777
G1 X96.776 Y16.56 E0.64403
G1 X97.446 Y16.142 E0.6703
G1 X98.155 Y15.793 E0.69658
G1 X98.895 Y15.519 E0.72283
G1 X99.659 Y15.32 E0.74909
G1 X100.44 Y15.2 E0.77537
G1 X101.051 Y15.161 E0.79573
G1 X101.431 Y15.152 E0.80837
G1 X102.221 Y15.173 E0.83466
G1 X103.004 Y15.274 E0.86092
G1 X103.773 Y15.454 E0.88718
G1 X104.52 Y15.711 E0.91346
G1 X105.237 Y16.041 E0.93971
G1 X105.917 Y16.443 E0.96598
G1 X106.553 Y16.911 E0.99225
G1 X107.052 Y17.355 E1.01446
G1 X107.521 Y16.913 E1.0359
G1 X108.147 Y16.432 E1.06215
G1 X108.819 Y16.017 E1.08842
G1 X109.529 Y15.672 E1.11468
G1 X110.271 Y15.4 E1.14096
G1 X111.036 Y15.205 E1.16722
G1 X111.817 Y15.088 E1.19349
G1 X112.415 Y15.053 E1.21341
G1 X112.796 Y15.045 E1.22609
G1 X113.586 Y15.068 E1.25237
G1 X114.369 Y15.171 E1.27864
G1 X115.137 Y15.353 E1.30489
G1 X115.883 Y15.611 E1.33115
G1 X116.599 Y15.944 E1.35741
G1 X117.278 Y16.347 E1.38367
G1 X117.913 Y16.817 E1.40995
G1 X118.357 Y17.211 E1.42969
G1 X118.477 Y17.326 E1.43522
G1 X119.019 Y17.901 E1.4615
G1 X119.499 Y18.527 E1.48774
G1 X119.915 Y19.199 E1.51402
G1 X120.26 Y19.91 E1.54031
G1 X120.531 Y20.651 E1.56655
G1 X120.726 Y21.416 E1.59281
G1 X120.843 Y22.197 E1.61907
G1 X120.879 Y22.82 E1.63983
G1 X121.008 Y30.132 E1.88307
G1 X121.267 Y30.497 E1.89795
G1 X121.741 Y31.356 E1.93058
G1 X122.323 Y32.589 E1.97593
G1 X122.623 Y33.319 E2.00218
G1 X122.841 Y34.045 E2.02739
G1 X123.225 Y35.597 E2.08057
G1 X123.375 Y36.372 E2.10683
G1 X123.422 Y36.78 E2.12049
G1 X123.575 Y38.502 E2.17799
G1 X123.595 Y39.601 E2.21454
G1 X123.504 Y41.336 E2.27233
G1 X123.423 Y42.121 E2.29858
G1 X123.35 Y42.522 E2.31213
G1 X123.023 Y44.087 E2.36531
G1 X122.823 Y44.851 E2.39158
G1 X122.567 Y45.542 E2.41609
G1 X122.041 Y46.78 E2.46083
G1 X121.696 Y47.49 E2.48708
G1 X121.28 Y48.162 E2.51337
G1 X120.847 Y48.733 E2.5372
G1 X121.052 Y49.526 E2.56444
G1 X121.169 Y50.307 E2.59071
G1 X121.205 Y50.932 E2.61153
G1 X121.333 Y58.241 E2.85467
G1 X121.592 Y58.607 E2.86958
G1 X122.063 Y59.461 E2.90202
G1 X122.646 Y60.694 E2.94738
G1 X122.947 Y61.424 E2.97364
G1 X123.168 Y62.159 E2.99917
G1 X123.551 Y63.711 E3.05234
G1 X123.701 Y64.486 E3.07859
G1 X123.747 Y64.885 E3.09195
G1 X123.901 Y66.606 E3.14942
G1 X123.921 Y67.714 E3.18628
G1 X123.829 Y69.45 E3.2441
G1 X123.747 Y70.235 E3.27035
G1 X123.676 Y70.628 E3.28364
G1 X123.35 Y72.193 E3.33681
G1 X123.15 Y72.957 E3.36307
G1 X122.891 Y73.657 E3.3879
G1 X122.364 Y74.895 E3.43265
G1 X122.018 Y75.605 E3.45892
G1 X121.602 Y76.276 E3.48518
G1 X121.166 Y76.85 E3.50915
G1 X120.494 Y77.652 E3.54395
G1 X119.956 Y78.23 E3.57022
G1 X119.364 Y78.752 E3.59647
G1 X118.721 Y79.211 E3.62274
G1 X118.035 Y79.602 E3.64901
G1 X117.362 Y79.904 E3.67354
G1 X116.612 Y80.198 E3.70033
G1 X115.863 Y80.449 E3.72661
G1 X115.092 Y80.622 E3.75289
G1 X114.309 Y80.717 E3.77912
G1 X113.519 Y80.732 E3.8054
G1 X112.732 Y80.667 E3.83167
G1 X111.956 Y80.523 E3.85792
G1 X111.507 Y80.402 E3.87338
G1 X110.72 Y80.164 E3.90073
G1 X109.977 Y79.898 E3.92698
G1 X109.264 Y79.557 E3.95327
G1 X108.59 Y79.147 E3.9795
G1 X107.96 Y78.67 E4.00579
G1 X107.854 Y78.569 E4.01066
G1 X107.459 Y78.852 E4.02682
G1 X106.773 Y79.244 E4.0531
G1 X106.092 Y79.549 E4.07792
G1 X105.341 Y79.843 E4.10474
G1 X104.592 Y80.094 E4.13101
G1 X103.822 Y80.267 E4.15726
G1 X103.038 Y80.361 E4.18352
G1 X102.248 Y80.376 E4.2098
G1 X101.461 Y80.311 E4.23607
G1 X100.685 Y80.166 E4.26233
G1 X100.238 Y80.045 E4.27773
G1 X99.456 Y79.808 E4.30491
G1 X99.066 Y80.151 E4.32218
G1 X98.424 Y80.61 E4.34843
G1 X97.738 Y81.002 E4.37471
G1 X97.064 Y81.305 E4.39929
G1 X96.315 Y81.599 E4.42605
G1 X95.566 Y81.85 E4.45232
G1 X94.796 Y82.024 E4.47858
G1 X94.012 Y82.119 E4.50485
G1 X93.223 Y82.134 E4.53109
G1 X92.435 Y82.07 E4.55739
G1 X91.659 Y81.926 E4.58364
G1 X91.181 Y81.796 E4.60011
G1 X90.394 Y81.555 E4.62749
G1 X89.652 Y81.286 E4.65374
G1 X88.94 Y80.943 E4.68003
G1 X88.267 Y80.53 E4.70629
G1 X87.639 Y80.051 E4.73256
G1 X86.978 Y79.421 E4.76293
G1 X86.255 Y78.647 E4.79816
G1 X85.746 Y78.044 E4.8244
G1 X85.3 Y77.392 E4.85068
G1 X84.905 Y76.66 E4.87834
G1 X84.319 Y75.422 E4.9239
G1 X84.018 Y74.692 E4.95016
G1 X83.796 Y73.954 E4.97579
G1 X83.414 Y72.406 E5.02882
G1 X83.264 Y71.63 E5.05511
G1 X83.218 Y71.227 E5.0686
G1 X83.065 Y69.504 E5.12614
G1 X83.045 Y68.405 E5.16269
G1 X83.136 Y66.67 E5.22048
G1 X83.217 Y65.885 E5.24673
G1 X83.29 Y65.485 E5.26025
G1 X83.617 Y63.919 E5.31346
G1 X83.817 Y63.155 E5.33973
G1 X84.074 Y62.461 E5.36434
G1 X84.6 Y61.224 E5.40905
G1 X84.833 Y60.745 E5.42677
G1 X84.694 Y52.535 E5.69987
G1 X84.064 Y52.058 E5.72615
G1 X83.377 Y51.405 E5.75768
G1 X82.654 Y50.629 E5.79295
G1 X82.146 Y50.025 E5.8192
G1 X81.701 Y49.372 E5.84549
G1 X81.312 Y48.651 E5.87274
G1 X80.727 Y47.416 E5.91819
G1 X80.425 Y46.686 E5.94446
G1 X80.203 Y45.946 E5.97016
G1 X79.82 Y44.394 E6.02333
G1 X79.67 Y43.619 E6.04958
G1 X79.624 Y43.215 E6.06311
G1 X79.471 Y41.492 E6.12064
G1 X79.451 Y40.393 E6.1572
G1 X79.542 Y38.658 E6.21498
G1 X79.623 Y37.873 E6.24123
G1 X79.696 Y37.472 E6.25479
G1 X80.023 Y35.907 E6.30796
G1 X80.223 Y35.143 E6.33423
G1 X80.479 Y34.452 E6.35874
G1 X81.005 Y33.214 E6.40348
G1 X81.239 Y32.733 E6.42127
G1 X81.097 Y24.606 E6.69162
G1 X81.123 Y23.817 E6.71787
G1 X81.229 Y23.034 E6.74415
G1 X81.414 Y22.266 E6.77043
G0 F6000 X81.815 Y22.322
G1 F1200 X82.076 Y21.598 E6.79602
G1 X82.411 Y20.906 E6.8216
G1 X82.816 Y20.252 E6.84718
G1 X83.286 Y19.644 E6.87274
G1 X83.666 Y19.232 E6.89138
G1 X84.227 Y18.705 E6.91698
G1 X84.838 Y18.239 E6.94254
G1 X85.495 Y17.839 E6.96812
G1 X86.19 Y17.509 E6.99371
G1 X86.916 Y17.254 E7.01931
G1 X87.664 Y17.074 E7.04489
G1 X88.426 Y16.974 E7.07046
G1 X88.855 Y16.953 E7.08474
G1 X89.236 Y16.945 E7.09742
G1 X90.004 Y16.968 E7.12297
G1 X90.767 Y17.072 E7.14858
G1 X91.514 Y17.254 E7.17416
G1 X92.238 Y17.513 E7.19973
G1 X92.932 Y17.845 E7.22532
G1 X93.587 Y18.248 E7.2509
G1 X94.197 Y18.716 E7.27647
G1 X94.631 Y19.115 E7.29608
G1 X94.784 Y19.278 E7.30351
G1 X95.043 Y18.86 E7.31987
G1 X95.757 Y17.982 E7.35751
G1 X95.87 Y17.863 E7.36297
G1 X96.428 Y17.334 E7.38854
G1 X97.038 Y16.865 E7.41413
G1 X97.693 Y16.462 E7.43971
G1 X98.386 Y16.13 E7.46527
G1 X99.111 Y15.871 E7.49087
G1 X99.858 Y15.688 E7.51645
G1 X100.62 Y15.585 E7.54203
G1 X101.061 Y15.561 E7.55672
G1 X101.441 Y15.552 E7.56936
G1 X102.21 Y15.574 E7.59495
G1 X102.972 Y15.675 E7.62051
G1 X103.72 Y15.855 E7.6461
G1 X104.445 Y16.112 E7.67169
G1 X105.139 Y16.443 E7.69726
G1 X105.796 Y16.844 E7.72286
G1 X106.692 Y17.565 E7.76111
G1 X106.814 Y17.68 E7.76669
G1 X107.051 Y17.928 E7.7781
G1 X107.235 Y17.732 E7.78704
G1 X107.796 Y17.205 E7.81264
G1 X108.407 Y16.739 E7.8382
G1 X109.064 Y16.339 E7.86378
G1 X109.759 Y16.009 E7.88937
G1 X110.485 Y15.754 E7.91496
G1 X111.233 Y15.574 E7.94055
G1 X111.995 Y15.474 E7.96611
G1 X112.424 Y15.453 E7.9804
G1 X112.805 Y15.445 E7.99307
G1 X113.573 Y15.468 E8.01863
G1 X114.336 Y15.572 E8.04424
G1 X115.083 Y15.754 E8.06981
G1 X115.807 Y16.013 E8.09539
G1 X116.501 Y16.345 E8.12098
G1 X117.156 Y16.748 E8.14656
G1 X117.766 Y17.216 E8.17213
G1 X118.2 Y17.615 E8.19174
G1 X118.727 Y18.176 E8.21734
G1 X119.193 Y18.788 E8.24292
G1 X119.593 Y19.445 E8.2685
G1 X119.922 Y20.14 E8.29408
G1 X120.178 Y20.865 E8.31965
G1 X120.357 Y21.613 E8.34523
G1 X120.457 Y22.376 E8.37083
G1 X120.479 Y22.828 E8.38588
G1 X120.61 Y30.261 E8.63314
G1 X120.951 Y30.745 E8.65283
G1 X121.379 Y31.526 E8.68245
G1 X121.961 Y32.759 E8.7278
G1 X122.253 Y33.471 E8.7534
G1 X122.452 Y34.141 E8.77664
G1 X122.836 Y35.693 E8.82982
G1 X123.024 Y36.815 E8.86766
G1 X123.177 Y38.537 E8.92516
G1 X123.196 Y39.58 E8.95985
G1 X123.105 Y41.315 E9.01764
G1 X122.959 Y42.441 E9.0554
G1 X122.632 Y44.006 E9.10858
G1 X122.435 Y44.749 E9.13415
G1 X122.199 Y45.386 E9.15674
G1 X121.673 Y46.624 E9.20148
G1 X121.336 Y47.315 E9.22705
G1 X120.928 Y47.968 E9.25266
G1 X120.537 Y48.479 E9.27406
G1 X120.391 Y48.654 E9.28164
G1 X120.504 Y48.975 E9.29296
G1 X120.683 Y49.723 E9.31854
G1 X120.783 Y50.486 E9.34413
G1 X120.805 Y50.939 E9.35922
G1 X120.935 Y58.37 E9.60641
G1 X121.276 Y58.855 E9.62613
G1 X121.702 Y59.632 E9.6556
G1 X122.285 Y60.865 E9.70097
G1 X122.577 Y61.576 E9.72653
G1 X122.779 Y62.255 E9.75009
G1 X123.162 Y63.807 E9.80326
G1 X123.349 Y64.92 E9.8408
G1 X123.503 Y66.641 E9.89827
G1 X123.522 Y67.693 E9.93326
G1 X123.43 Y69.429 E9.99108
G1 X123.284 Y70.546 E10.02855
G1 X122.958 Y72.111 E10.08172
G1 X122.763 Y72.855 E10.1073
G1 X122.523 Y73.5 E10.13019
G1 X121.996 Y74.738 E10.17494
G1 X121.658 Y75.429 E10.20053
G1 X121.251 Y76.082 E10.22612
G1 X120.859 Y76.593 E10.24754
G1 X120.187 Y77.395 E10.28234
G1 X119.663 Y77.958 E10.30792
G1 X119.084 Y78.463 E10.33348
G1 X118.455 Y78.906 E10.35906
G1 X117.783 Y79.281 E10.38466
G1 X117.216 Y79.532 E10.40528
G1 X116.466 Y79.826 E10.43208
G1 X115.736 Y80.069 E10.45767
G1 X114.985 Y80.235 E10.48325
G1 X114.221 Y80.322 E10.50882
G1 X113.452 Y80.329 E10.5344
G1 X112.686 Y80.257 E10.55999
G1 X111.623 Y80.019 E10.59622
G1 X110.836 Y79.781 E10.62357
G1 X110.112 Y79.521 E10.64915
G1 X109.42 Y79.186 E10.67473
G1 X108.765 Y78.782 E10.70032
G1 X108.157 Y78.312 E10.72588
G1 X107.884 Y78.05 E10.73847
G1 X107.821 Y78.105 E10.74125
G1 X107.192 Y78.548 E10.76684
G1 X106.521 Y78.923 E10.7924
G1 X105.947 Y79.177 E10.81328
G1 X105.196 Y79.471 E10.8401
G1 X104.466 Y79.714 E10.86569
G1 X103.715 Y79.879 E10.89127
G1 X102.95 Y79.966 E10.91688
G1 X102.181 Y79.973 E10.94245
G1 X101.416 Y79.9 E10.96801
G1 X100.353 Y79.662 E11.00424
G1 X99.567 Y79.424 E11.03156
G1 X99.369 Y79.353 E11.03855
G1 X98.786 Y79.863 E11.06432
G1 X98.157 Y80.306 E11.08991
G1 X97.486 Y80.681 E11.11547
G1 X96.918 Y80.932 E11.13613
G1 X96.169 Y81.226 E11.16289
G1 X95.439 Y81.47 E11.18849
G1 X94.688 Y81.636 E11.21407
G1 X93.924 Y81.724 E11.23965
G1 X93.155 Y81.732 E11.26523
G1 X92.389 Y81.659 E11.29082
G1 X91.298 Y81.414 E11.32801
G1 X90.511 Y81.173 E11.35539
G1 X89.788 Y80.91 E11.38098
G1 X89.097 Y80.573 E11.40655
G1 X88.444 Y80.166 E11.43214
G1 X87.837 Y79.694 E11.45771
G1 X87.27 Y79.148 E11.48389
G1 X86.547 Y78.374 E11.51912
G1 X86.052 Y77.786 E11.54468
G1 X85.621 Y77.149 E11.57027
G1 X85.266 Y76.489 E11.59519
G1 X84.68 Y75.251 E11.64075
G1 X84.388 Y74.54 E11.66631
G1 X84.185 Y73.858 E11.68998
G1 X83.803 Y72.31 E11.74301
G1 X83.616 Y71.192 E11.78071
G1 X83.463 Y69.469 E11.83824
G1 X83.444 Y68.426 E11.87294
G1 X83.535 Y66.691 E11.93073
G1 X83.681 Y65.566 E11.96846
G1 X84.008 Y64 E12.02167
G1 X84.204 Y63.257 E12.04722
G1 X84.442 Y62.617 E12.06993
G1 X84.968 Y61.38 E12.11464
G1 X85.234 Y60.834 E12.13484
G1 X85.091 Y52.61 E12.40842
G1 X85.101 Y52.314 E12.41827
G1 X84.869 Y52.17 E12.42735
G1 X84.261 Y51.7 E12.45291
G1 X83.67 Y51.132 E12.48017
G1 X82.947 Y50.356 E12.51545
G1 X82.452 Y49.767 E12.54104
G1 X82.022 Y49.13 E12.5666
G1 X81.673 Y48.48 E12.59114
G1 X81.088 Y47.245 E12.63659
G1 X80.796 Y46.534 E12.66215
G1 X80.592 Y45.85 E12.68589
G1 X80.209 Y44.298 E12.73906
G1 X80.022 Y43.18 E12.77676
G1 X79.869 Y41.457 E12.8343
G1 X79.85 Y40.414 E12.86899
G1 X79.941 Y38.679 E12.92678
G1 X80.087 Y37.553 E12.96454
G1 X80.414 Y35.988 E13.01772
G1 X80.611 Y35.245 E13.04328
G1 X80.847 Y34.608 E13.06588
G1 X81.373 Y33.37 E13.11062
G1 X81.64 Y32.822 E13.13089
G1 X81.497 Y24.599 E13.40443
G1 X81.524 Y23.83 E13.43002
G1 X81.63 Y23.069 E13.45558
G1 X81.815 Y22.322 E13.48117
G0 F6000 X82.216 Y22.379
G1 F1200 X82.477 Y21.678 E13.50605
G1 X82.811 Y21.009 E13.53092
G1 X83.215 Y20.38 E13.55579
G1 X83.841 Y19.628 E13.58833
G1 X83.955 Y19.509 E13.59381
G1 X84.501 Y18.997 E13.61871
G1 X85.098 Y18.546 E13.64359
G1 X85.74 Y18.162 E13.66847
G1 X86.419 Y17.848 E13.69336
G1 X87.128 Y17.609 E13.71824
G1 X87.858 Y17.446 E13.74312
G1 X88.863 Y17.353 E13.77669
G1 X89.244 Y17.345 E13.78936
G1 X89.992 Y17.369 E13.81425
G1 X90.733 Y17.473 E13.83914
G1 X91.458 Y17.655 E13.864
G1 X92.16 Y17.914 E13.88889
G1 X92.83 Y18.246 E13.91376
G1 X93.461 Y18.648 E13.93865
G1 X94.234 Y19.289 E13.97205
G1 X94.354 Y19.404 E13.97757
G1 X94.866 Y19.95 E14.00247
G1 X95.038 Y19.617 E14.01493
G1 X95.442 Y18.988 E14.0398
G1 X96.047 Y18.258 E14.07133
G1 X96.16 Y18.139 E14.07679
G1 X96.703 Y17.625 E14.10166
G1 X97.298 Y17.171 E14.12655
G1 X97.939 Y16.784 E14.15146
G1 X98.616 Y16.468 E14.17631
G1 X99.324 Y16.225 E14.2012
G1 X100.053 Y16.06 E14.22606
G1 X101.07 Y15.961 E14.26005
G1 X101.45 Y15.952 E14.27269
G1 X102.198 Y15.974 E14.29758
G1 X102.939 Y16.076 E14.32246
G1 X103.665 Y16.257 E14.34734
G1 X104.368 Y16.513 E14.37223
G1 X105.039 Y16.844 E14.39711
G1 X105.671 Y17.244 E14.42199
G1 X106.417 Y17.856 E14.45408
G1 X106.539 Y17.971 E14.45966
G1 X107.056 Y18.513 E14.48457
G1 X107.072 Y18.534 E14.48545
G1 X107.41 Y18.128 E14.50302
G1 X107.524 Y18.009 E14.5085
G1 X108.07 Y17.497 E14.5334
G1 X108.667 Y17.046 E14.55828
G1 X109.309 Y16.662 E14.58316
G1 X109.988 Y16.348 E14.60805
G1 X110.697 Y16.109 E14.63293
G1 X111.427 Y15.946 E14.65781
G1 X112.432 Y15.853 E14.69138
G1 X112.813 Y15.845 E14.70405
G1 X113.561 Y15.869 E14.72894
G1 X114.302 Y15.973 E14.75383
G1 X115.027 Y16.155 E14.77869
G1 X115.729 Y16.414 E14.80358
G1 X116.399 Y16.746 E14.82845
G1 X117.03 Y17.148 E14.85333
G1 X117.803 Y17.789 E14.88673
G1 X117.923 Y17.904 E14.89226
G1 X118.435 Y18.45 E14.91716
G1 X118.886 Y19.047 E14.94204
G1 X119.27 Y19.689 E14.96692
G1 X119.583 Y20.368 E14.99179
G1 X119.822 Y21.077 E15.01668
G1 X119.985 Y21.807 E15.04155
G1 X120.079 Y22.835 E15.07589
G1 X120.212 Y30.389 E15.32717
G1 X120.634 Y30.993 E15.35168
G1 X121.017 Y31.697 E15.37834
G1 X121.599 Y32.93 E15.42369
G1 X121.882 Y33.623 E15.44858
G1 X122.064 Y34.237 E15.46988
G1 X122.448 Y35.789 E15.52306
G1 X122.626 Y36.85 E15.55884
G1 X122.779 Y38.572 E15.61634
G1 X122.796 Y39.559 E15.64917
G1 X122.705 Y41.294 E15.70696
G1 X122.567 Y42.359 E15.74268
G1 X122.24 Y43.924 E15.79585
G1 X122.048 Y44.647 E15.82073
G1 X121.831 Y45.229 E15.84139
G1 X121.305 Y46.467 E15.88613
G1 X120.976 Y47.139 E15.91102
G1 X120.577 Y47.772 E15.93591
G1 X120.23 Y48.222 E15.95481
G1 X119.94 Y48.569 E15.96985
G1 X120.148 Y49.187 E15.99153
G1 X120.311 Y49.917 E16.01641
G1 X120.405 Y50.946 E16.05078
G1 X120.537 Y58.498 E16.302
G1 X120.959 Y59.103 E16.32653
G1 X121.34 Y59.803 E16.35304
G1 X121.923 Y61.036 E16.3984
G1 X122.206 Y61.728 E16.42327
G1 X122.391 Y62.351 E16.44488
G1 X122.774 Y63.903 E16.49805
G1 X122.95 Y64.956 E16.53356
G1 X123.104 Y66.677 E16.59103
