;FLAVOR:Marlin
;TIME:10318
;Filament used: 6.14484m
;Layer height: 0.2
;MINX:69.537
;MINY:14.405
;MINZ:0.2
;MAXX:165.456
;MAXY:199.548
;MAXZ:9
;Generated with Cura_SteamEngine 4.5.0
M140 S60
M105
M190 S60
M104 S190
M105
M109 S190
M82 ;absolute extrusion mode
M201 X500.00 Y500.00 Z100.00 E5000.00 ;Setup machine max acceleration
M203 X500.00 Y500.00 Z10.00 E50.00 ;Setup machine max feedrate
M204 P500.00 R1000.00 T500.00 ;Setup Print/Retract/Travel acceleration
M205 X8.00 Y8.00 Z0.40 E5.00 ;Setup Jerk
M220 S100 ;Reset Feedrate
M221 S100 ;Reset Flowrate

G28 ;Home
M420 S1 Z2 ;Enable ABL using saved Mesh and Fade Height
G29     ;autobedlevel
G92 E0 ;Reset Extruder
G1 Z2.0 F3000 ;Move Z Axis up
G1 X10.1 Y20 Z0.28 F5000.0 ;Move to start position
G1 X10.1 Y200.0 Z0.28 F1500.0 E15 ;Draw the first line
G1 X10.4 Y200.0 Z0.28 F5000.0 ;Move to side a little
G1 X10.4 Y20 Z0.28 F1500.0 E30 ;Draw the second line
G92 E0 ;Reset Extruder
G92 E0
G92 E0
G1 F1500 E-6.5
;LAYER_COUNT:45
;LAYER:0
M107
G0 F6000 X97.965 Y41.209 Z0.2
;TYPE:SKIRT
G1 F1500 E0
G1 F1200 X98.72 Y39.474 E0.06293
G1 X99.045 Y38.825 E0.08707
G1 X99.441 Y38.215 E0.11126
G1 X99.9 Y37.653 E0.1354
G1 X100.419 Y37.145 E0.15955
G1 X100.991 Y36.697 E0.18372
G1 X101.608 Y36.314 E0.20787
G1 X102.368 Y35.959 E0.23577
G1 X102.524 Y35.898 E0.24134
G1 X102.649 Y35.857 E0.24572
G1 X102.595 Y35.731 E0.25028
G1 X102.54 Y35.575 E0.25578
G1 X102.336 Y34.877 E0.27997
G1 X102.21 Y34.162 E0.30411
G1 X102.164 Y33.437 E0.32828
G1 X102.198 Y32.711 E0.35245
G1 X102.311 Y31.994 E0.37659
G1 X102.503 Y31.293 E0.40076
G1 X102.816 Y30.519 E0.42853
G1 X104.32 Y27.393 E0.54391
G1 X105.859 Y24.284 E0.65929
G1 X107.294 Y21.453 E0.76486
G1 X107.658 Y20.824 E0.78903
G1 X108.088 Y20.239 E0.81318
G1 X108.58 Y19.705 E0.83733
G1 X109.128 Y19.228 E0.86149
G1 X109.725 Y18.814 E0.88566
G1 X110.364 Y18.468 E0.90982
G1 X111.154 Y18.156 E0.93807
G1 X111.312 Y18.105 E0.9436
G1 X112.014 Y17.92 E0.96774
G1 X112.733 Y17.814 E0.99192
G1 X113.458 Y17.787 E1.01605
G1 X114.183 Y17.84 E1.04022
G1 X114.561 Y17.91 E1.05301
G1 X115.137 Y17.411 E1.07836
G1 X115.848 Y16.933 E1.10685
G1 X116.595 Y16.499 E1.13559
G1 X117.243 Y16.169 E1.15977
G1 X117.922 Y15.913 E1.18391
G1 X118.626 Y15.732 E1.20808
G1 X119.345 Y15.63 E1.23224
G1 X119.886 Y15.605 E1.25025
G1 X120.612 Y15.631 E1.27441
G1 X121.33 Y15.737 E1.29855
G1 X122.033 Y15.92 E1.32271
G1 X122.711 Y16.18 E1.34687
G1 X123.078 Y16.358 E1.36043
G1 X128.37 Y19.132 E1.55916
G1 X128.994 Y19.505 E1.58334
G1 X129.573 Y19.943 E1.60749
G1 X130.101 Y20.442 E1.63165
G1 X130.57 Y20.997 E1.65582
G1 X130.976 Y21.599 E1.67997
G1 X131.313 Y22.243 E1.70414
G1 X131.577 Y22.919 E1.72828
G1 X131.765 Y23.621 E1.75245
G1 X131.876 Y24.345 E1.77681
G1 X131.958 Y25.196 E1.80525
G1 X131.987 Y25.922 E1.82942
G1 X131.947 Y26.509 E1.84899
G1 X150.62 Y36.123 E2.54754
G1 X151.247 Y36.491 E2.57172
G1 X151.829 Y36.925 E2.59586
G1 X152.36 Y37.42 E2.62001
G1 X152.834 Y37.971 E2.64418
G1 X153.184 Y38.484 E2.66484
G1 X153.331 Y38.47 E2.66975
G1 X154.057 Y38.482 E2.6939
G1 X154.778 Y38.574 E2.71807
G1 X155.484 Y38.744 E2.74223
G1 X156.167 Y38.991 E2.76638
G1 X156.603 Y39.195 E2.78239
G1 X160.622 Y41.261 E2.93269
G1 X161.249 Y41.628 E2.95686
G1 X161.832 Y42.062 E2.98103
G1 X162.363 Y42.557 E3.00518
G1 X162.837 Y43.108 E3.02935
G1 X163.247 Y43.707 E3.05349
G1 X163.589 Y44.348 E3.07766
G1 X163.882 Y45.092 E3.10425
G1 X163.933 Y45.249 E3.10974
G1 X164.119 Y45.951 E3.1339
G1 X164.227 Y46.669 E3.15805
G1 X164.255 Y47.395 E3.18221
G1 X164.203 Y48.12 E3.20639
G1 X164.072 Y48.834 E3.23053
G1 X163.864 Y49.53 E3.25469
G1 X163.54 Y50.277 E3.28177
G1 X162.322 Y52.675 E3.37123
G1 X161.011 Y55.33 E3.46971
G1 X159.879 Y57.684 E3.55659
G1 X159.529 Y58.32 E3.58074
G1 X159.111 Y58.914 E3.60489
G1 X158.63 Y59.459 E3.62907
G1 X158.092 Y59.947 E3.65323
G1 X157.504 Y60.373 E3.67738
G1 X156.95 Y60.688 E3.69858
G1 X157.068 Y61.257 E3.7179
G1 X157.136 Y61.981 E3.74209
G1 X157.124 Y62.707 E3.76624
G1 X157.033 Y63.428 E3.79041
G1 X156.863 Y64.134 E3.81456
G1 X156.592 Y64.873 E3.84074
G1 X155.917 Y66.424 E3.897
G1 X155.258 Y67.962 E3.95266
G1 X154.639 Y69.434 E4.00577
G1 X154.321 Y70.087 E4.02992
G1 X153.933 Y70.701 E4.05408
G1 X153.48 Y71.269 E4.07825
G1 X152.967 Y71.784 E4.10242
G1 X152.401 Y72.239 E4.12658
G1 X151.788 Y72.629 E4.15074
G1 X151.724 Y72.66 E4.15311
G1 X151.91 Y73.378 E4.17778
G1 X152.012 Y74.097 E4.20193
G1 X152.035 Y74.823 E4.22609
G1 X151.978 Y75.547 E4.25024
G1 X151.842 Y76.26 E4.27439
G1 X151.612 Y76.999 E4.30013
G1 X151 Y78.62 E4.35776
G1 X150.397 Y80.241 E4.41528
G1 X149.883 Y81.654 E4.46529
G1 X149.598 Y82.322 E4.48945
G1 X149.241 Y82.955 E4.51362
G1 X148.816 Y83.545 E4.5378
G1 X148.33 Y84.084 E4.56194
G1 X147.787 Y84.566 E4.58609
G1 X147.372 Y84.861 E4.60302
G1 X147.49 Y85.235 E4.61607
G1 X147.632 Y85.948 E4.64025
G1 X147.695 Y86.671 E4.66439
G1 X147.678 Y87.397 E4.68854
G1 X147.581 Y88.117 E4.7127
G1 X147.373 Y88.924 E4.74042
G1 X146.836 Y90.571 E4.79804
G1 X146.316 Y92.205 E4.85507
G1 X145.862 Y93.656 E4.90564
G1 X145.608 Y94.336 E4.92978
G1 X145.28 Y94.984 E4.95394
G1 X144.883 Y95.592 E4.97809
G1 X144.421 Y96.153 E5.00226
G1 X143.901 Y96.66 E5.02642
G1 X143.509 Y96.966 E5.04296
G1 X143.648 Y97.345 E5.05638
G1 X143.823 Y98.05 E5.08054
G1 X143.918 Y98.77 E5.1047
G1 X143.934 Y99.496 E5.12885
G1 X143.871 Y100.22 E5.15302
G1 X143.702 Y101.028 E5.18048
G1 X143.243 Y102.698 E5.23808
G1 X142.823 Y104.269 E5.29217
G1 X142.418 Y105.821 E5.34552
G1 X142.196 Y106.512 E5.36966
G1 X141.899 Y107.175 E5.39382
G1 X141.532 Y107.802 E5.41799
G1 X141.097 Y108.384 E5.44215
G1 X140.602 Y108.915 E5.4663
G1 X140.111 Y109.336 E5.48781
G1 X140.343 Y109.9 E5.50809
G1 X140.545 Y110.598 E5.53226
G1 X140.668 Y111.314 E5.55642
G1 X140.712 Y112.039 E5.58058
G1 X140.676 Y112.764 E5.60473
G1 X140.553 Y113.514 E5.63
G1 X140.184 Y115.167 E5.68634
G1 X139.811 Y116.885 E5.74481
G1 X139.502 Y118.361 E5.79496
G1 X139.314 Y119.063 E5.81914
G1 X139.05 Y119.739 E5.84327
G1 X138.713 Y120.383 E5.86745
G1 X138.308 Y120.986 E5.89161
G1 X137.839 Y121.54 E5.91575
G1 X137.471 Y121.889 E5.93262
G1 X137.639 Y122.237 E5.94547
G1 X137.881 Y122.922 E5.96963
G1 X138.046 Y123.629 E5.99378
G1 X138.133 Y124.35 E6.01794
G1 X138.14 Y125.077 E6.04212
G1 X138.048 Y125.913 E6.07009
G1 X137.773 Y127.489 E6.1233
G1 X137.467 Y129.312 E6.18478
G1 X137.224 Y130.811 E6.23529
G1 X137.068 Y131.52 E6.25944
G1 X136.836 Y132.208 E6.28358
G1 X136.529 Y132.867 E6.30776
G1 X136.152 Y133.487 E6.3319
G1 X135.708 Y134.063 E6.35609
G1 X135.364 Y134.42 E6.37258
G1 X135.554 Y134.771 E6.38585
G1 X135.826 Y135.444 E6.41
G1 X136.024 Y136.143 E6.43416
G1 X136.143 Y136.86 E6.45833
G1 X136.183 Y137.585 E6.48248
G1 X136.13 Y138.418 E6.51024
G1 X135.918 Y140.083 E6.56607
G1 X135.71 Y141.831 E6.62462
G1 X135.538 Y143.344 E6.67527
G1 X135.416 Y144.06 E6.69942
G1 X135.216 Y144.758 E6.72357
G1 X134.941 Y145.43 E6.74772
G1 X134.594 Y146.068 E6.77188
G1 X134.178 Y146.664 E6.79605
G1 X133.7 Y147.21 E6.82019
G1 X133.652 Y147.253 E6.82233
G1 X134.015 Y147.856 E6.84574
G1 X134.32 Y148.515 E6.86989
G1 X134.55 Y149.204 E6.89405
G1 X134.703 Y149.914 E6.91821
G1 X134.778 Y150.637 E6.94239
G1 X134.767 Y151.437 E6.969
G1 X134.514 Y154.852 E7.08289
G1 X134.415 Y156.404 E7.13462
G1 X134.329 Y157.125 E7.15877
G1 X134.164 Y157.833 E7.18294
G1 X133.922 Y158.518 E7.20711
G1 X133.607 Y159.172 E7.23125
G1 X133.222 Y159.788 E7.25541
G1 X132.771 Y160.358 E7.27959
G1 X132.719 Y160.409 E7.28201
G1 X133.103 Y160.977 E7.30481
G1 X133.442 Y161.62 E7.32899
G1 X133.707 Y162.296 E7.35314
G1 X133.897 Y162.997 E7.3773
G1 X134.009 Y163.715 E7.40147
G1 X134.038 Y164.551 E7.42929
G1 X133.99 Y166.282 E7.48688
G1 X133.955 Y167.912 E7.54111
G1 X133.931 Y169.514 E7.5944
G1 X133.88 Y170.239 E7.61857
G1 X133.75 Y170.953 E7.64271
G1 X133.542 Y171.649 E7.66687
G1 X133.259 Y172.318 E7.69103
G1 X132.904 Y172.952 E7.7152
G1 X132.481 Y173.543 E7.73937
G1 X132.434 Y173.595 E7.7417
G1 X132.834 Y174.126 E7.76381
G1 X133.205 Y174.751 E7.78799
G1 X133.505 Y175.412 E7.81213
G1 X133.731 Y176.103 E7.83631
G1 X133.879 Y176.814 E7.86047
G1 X133.952 Y177.649 E7.88835
G1 X134.017 Y180.441 E7.98123
G1 X134.108 Y183.161 E8.07175
G1 X134.227 Y185.924 E8.16373
G1 X134.218 Y186.65 E8.18788
G1 X134.13 Y187.371 E8.21204
G1 X133.963 Y188.078 E8.2362
G1 X133.719 Y188.762 E8.26036
G1 X133.401 Y189.416 E8.28454
G1 X133.014 Y190.03 E8.30868
G1 X132.497 Y190.67 E8.33605
G1 X132.386 Y190.791 E8.34151
G1 X131.866 Y191.298 E8.36567
G1 X131.293 Y191.745 E8.38984
G1 X130.675 Y192.127 E8.414
G1 X130.019 Y192.438 E8.43815
G1 X129.78 Y192.521 E8.44656
G1 X129.613 Y193.032 E8.46444
G1 X129.301 Y193.717 E8.48948
G1 X128.902 Y194.475 E8.51797
G1 X128.529 Y195.098 E8.54212
G1 X128.09 Y195.677 E8.56629
G1 X127.589 Y196.203 E8.59045
G1 X127.034 Y196.672 E8.61462
G1 X126.431 Y197.076 E8.63876
G1 X125.787 Y197.412 E8.66292
G1 X125.282 Y197.616 E8.68103
G1 X125.114 Y197.676 E8.68696
G1 X124.417 Y197.883 E8.71115
G1 X123.702 Y198.011 E8.73531
G1 X123.216 Y198.053 E8.75153
G1 X117.148 Y198.349 E8.95359
G1 X116.421 Y198.345 E8.97777
G1 X115.7 Y198.26 E9.00192
G1 X114.992 Y198.097 E9.02608
G1 X114.306 Y197.857 E9.05026
G1 X113.78 Y197.613 E9.06954
G1 X113.15 Y197.253 E9.09368
G1 X112.562 Y196.826 E9.11785
G1 X112.025 Y196.337 E9.142
G1 X111.545 Y195.791 E9.16618
G1 X111.231 Y195.356 E9.18403
G1 X110.775 Y194.668 E9.21148
G1 X110.407 Y194.042 E9.23563
G1 X110.289 Y193.78 E9.24519
G1 X89.386 Y194.804 E9.94126
G1 X88.66 Y194.8 E9.96541
G1 X87.938 Y194.715 E9.98959
G1 X87.23 Y194.552 E10.01375
G1 X86.545 Y194.313 E10.03788
G1 X85.978 Y194.041 E10.0588
G1 X85.867 Y194.12 E10.06333
G1 X85.233 Y194.474 E10.08748
G1 X84.564 Y194.756 E10.11163
G1 X83.867 Y194.963 E10.13581
G1 X83.153 Y195.093 E10.15995
G1 X82.66 Y195.135 E10.1764
G1 X78.139 Y195.356 E10.32695
G1 X77.413 Y195.352 E10.3511
G1 X76.691 Y195.267 E10.37528
G1 X75.984 Y195.104 E10.39941
G1 X75.298 Y194.864 E10.42358
G1 X74.643 Y194.551 E10.44773
G1 X74.026 Y194.167 E10.4719
G1 X73.373 Y193.644 E10.49973
G1 X73.25 Y193.532 E10.50526
G1 X72.741 Y193.014 E10.52941
G1 X72.292 Y192.443 E10.55357
G1 X71.908 Y191.827 E10.57772
G1 X71.594 Y191.172 E10.60188
G1 X71.354 Y190.486 E10.62605
G1 X71.191 Y189.778 E10.65021
G1 X71.1 Y188.937 E10.67835
G1 X70.951 Y185.475 E10.7936
G1 X70.836 Y182.002 E10.90918
G1 X70.765 Y178.831 E11.01467
G1 X70.788 Y178.105 E11.03883
G1 X70.892 Y177.386 E11.06299
G1 X71.073 Y176.683 E11.08714
G1 X71.331 Y176.004 E11.1113
G1 X71.662 Y175.357 E11.13547
G1 X72.062 Y174.751 E11.15962
G1 X72.578 Y174.137 E11.18629
G1 X72.692 Y174.017 E11.1918
G1 X72.972 Y173.753 E11.2046
G1 X72.705 Y173.51 E11.21661
G1 X72.59 Y173.391 E11.22211
G1 X72.115 Y172.842 E11.24626
G1 X71.703 Y172.244 E11.27041
G1 X71.359 Y171.604 E11.29458
G1 X71.088 Y170.93 E11.31874
G1 X70.892 Y170.231 E11.34288
G1 X70.774 Y169.514 E11.36705
G1 X70.737 Y168.706 E11.39395
G1 X70.769 Y166.593 E11.46424
G1 X70.816 Y164.512 E11.53347
G1 X70.867 Y162.623 E11.59632
G1 X70.927 Y161.899 E11.62049
G1 X71.066 Y161.186 E11.64465
G1 X71.283 Y160.493 E11.6688
G1 X71.574 Y159.827 E11.69297
G1 X71.937 Y159.198 E11.71713
G1 X72.367 Y158.612 E11.7413
G1 X72.898 Y158.04 E11.76726
G1 X73.019 Y157.924 E11.77284
G1 X73.322 Y157.664 E11.78612
G1 X73.057 Y157.398 E11.7986
G1 X72.948 Y157.273 E11.80412
G1 X72.501 Y156.7 E11.82829
G1 X72.12 Y156.081 E11.85247
G1 X71.81 Y155.425 E11.8766
G1 X71.573 Y154.738 E11.90077
G1 X71.413 Y154.029 E11.92494
G1 X71.333 Y153.307 E11.94911
G1 X71.335 Y152.514 E11.97548
G1 X71.464 Y150.507 E12.04237
G1 X71.62 Y148.327 E12.11506
G1 X71.764 Y146.441 E12.17798
G1 X71.86 Y145.721 E12.20213
G1 X72.033 Y145.016 E12.22628
G1 X72.284 Y144.334 E12.25045
G1 X72.607 Y143.684 E12.27459
G1 X73.001 Y143.073 E12.29877
G1 X73.459 Y142.509 E12.32294
G1 X74.03 Y141.952 E12.34947
G1 X74.155 Y141.844 E12.35496
G1 X74.456 Y141.611 E12.36762
G1 X74.238 Y141.371 E12.37841
G1 X74.133 Y141.24 E12.38399
G1 X73.711 Y140.649 E12.40814
G1 X73.356 Y140.015 E12.43231
G1 X73.073 Y139.346 E12.45647
G1 X72.865 Y138.65 E12.48063
G1 X72.735 Y137.936 E12.50477
G1 X72.684 Y137.211 E12.52894
G1 X72.725 Y136.371 E12.55691
G1 X72.957 Y134.319 E12.6256
G1 X73.211 Y132.204 E12.69645
G1 X73.449 Y130.324 E12.75948
G1 X73.58 Y129.609 E12.78365
G1 X73.788 Y128.913 E12.80782
G1 X74.072 Y128.245 E12.83196
G1 X74.427 Y127.611 E12.85613
G1 X74.85 Y127.021 E12.88027
G1 X75.335 Y126.48 E12.90444
G1 X75.923 Y125.96 E12.93054
G1 X76.031 Y125.876 E12.9351
G1 X75.998 Y125.831 E12.93695
G1 X75.602 Y125.222 E12.96111
G1 X75.275 Y124.573 E12.98528
G1 X75.022 Y123.893 E13.00942
G1 X74.845 Y123.188 E13.03359
G1 X74.747 Y122.468 E13.05776
G1 X74.728 Y121.742 E13.08191
G1 X74.81 Y120.88 E13.11071
G1 X75.14 Y118.842 E13.17938
G1 X75.493 Y116.748 E13.25001
G1 X75.819 Y114.878 E13.31314
G1 X75.984 Y114.171 E13.33729
G1 X76.225 Y113.486 E13.36144
G1 X76.539 Y112.831 E13.3856
G1 X76.924 Y112.215 E13.40976
G1 X77.374 Y111.645 E13.43392
G1 X77.884 Y111.128 E13.45807
G1 X78.531 Y110.611 E13.48562
G1 X78.606 Y110.559 E13.48865
G1 X78.541 Y110.459 E13.49262
G1 X78.18 Y109.829 E13.51677
G1 X77.891 Y109.162 E13.54095
G1 X77.677 Y108.468 E13.5651
G1 X77.54 Y107.755 E13.58925
G1 X77.483 Y107.031 E13.61341
G1 X77.505 Y106.305 E13.63756
G1 X77.622 Y105.517 E13.66406
G1 X78.056 Y103.445 E13.73447
G1 X78.499 Y101.413 E13.80364
G1 X78.912 Y99.567 E13.86656
G1 X79.109 Y98.868 E13.89071
G1 X79.381 Y98.195 E13.91486
G1 X79.726 Y97.555 E13.93904
G1 X80.139 Y96.958 E13.96318
G1 X80.616 Y96.41 E13.98735
G1 X81.149 Y95.917 E14.0115
G1 X81.82 Y95.43 E14.03907
G1 X81.962 Y95.34 E14.04466
G1 X82.079 Y95.275 E14.04912
G1 X82.025 Y95.195 E14.05233
G1 X81.94 Y95.052 E14.05786
G1 X81.603 Y94.408 E14.08203
G1 X81.34 Y93.732 E14.10616
G1 X81.152 Y93.03 E14.13033
G1 X81.043 Y92.312 E14.15448
G1 X81.014 Y91.586 E14.17865
G1 X81.064 Y90.861 E14.20282
G1 X81.228 Y90.009 E14.23168
G1 X81.751 Y88.011 E14.30037
G1 X82.299 Y85.966 E14.37079
G1 X82.801 Y84.135 E14.43394
G1 X83.032 Y83.446 E14.45811
G1 X83.336 Y82.786 E14.48227
G1 X83.712 Y82.165 E14.50642
G1 X84.153 Y81.588 E14.53057
G1 X84.655 Y81.063 E14.55473
G1 X85.212 Y80.596 E14.57891
G1 X85.9 Y80.146 E14.60625
G1 X85.986 Y80.097 E14.60954
G1 X85.956 Y80.04 E14.61169
G1 X85.651 Y79.38 E14.63587
G1 X85.421 Y78.691 E14.66003
G1 X85.268 Y77.981 E14.68419
G1 X85.193 Y77.259 E14.70833
G1 X85.199 Y76.532 E14.73251
G1 X85.284 Y75.811 E14.75666
G1 X85.486 Y74.977 E14.7852
G1 X86.102 Y73.006 E14.85388
G1 X86.748 Y70.985 E14.92445
G1 X87.334 Y69.183 E14.98747
G1 X87.597 Y68.505 E15.01166
G1 X87.932 Y67.861 E15.0358
G1 X88.336 Y67.258 E15.05995
G1 X88.804 Y66.702 E15.08412
G1 X89.331 Y66.201 E15.1083
G1 X89.909 Y65.762 E15.13244
G1 X90.707 Y65.299 E15.16313
G1 X90.654 Y65.183 E15.16737
G1 X90.387 Y64.508 E15.19151
G1 X90.196 Y63.807 E15.21568
G1 X90.084 Y63.089 E15.23985
G1 X90.05 Y62.364 E15.26399
G1 X90.097 Y61.639 E15.28815
G1 X90.223 Y60.923 E15.31233
G1 X90.449 Y60.166 E15.33861
G1 X91.156 Y58.225 E15.40732
G1 X91.899 Y56.231 E15.47809
G1 X92.568 Y54.461 E15.54103
G1 X92.862 Y53.797 E15.56518
G1 X93.227 Y53.169 E15.58934
G1 X93.659 Y52.585 E15.6135
G1 X94.152 Y52.052 E15.63765
G1 X94.701 Y51.577 E15.66179
G1 X95.299 Y51.164 E15.68596
G1 X96.098 Y50.748 E15.71593
G1 X96.249 Y50.682 E15.72141
G1 X96.51 Y50.585 E15.73067
G1 X96.376 Y50.312 E15.74078
G1 X96.312 Y50.158 E15.74633
G1 X96.071 Y49.473 E15.77048
G1 X95.906 Y48.765 E15.79466
G1 X95.82 Y48.044 E15.81881
G1 X95.814 Y47.318 E15.84296
G1 X95.888 Y46.595 E15.86713
G1 X96.04 Y45.885 E15.89128
G1 X96.327 Y45.056 E15.92046
G1 X97.131 Y43.153 E15.98917
G1 X97.965 Y41.209 E16.05953
G0 F6000 X97.598 Y41.051
G1 F1200 X98.353 Y39.315 E16.12249
G1 X98.687 Y38.645 E16.14739
G1 X99.091 Y38.016 E16.17226
G1 X99.56 Y37.433 E16.19714
G1 X100.089 Y36.904 E16.22202
G1 X100.671 Y36.433 E16.24693
G1 X101.299 Y36.028 E16.27178
G1 X102.138 Y35.627 E16.30271
G1 X101.952 Y34.99 E16.32478
G1 X101.819 Y34.254 E16.34966
G1 X101.765 Y33.507 E16.37457
G1 X101.792 Y32.76 E16.39943
G1 X101.898 Y32.019 E16.42433
G1 X102.082 Y31.294 E16.4492
G1 X102.456 Y30.346 E16.4831
