;FLAVOR:Marlin
;TIME:45971
;Filament used: 37.162m
;Layer height: 0.2
;MINX:68.779
;MINY:11.894
;MINZ:0.2
;MAXX:160.082
;MAXY:114.657
;MAXZ:64
;Generated with Cura_SteamEngine 4.5.0
M140 S60
M105
M190 S60
M104 S190
M105
M109 S190
M82 ;absolute extrusion mode
M201 X500.00 Y500.00 Z100.00 E5000.00 ;Setup machine max acceleration
M203 X500.00 Y500.00 Z10.00 E50.00 ;Setup machine max feedrate
M204 P500.00 R1000.00 T500.00 ;Setup Print/Retract/Travel acceleration
M205 X8.00 Y8.00 Z0.40 E5.00 ;Setup Jerk
M220 S100 ;Reset Feedrate
M221 S100 ;Reset Flowrate

G28 ;Home
M420 S1 Z2 ;Enable ABL using saved Mesh and Fade Height
G29     ;autobedlevel
G92 E0 ;Reset Extruder
G1 Z2.0 F3000 ;Move Z Axis up
G1 X10.1 Y20 Z0.28 F5000.0 ;Move to start position
G1 X10.1 Y200.0 Z0.28 F1500.0 E15 ;Draw the first line
G1 X10.4 Y200.0 Z0.28 F5000.0 ;Move to side a little
G1 X10.4 Y20 Z0.28 F1500.0 E30 ;Draw the second line
G92 E0 ;Reset Extruder
G92 E0
G92 E0
G1 F1500 E-6.5
;LAYER_COUNT:320
;LAYER:0
M107
G0 F6000 X68.938 Y18.242 Z0.2
;TYPE:SKIRT
G1 F1500 E0
G1 F1200 X69.136 Y17.477 E0.02628
G1 X69.41 Y16.737 E0.05253
G1 X69.758 Y16.028 E0.0788
G1 X70.176 Y15.357 E0.10509
G1 X70.659 Y14.733 E0.13134
G1 X71.064 Y14.296 E0.15115
G1 X71.181 Y14.179 E0.15666
G1 X71.767 Y13.649 E0.18294
G1 X72.403 Y13.182 E0.20918
G1 X73.083 Y12.781 E0.23544
G1 X73.801 Y12.451 E0.26172
G1 X74.548 Y12.196 E0.28797
G1 X75.317 Y12.017 E0.31423
G1 X76.101 Y11.917 E0.34052
G1 X76.696 Y11.894 E0.36032
G1 X150.462 Y11.894 E2.81379
G1 X151.251 Y11.934 E2.84007
G1 X152.031 Y12.053 E2.86631
G1 X152.796 Y12.251 E2.89259
G1 X153.536 Y12.525 E2.91884
G1 X154.245 Y12.873 E2.94511
G1 X154.916 Y13.291 E2.9714
G1 X155.54 Y13.774 E2.99765
G1 X156.113 Y14.317 E3.0239
G1 X156.628 Y14.916 E3.05018
G1 X157.079 Y15.564 E3.07643
G1 X157.463 Y16.255 E3.10273
G1 X157.775 Y16.98 E3.12898
G1 X158.012 Y17.733 E3.15524
G1 X158.171 Y18.507 E3.18152
G1 X158.262 Y19.671 E3.22035
G1 X158.379 Y59.554 E4.54687
G1 X158.341 Y60.343 E4.57314
G1 X158.224 Y61.124 E4.59941
G1 X158.06 Y61.764 E4.62138
G1 X158.331 Y62.079 E4.6352
G1 X158.782 Y62.727 E4.66146
G1 X159.166 Y63.418 E4.68775
G1 X159.478 Y64.143 E4.71401
G1 X159.715 Y64.896 E4.74026
G1 X159.874 Y65.67 E4.76654
G1 X159.965 Y66.834 E4.80538
G1 X160.082 Y106.717 E6.1319
G1 X160.044 Y107.506 E6.15817
G1 X159.927 Y108.287 E6.18443
G1 X159.731 Y109.052 E6.2107
G1 X159.46 Y109.793 E6.23694
G1 X159.114 Y110.503 E6.26321
G1 X158.699 Y111.175 E6.28948
G1 X158.217 Y111.801 E6.31576
G1 X157.797 Y112.255 E6.33633
G1 X157.68 Y112.372 E6.34183
G1 X157.094 Y112.902 E6.36811
G1 X156.458 Y113.369 E6.39436
G1 X155.778 Y113.77 E6.42061
G1 X155.06 Y114.1 E6.4469
G1 X154.313 Y114.355 E6.47315
G1 X153.544 Y114.534 E6.49941
G1 X152.76 Y114.634 E6.5257
G1 X152.165 Y114.657 E6.5455
G1 X78.399 Y114.657 E8.99897
G1 X77.61 Y114.617 E9.02524
G1 X76.83 Y114.498 E9.05149
G1 X76.065 Y114.3 E9.07777
G1 X75.325 Y114.026 E9.10401
G1 X74.616 Y113.678 E9.13028
G1 X73.945 Y113.26 E9.15658
G1 X73.321 Y112.777 E9.18282
G1 X72.884 Y112.372 E9.20264
G1 X72.767 Y112.255 E9.20814
G1 X72.237 Y111.669 E9.23442
G1 X71.77 Y111.033 E9.26067
G1 X71.369 Y110.353 E9.28692
G1 X71.039 Y109.635 E9.31321
G1 X70.784 Y108.888 E9.33946
G1 X70.605 Y108.119 E9.36572
G1 X70.505 Y107.335 E9.39201
G1 X70.482 Y106.74 E9.41181
G1 X70.482 Y66.974 E10.73443
G1 X70.522 Y66.185 E10.76071
G1 X70.641 Y65.405 E10.78695
G1 X70.798 Y64.798 E10.80781
G1 X70.534 Y64.506 E10.8209
G1 X70.067 Y63.87 E10.84714
G1 X69.666 Y63.19 E10.8734
G1 X69.336 Y62.472 E10.89968
G1 X69.081 Y61.725 E10.92593
G1 X68.902 Y60.956 E10.95219
G1 X68.802 Y60.172 E10.97848
G1 X68.779 Y59.577 E10.99829
G1 X68.779 Y19.811 E12.32091
G1 X68.819 Y19.022 E12.34718
G1 X68.938 Y18.242 E12.37343
G0 F6000 X69.338 Y18.283
G1 F1200 X69.536 Y17.54 E12.399
G1 X69.81 Y16.821 E12.42459
G1 X70.157 Y16.135 E12.45016
G1 X70.573 Y15.488 E12.47575
G1 X71.054 Y14.888 E12.50132
G1 X71.463 Y14.461 E12.52099
G1 X72.035 Y13.947 E12.54657
G1 X72.657 Y13.494 E12.57216
G1 X73.322 Y13.108 E12.59773
G1 X74.024 Y12.793 E12.62333
G1 X74.755 Y12.553 E12.64892
G1 X75.506 Y12.39 E12.67448
G1 X76.271 Y12.306 E12.70007
G1 X76.696 Y12.294 E12.71421
G1 X150.462 Y12.294 E15.16768
G1 X151.23 Y12.334 E15.19326
G1 X151.99 Y12.453 E15.21885
G1 X152.733 Y12.651 E15.24442
G1 X153.452 Y12.925 E15.27001
G1 X154.138 Y13.272 E15.29558
G1 X154.785 Y13.688 E15.32116
G1 X155.385 Y14.169 E15.34674
G1 X155.932 Y14.71 E15.37233
G1 X156.42 Y15.305 E15.39792
G1 X156.843 Y15.947 E15.4235
G1 X157.198 Y16.63 E15.4491
G1 X157.479 Y17.345 E15.47465
G1 X157.685 Y18.087 E15.50026
G1 X157.813 Y18.845 E15.52583
G1 X157.862 Y19.672 E15.55338
G1 X157.979 Y59.555 E16.8799
G1 X157.941 Y60.324 E16.90551
G1 X157.824 Y61.084 E16.93109
G1 X157.628 Y61.828 E16.95668
G1 X158.123 Y62.468 E16.98359
G1 X158.546 Y63.11 E17.00916
G1 X158.901 Y63.793 E17.03476
G1 X159.182 Y64.508 E17.06031
G1 X159.388 Y65.25 E17.08593
G1 X159.516 Y66.008 E17.11149
G1 X159.565 Y66.835 E17.13905
G1 X159.682 Y106.718 E18.46557
G1 X159.644 Y107.487 E18.49118
G1 X159.527 Y108.247 E18.51675
G1 X159.331 Y108.991 E18.54234
G1 X159.06 Y109.71 E18.5679
G1 X158.715 Y110.398 E18.5935
G1 X158.3 Y111.046 E18.61909
G1 X157.821 Y111.647 E18.64465
G1 X157.515 Y111.973 E18.65952
G1 X157.398 Y112.09 E18.66503
G1 X156.826 Y112.604 E18.6906
G1 X156.204 Y113.057 E18.7162
G1 X155.539 Y113.443 E18.74177
G1 X154.837 Y113.758 E18.76736
G1 X154.106 Y113.998 E18.79295
G1 X153.355 Y114.161 E18.81851
G1 X152.59 Y114.245 E18.84411
G1 X152.165 Y114.257 E18.85825
G1 X78.399 Y114.257 E21.31172
G1 X77.631 Y114.217 E21.3373
G1 X76.871 Y114.098 E21.36288
G1 X76.128 Y113.9 E21.38846
G1 X75.409 Y113.626 E21.41405
G1 X74.723 Y113.279 E21.43962
G1 X74.076 Y112.863 E21.4652
G1 X73.476 Y112.382 E21.49078
G1 X73.049 Y111.973 E21.51044
G1 X72.535 Y111.401 E21.53602
G1 X72.082 Y110.779 E21.56161
G1 X71.696 Y110.114 E21.58719
G1 X71.381 Y109.412 E21.61278
G1 X71.141 Y108.681 E21.63837
G1 X70.978 Y107.93 E21.66393
G1 X70.894 Y107.165 E21.68953
G1 X70.882 Y106.74 E21.70367
G1 X70.882 Y66.974 E23.02629
G1 X70.922 Y66.206 E23.05187
G1 X71.041 Y65.446 E23.07745
G1 X71.239 Y64.703 E23.10303
G1 X70.832 Y64.238 E23.12358
G1 X70.379 Y63.616 E23.14918
G1 X69.993 Y62.951 E23.17475
G1 X69.678 Y62.249 E23.20034
G1 X69.438 Y61.518 E23.22593
G1 X69.275 Y60.767 E23.25149
G1 X69.191 Y60.002 E23.27709
G1 X69.179 Y59.577 E23.29123
G1 X69.179 Y19.811 E24.61385
G1 X69.219 Y19.043 E24.63943
G1 X69.338 Y18.283 E24.66502
G0 F6000 X69.738 Y18.326
G1 F1200 X69.936 Y17.604 E24.68992
G1 X70.209 Y16.908 E24.71478
G1 X70.556 Y16.245 E24.73967
G1 X70.971 Y15.622 E24.76457
G1 X71.629 Y14.861 E24.79803
G1 X71.746 Y14.744 E24.80353
G1 X72.303 Y14.244 E24.82843
G1 X72.909 Y13.807 E24.85328
G1 X73.559 Y13.436 E24.87817
G1 X74.245 Y13.137 E24.90306
G1 X74.959 Y12.913 E24.92795
G1 X75.692 Y12.766 E24.95281
G1 X76.696 Y12.694 E24.98629
G1 X150.462 Y12.694 E27.43976
G1 X151.209 Y12.734 E27.46464
G1 X151.947 Y12.853 E27.4895
G1 X152.669 Y13.051 E27.5144
G1 X153.365 Y13.324 E27.53927
G1 X154.028 Y13.671 E27.56416
G1 X154.651 Y14.086 E27.58906
G1 X155.225 Y14.565 E27.61392
G1 X155.746 Y15.102 E27.63881
G1 X156.205 Y15.692 E27.66367
G1 X156.6 Y16.328 E27.68857
G1 X156.924 Y17.002 E27.71344
G1 X157.174 Y17.707 E27.73832
G1 X157.348 Y18.435 E27.76322
G1 X157.443 Y19.177 E27.7881
G1 X157.462 Y19.673 E27.80461
G1 X157.579 Y59.556 E29.13113
G1 X157.541 Y60.304 E29.15604
G1 X157.424 Y61.042 E29.18089
G1 X157.228 Y61.764 E29.20577
G1 X157.152 Y61.959 E29.21273
G1 X157.449 Y62.265 E29.22692
G1 X157.908 Y62.855 E29.25178
G1 X158.303 Y63.491 E29.27668
G1 X158.627 Y64.165 E29.30155
G1 X158.877 Y64.87 E29.32643
G1 X159.051 Y65.598 E29.35133
G1 X159.146 Y66.34 E29.37621
G1 X159.165 Y66.836 E29.39272
G1 X159.282 Y106.719 E30.71924
G1 X159.244 Y107.467 E30.74415
G1 X159.127 Y108.205 E30.769
G1 X158.931 Y108.927 E30.79388
G1 X158.66 Y109.625 E30.81879
G1 X158.316 Y110.289 E30.84366
G1 X157.903 Y110.912 E30.86852
G1 X157.232 Y111.69 E30.90269
G1 X157.115 Y111.807 E30.9082
G1 X156.558 Y112.307 E30.93309
G1 X155.952 Y112.744 E30.95794
G1 X155.302 Y113.115 E30.98283
G1 X154.616 Y113.414 E31.00772
G1 X153.902 Y113.638 E31.03261
G1 X153.169 Y113.785 E31.05748
G1 X152.165 Y113.857 E31.09096
G1 X78.399 Y113.857 E33.54442
G1 X77.652 Y113.817 E33.5693
G1 X76.914 Y113.698 E33.59417
G1 X76.192 Y113.5 E33.61907
G1 X75.496 Y113.227 E33.64393
G1 X74.833 Y112.88 E33.66882
G1 X74.21 Y112.465 E33.69372
G1 X73.449 Y111.807 E33.72718
G1 X73.332 Y111.69 E33.73268
G1 X72.832 Y111.133 E33.75758
G1 X72.395 Y110.527 E33.78243
G1 X72.024 Y109.877 E33.80732
G1 X71.725 Y109.191 E33.83221
G1 X71.501 Y108.477 E33.8571
G1 X71.354 Y107.744 E33.88197
G1 X71.282 Y106.74 E33.91544
G1 X71.282 Y66.974 E35.23807
G1 X71.322 Y66.227 E35.26295
G1 X71.441 Y65.489 E35.28781
G1 X71.639 Y64.767 E35.31271
G1 X71.704 Y64.602 E35.31861
G1 X71.629 Y64.527 E35.32214
G1 X71.129 Y63.97 E35.34703
G1 X70.692 Y63.364 E35.37188
G1 X70.321 Y62.714 E35.39678
G1 X70.022 Y62.028 E35.42166
G1 X69.798 Y61.314 E35.44655
G1 X69.651 Y60.581 E35.47142
G1 X69.579 Y59.577 E35.5049
G1 X69.579 Y19.811 E36.82752
G1 X69.619 Y19.064 E36.8524
G1 X69.738 Y18.326 E36.87726
G0 F6000 X70.138 Y18.369
G1 F1200 X70.336 Y17.67 E36.90143
G1 X70.609 Y16.997 E36.92558
G1 X70.954 Y16.358 E36.94974
G1 X71.368 Y15.761 E36.9739
G1 X71.912 Y15.144 E37.00126
G1 X72.029 Y15.027 E37.00676
G1 X72.57 Y14.543 E37.03091
G1 X73.161 Y14.12 E37.05508
G1 X73.795 Y13.766 E37.07923
G1 X74.464 Y13.483 E37.10339
G1 X75.16 Y13.275 E37.12755
G1 X75.875 Y13.145 E37.15172
G1 X76.696 Y13.094 E37.17908
G1 X150.462 Y13.094 E39.63255
G1 X151.187 Y13.134 E39.6567
G1 X151.904 Y13.253 E39.68087
G1 X152.603 Y13.451 E39.70504
G1 X153.276 Y13.724 E39.72919
G1 X153.915 Y14.069 E39.75334
G1 X154.512 Y14.483 E39.77751
G1 X155.06 Y14.959 E39.80165
G1 X155.553 Y15.493 E39.82582
G1 X155.983 Y16.078 E39.84997
G1 X156.347 Y16.707 E39.87414
G1 X156.64 Y17.372 E39.89831
G1 X156.858 Y18.065 E39.92247
G1 X156.998 Y18.777 E39.94661
G1 X157.062 Y19.675 E39.97655
G1 X157.179 Y59.558 E41.30307
G1 X157.141 Y60.283 E41.32722
G1 X157.024 Y61 E41.35138
G1 X156.828 Y61.699 E41.37553
G1 X156.685 Y62.054 E41.38826
G1 X156.763 Y62.122 E41.3917
G1 X157.256 Y62.656 E41.41587
G1 X157.686 Y63.241 E41.44002
G1 X158.05 Y63.87 E41.46419
G1 X158.343 Y64.535 E41.48836
G1 X158.561 Y65.228 E41.51252
G1 X158.701 Y65.94 E41.53666
G1 X158.765 Y66.838 E41.5666
G1 X158.882 Y106.721 E42.89312
G1 X158.844 Y107.446 E42.91727
G1 X158.727 Y108.163 E42.94143
G1 X158.531 Y108.862 E42.96558
G1 X158.26 Y109.536 E42.98974
G1 X157.917 Y110.176 E43.01389
G1 X157.505 Y110.775 E43.03807
G1 X156.949 Y111.407 E43.06607
G1 X156.832 Y111.524 E43.07157
G1 X156.291 Y112.008 E43.09571
G1 X155.7 Y112.431 E43.11989
G1 X155.066 Y112.785 E43.14404
G1 X154.397 Y113.068 E43.1682
G1 X153.701 Y113.276 E43.19236
G1 X152.986 Y113.406 E43.21653
G1 X152.165 Y113.457 E43.24389
G1 X78.399 Y113.457 E45.69735
G1 X77.674 Y113.417 E45.7215
G1 X76.957 Y113.298 E45.74568
G1 X76.258 Y113.1 E45.76984
G1 X75.585 Y112.827 E45.794
G1 X74.946 Y112.482 E45.81815
G1 X74.349 Y112.068 E45.84231
G1 X73.732 Y111.524 E45.86967
G1 X73.615 Y111.407 E45.87518
G1 X73.131 Y110.866 E45.89932
G1 X72.708 Y110.275 E45.92349
G1 X72.354 Y109.641 E45.94764
G1 X72.071 Y108.972 E45.9718
G1 X71.863 Y108.276 E45.99596
G1 X71.733 Y107.561 E46.02014
G1 X71.682 Y106.74 E46.04749
G1 X71.682 Y66.974 E47.37012
G1 X71.722 Y66.249 E47.39427
G1 X71.841 Y65.532 E47.41844
G1 X72.039 Y64.833 E47.44261
G1 X72.177 Y64.492 E47.45484
G1 X72.029 Y64.361 E47.46141
G1 X71.912 Y64.244 E47.46692
G1 X71.428 Y63.703 E47.49106
G1 X71.005 Y63.112 E47.51523
G1 X70.651 Y62.478 E47.53939
G1 X70.368 Y61.809 E47.56355
G1 X70.16 Y61.113 E47.58771
G1 X70.03 Y60.398 E47.61188
G1 X69.979 Y59.577 E47.63924
G1 X69.979 Y19.811 E48.96186
G1 X70.019 Y19.086 E48.98601
G1 X70.138 Y18.369 E49.01018
G0 F6000 X70.538 Y18.414
G1 F1200 X70.736 Y17.739 E49.03358
G1 X71.008 Y17.09 E49.05698
G1 X71.353 Y16.476 E49.08041
G1 X71.764 Y15.905 E49.10381
G1 X72.195 Y15.427 E49.12522
G1 X72.312 Y15.31 E49.13072
G1 X72.837 Y14.841 E49.15413
G1 X73.412 Y14.435 E49.17754
G1 X74.03 Y14.097 E49.20097
G1 X74.681 Y13.83 E49.22438
G1 X75.359 Y13.64 E49.24779
G1 X76.054 Y13.527 E49.27121
G1 X76.696 Y13.494 E49.2926
G1 X150.462 Y13.494 E51.74606
G1 X151.165 Y13.534 E51.76948
G1 X151.859 Y13.653 E51.7929
G1 X152.534 Y13.851 E51.8163
G1 X153.183 Y14.123 E51.8397
G1 X153.797 Y14.468 E51.86313
G1 X154.368 Y14.879 E51.88653
G1 X154.889 Y15.353 E51.90995
G1 X155.353 Y15.883 E51.93338
G1 X155.753 Y16.462 E51.95679
G1 X156.085 Y17.083 E51.98021
G1 X156.345 Y17.737 E52.00362
G1 X156.529 Y18.417 E52.02705
G1 X156.635 Y19.113 E52.05046
G1 X156.662 Y19.676 E52.06921
G1 X156.779 Y59.559 E53.39573
G1 X156.741 Y60.262 E53.41915
G1 X156.624 Y60.956 E53.44256
G1 X156.428 Y61.632 E53.46597
G1 X156.206 Y62.165 E53.48517
G1 X156.592 Y62.516 E53.50252
G1 X157.056 Y63.046 E53.52595
G1 X157.456 Y63.625 E53.54936
G1 X157.788 Y64.246 E53.57278
G1 X158.048 Y64.9 E53.59619
G1 X158.232 Y65.58 E53.61962
G1 X158.338 Y66.276 E53.64303
G1 X158.365 Y66.839 E53.66178
G1 X158.482 Y106.722 E54.9883
G1 X158.444 Y107.425 E55.01171
G1 X158.327 Y108.119 E55.03512
G1 X158.131 Y108.795 E55.05853
G1 X157.861 Y109.445 E55.08194
G1 X157.518 Y110.06 E55.10536
G1 X157.108 Y110.632 E55.12877
G1 X156.666 Y111.124 E55.15077
G1 X156.549 Y111.241 E55.15627
G1 X156.024 Y111.71 E55.17969
G1 X155.449 Y112.116 E55.2031
G1 X154.831 Y112.454 E55.22653
G1 X154.18 Y112.721 E55.24993
G1 X153.502 Y112.911 E55.27335
G1 X152.807 Y113.024 E55.29677
G1 X152.165 Y113.057 E55.31815
G1 X78.399 Y113.057 E57.77162
G1 X77.696 Y113.017 E57.79504
G1 X77.002 Y112.898 E57.81846
G1 X76.327 Y112.7 E57.84185
G1 X75.678 Y112.428 E57.86526
G1 X75.064 Y112.083 E57.88868
G1 X74.493 Y111.672 E57.91208
G1 X74.015 Y111.241 E57.93349
G1 X73.898 Y111.124 E57.93899
G1 X73.429 Y110.599 E57.96241
G1 X73.023 Y110.024 E57.98582
G1 X72.685 Y109.406 E58.00925
G1 X72.418 Y108.755 E58.03265
G1 X72.228 Y108.077 E58.05607
G1 X72.115 Y107.382 E58.07949
G1 X72.082 Y106.74 E58.10087
G1 X72.082 Y66.974 E59.42349
G1 X72.122 Y66.271 E59.44691
G1 X72.241 Y65.577 E59.47033
G1 X72.439 Y64.902 E59.49373
G1 X72.655 Y64.387 E59.5123
G1 X72.312 Y64.078 E59.52766
G1 X72.195 Y63.961 E59.53316
G1 X71.726 Y63.436 E59.55657
G1 X71.32 Y62.861 E59.57998
G1 X70.982 Y62.243 E59.60341
G1 X70.715 Y61.592 E59.62682
G1 X70.525 Y60.914 E59.65023
G1 X70.412 Y60.219 E59.67365
G1 X70.379 Y59.577 E59.69503
G1 X70.379 Y19.811 E61.01766
G1 X70.419 Y19.108 E61.04108
G1 X70.538 Y18.414 E61.0645
G0 F6000 X70.938 Y18.461
G1 F1200 X71.135 Y17.809 E61.08715
G1 X71.407 Y17.185 E61.10979
G1 X71.751 Y16.597 E61.13245
G1 X72.161 Y16.053 E61.15511
G1 X72.478 Y15.71 E61.17064
G1 X72.595 Y15.593 E61.17614
G1 X73.104 Y15.14 E61.19881
G1 X73.662 Y14.751 E61.22143
G1 X74.262 Y14.429 E61.24408
G1 X74.896 Y14.18 E61.26673
G1 X75.555 Y14.007 E61.28939
G1 X76.229 Y13.913 E61.31203
G1 X76.696 Y13.894 E61.32757
G1 X150.462 Y13.894 E63.78104
G1 X151.142 Y13.934 E63.8037
G1 X151.812 Y14.053 E63.82633
G1 X152.464 Y14.25 E63.84898
G1 X153.088 Y14.522 E63.87162
G1 X153.676 Y14.866 E63.89428
G1 X154.22 Y15.276 E63.91694
G1 X154.711 Y15.747 E63.93957
G1 X155.145 Y16.272 E63.96222
G1 X155.514 Y16.844 E63.98486
G1 X155.813 Y17.456 E64.00752
G1 X156.038 Y18.098 E64.03015
G1 X156.187 Y18.763 E64.05281
G1 X156.262 Y19.677 E64.08331
G1 X156.379 Y59.56 E65.40983
G1 X156.341 Y60.24 E65.43249
G1 X156.224 Y60.91 E65.45511
G1 X156.028 Y61.563 E65.47778
G1 X155.758 Y62.188 E65.50043
G1 X155.707 Y62.276 E65.50381
G1 X155.923 Y62.439 E65.51281
G1 X156.414 Y62.91 E65.53544
G1 X156.848 Y63.435 E65.5581
G1 X157.217 Y64.007 E65.58074
G1 X157.516 Y64.619 E65.60339
G1 X157.741 Y65.261 E65.62602
G1 X157.89 Y65.926 E65.64868
G1 X157.965 Y66.84 E65.67919
G1 X158.082 Y106.723 E67.00571
G1 X158.044 Y107.403 E67.02836
G1 X157.927 Y108.073 E67.05098
G1 X157.731 Y108.726 E67.07365
G1 X157.461 Y109.351 E67.0963
G1 X157.12 Y109.94 E67.11894
G1 X156.711 Y110.485 E67.1416
G1 X156.383 Y110.841 E67.1577
