;FLAVOR:Marlin
;TIME:28679
;Filament used: 21.8267m
;Layer height: 0.2
;MINX:62.797
;MINY:14.613
;MINZ:0.2
;MAXX:155.197
;MAXY:135.011
;MAXZ:53.2
;Generated with Cura_SteamEngine 4.5.0
M140 S60
M105
M190 S60
M104 S190
M105
M109 S190
M82 ;absolute extrusion mode
M201 X500.00 Y500.00 Z100.00 E5000.00 ;Setup machine max acceleration
M203 X500.00 Y500.00 Z10.00 E50.00 ;Setup machine max feedrate
M204 P500.00 R1000.00 T500.00 ;Setup Print/Retract/Travel acceleration
M205 X8.00 Y8.00 Z0.40 E5.00 ;Setup Jerk
M220 S100 ;Reset Feedrate
M221 S100 ;Reset Flowrate

G28 ;Home
M420 S1 Z2 ;Enable ABL using saved Mesh and Fade Height
G29     ;autobedlevel
G92 E0 ;Reset Extruder
G1 Z2.0 F3000 ;Move Z Axis up
G1 X10.1 Y20 Z0.28 F5000.0 ;Move to start position
G1 X10.1 Y200.0 Z0.28 F1500.0 E15 ;Draw the first line
G1 X10.4 Y200.0 Z0.28 F5000.0 ;Move to side a little
G1 X10.4 Y20 Z0.28 F1500.0 E30 ;Draw the second line
G92 E0 ;Reset Extruder
G92 E0
G92 E0
G1 F1500 E-6.5
;LAYER_COUNT:266
;LAYER:0
M107
G0 F6000 X63.571 Y23.705 Z0.2
;TYPE:SKIRT
G1 F1500 E0
G1 F1200 X63.934 Y22.78 E0.03305
G1 X64.243 Y22.12 E0.05729
G1 X64.729 Y21.236 E0.09084
G1 X65.124 Y20.616 E0.11529
G1 X65.67 Y19.862 E0.14625
G1 X66.125 Y19.307 E0.17012
G1 X66.825 Y18.559 E0.2042
G1 X67.36 Y18.058 E0.22858
G1 X68.093 Y17.451 E0.26023
G1 X68.682 Y17.021 E0.28448
G1 X69.508 Y16.494 E0.31707
G1 X70.145 Y16.142 E0.34128
G1 X71.029 Y15.724 E0.3738
G1 X71.706 Y15.454 E0.39804
G1 X72.656 Y15.144 E0.43128
G1 X73.365 Y14.962 E0.45563
G1 X74.301 Y14.782 E0.48733
G1 X75.018 Y14.689 E0.51138
G1 X76.012 Y14.624 E0.54451
G1 X79.325 Y14.62 E0.6547
G1 X136.257 Y14.613 E2.54826
G1 X141.79 Y14.614 E2.73229
G1 X142.151 Y14.623 E2.7443
G1 X142.935 Y14.683 E2.77046
G1 X143.647 Y14.773 E2.79433
G1 X144.591 Y14.951 E2.82628
G1 X145.299 Y15.131 E2.85057
G1 X146.233 Y15.433 E2.88322
G1 X146.914 Y15.701 E2.90756
G1 X147.807 Y16.119 E2.94036
G1 X148.44 Y16.466 E2.96437
G1 X149.277 Y16.996 E2.99732
G1 X149.87 Y17.427 E3.0217
G1 X150.603 Y18.032 E3.05331
G1 X151.135 Y18.528 E3.0775
G1 X151.816 Y19.249 E3.11049
G1 X152.282 Y19.81 E3.13475
G1 X152.855 Y20.595 E3.16707
G1 X153.246 Y21.207 E3.19123
G1 X153.725 Y22.072 E3.22411
G1 X154.037 Y22.732 E3.24839
G1 X154.408 Y23.67 E3.28194
G1 X154.632 Y24.364 E3.3062
G1 X154.869 Y25.289 E3.33796
G1 X155.005 Y25.997 E3.36194
G1 X155.127 Y26.933 E3.39333
G1 X155.178 Y27.675 E3.41807
G1 X155.196 Y28.21 E3.43587
G1 X155.197 Y72.198 E4.89892
G1 X155.168 Y72.773 E4.91807
G1 X155.197 Y73.417 E4.93951
G1 X155.197 Y76.206 E5.03227
G1 X155.168 Y76.776 E5.05125
G1 X155.197 Y77.417 E5.0726
G1 X155.197 Y121.385 E6.53498
G1 X155.181 Y121.891 E6.55182
G1 X155.132 Y122.645 E6.57695
G1 X155.011 Y123.593 E6.60873
G1 X154.877 Y124.299 E6.63263
G1 X154.643 Y125.221 E6.66427
G1 X154.421 Y125.915 E6.68851
G1 X154.052 Y126.855 E6.72209
G1 X153.743 Y127.513 E6.74627
G1 X153.276 Y128.365 E6.77859
G1 X152.886 Y128.982 E6.80286
G1 X152.303 Y129.786 E6.8359
G1 X151.838 Y130.348 E6.86016
G1 X151.164 Y131.065 E6.89289
G1 X150.633 Y131.563 E6.9171
G1 X149.9 Y132.171 E6.94878
G1 X149.309 Y132.603 E6.97312
G1 X148.471 Y133.137 E7.00617
G1 X147.836 Y133.487 E7.03029
G1 X146.938 Y133.91 E7.0633
G1 X146.265 Y134.176 E7.08737
G1 X145.354 Y134.473 E7.11924
G1 X144.64 Y134.658 E7.14377
G1 X143.682 Y134.843 E7.17623
G1 X142.969 Y134.935 E7.20014
G1 X142.22 Y134.995 E7.22513
G1 X141.595 Y135.011 E7.24592
G1 X79.537 Y135.005 E9.30998
G1 X79.254 Y135.006 E9.31939
G1 X76.022 Y135 E9.42689
G1 X75.067 Y134.939 E9.45872
G1 X74.349 Y134.849 E9.48279
G1 X73.365 Y134.661 E9.51611
G1 X72.654 Y134.477 E9.54053
G1 X71.771 Y134.192 E9.57139
G1 X71.1 Y133.93 E9.59535
G1 X70.176 Y133.497 E9.62929
G1 X69.531 Y133.142 E9.65378
G1 X68.715 Y132.625 E9.68591
G1 X68.13 Y132.201 E9.70994
G1 X67.391 Y131.593 E9.74177
G1 X66.852 Y131.091 E9.76627
G1 X66.141 Y130.335 E9.80078
G1 X65.685 Y129.78 E9.82467
G1 X65.143 Y129.034 E9.85534
G1 X64.746 Y128.414 E9.87983
G1 X64.261 Y127.537 E9.91316
G1 X63.95 Y126.878 E9.9374
G1 X63.581 Y125.945 E9.97077
G1 X63.358 Y125.254 E9.99492
G1 X63.121 Y124.331 E10.02662
G1 X62.985 Y123.624 E10.05056
G1 X62.861 Y122.655 E10.08305
G1 X62.813 Y121.914 E10.10775
G1 X62.797 Y121.41 E10.12452
G1 X62.797 Y77.423 E11.58754
G1 X62.826 Y76.849 E11.60665
G1 X62.797 Y76.206 E11.62806
G1 X62.797 Y73.424 E11.72059
G1 X62.826 Y72.849 E11.73974
G1 X62.797 Y72.206 E11.76115
G1 X62.797 Y28.235 E13.22363
G1 X62.811 Y27.76 E13.23943
G1 X62.856 Y27.022 E13.26402
G1 X62.976 Y26.057 E13.29637
G1 X63.112 Y25.333 E13.32087
G1 X63.351 Y24.391 E13.35319
G1 X63.571 Y23.705 E13.37715
G0 F6000 X63.951 Y23.827
G1 F1200 X64.296 Y22.949 E13.40853
G1 X64.605 Y22.289 E13.43277
G1 X65.066 Y21.451 E13.46458
G1 X65.461 Y20.831 E13.48903
G1 X65.979 Y20.115 E13.51842
G1 X66.434 Y19.56 E13.54229
G1 X67.099 Y18.851 E13.57462
G1 X67.634 Y18.35 E13.599
G1 X68.329 Y17.774 E13.62902
G1 X68.918 Y17.344 E13.65328
G1 X69.702 Y16.844 E13.68421
G1 X70.339 Y16.492 E13.70841
G1 X71.177 Y16.095 E13.73926
G1 X71.854 Y15.825 E13.7635
G1 X72.755 Y15.531 E13.79502
G1 X73.464 Y15.349 E13.81937
G1 X74.352 Y15.178 E13.84944
G1 X75.069 Y15.085 E13.87349
G1 X76.012 Y15.024 E13.90492
G1 X79.325 Y15.02 E14.01511
G1 X136.257 Y15.013 E15.90868
G1 X141.78 Y15.014 E16.09237
G1 X142.141 Y15.023 E16.10438
G1 X142.885 Y15.079 E16.1292
G1 X143.597 Y15.169 E16.15307
G1 X144.492 Y15.339 E16.18337
G1 X145.2 Y15.519 E16.20767
G1 X146.087 Y15.805 E16.23866
G1 X146.768 Y16.073 E16.263
G1 X147.615 Y16.47 E16.29412
G1 X148.248 Y16.817 E16.31813
G1 X149.042 Y17.32 E16.34939
G1 X149.635 Y17.751 E16.37377
G1 X150.33 Y18.324 E16.40373
G1 X150.862 Y18.82 E16.42792
G1 X151.508 Y19.505 E16.45924
G1 X151.974 Y20.066 E16.48349
G1 X152.518 Y20.81 E16.51415
G1 X152.909 Y21.422 E16.5383
G1 X153.363 Y22.243 E16.56951
G1 X153.675 Y22.903 E16.59379
G1 X154.027 Y23.793 E16.62562
G1 X154.251 Y24.487 E16.64988
G1 X154.476 Y25.364 E16.67999
G1 X154.612 Y26.072 E16.70397
G1 X154.728 Y26.961 E16.73379
G1 X154.779 Y27.703 E16.75853
G1 X154.796 Y28.21 E16.7754
G1 X154.797 Y72.198 E18.23844
G1 X154.765 Y72.811 E18.25886
G1 X154.785 Y72.992 E18.26492
G1 X154.797 Y73.417 E18.27906
G1 X154.797 Y76.206 E18.37182
G1 X154.765 Y76.813 E18.39204
G1 X154.785 Y76.992 E18.39803
G1 X154.797 Y77.417 E18.41217
G1 X154.797 Y121.385 E19.87455
G1 X154.781 Y121.865 E19.89053
G1 X154.732 Y122.619 E19.91566
G1 X154.618 Y123.519 E19.94583
G1 X154.484 Y124.225 E19.96973
G1 X154.262 Y125.1 E19.99976
G1 X154.04 Y125.794 E20.02399
G1 X153.69 Y126.685 E20.05583
G1 X153.381 Y127.343 E20.08001
G1 X152.938 Y128.151 E20.11066
G1 X152.548 Y128.768 E20.13493
G1 X151.994 Y129.531 E20.16629
G1 X151.529 Y130.093 E20.19056
G1 X150.89 Y130.774 E20.22162
G1 X150.359 Y131.272 E20.24583
G1 X149.664 Y131.848 E20.27585
G1 X149.073 Y132.28 E20.3002
G1 X148.278 Y132.787 E20.33156
G1 X147.643 Y133.137 E20.35568
G1 X146.791 Y133.538 E20.387
G1 X146.118 Y133.804 E20.41107
G1 X145.254 Y134.085 E20.44128
G1 X144.54 Y134.27 E20.46582
G1 X143.631 Y134.446 E20.49661
G1 X142.918 Y134.538 E20.52052
G1 X142.208 Y134.595 E20.54421
G1 X141.595 Y134.611 E20.56461
G1 X79.536 Y134.605 E22.6287
G1 X79.253 Y134.606 E22.63811
G1 X76.023 Y134.6 E22.74554
G1 X75.117 Y134.543 E22.77573
G1 X74.399 Y134.453 E22.7998
G1 X73.465 Y134.274 E22.83143
G1 X72.754 Y134.09 E22.85586
G1 X71.916 Y133.819 E22.88515
G1 X71.245 Y133.557 E22.90911
G1 X70.369 Y133.147 E22.94128
G1 X69.724 Y132.792 E22.96577
G1 X68.949 Y132.301 E22.99628
G1 X68.364 Y131.877 E23.02031
G1 X67.664 Y131.3 E23.05048
G1 X67.125 Y130.798 E23.07498
G1 X66.45 Y130.081 E23.10774
G1 X65.994 Y129.526 E23.13163
G1 X65.48 Y128.818 E23.16073
G1 X65.083 Y128.198 E23.18521
G1 X64.623 Y127.366 E23.21683
G1 X64.312 Y126.707 E23.24107
G1 X63.962 Y125.822 E23.27272
G1 X63.739 Y125.131 E23.29687
G1 X63.514 Y124.256 E23.32692
G1 X63.378 Y123.549 E23.35087
G1 X63.26 Y122.629 E23.38172
G1 X63.212 Y121.888 E23.40642
G1 X63.197 Y121.41 E23.42232
G1 X63.197 Y77.423 E24.88534
G1 X63.229 Y76.812 E24.90569
G1 X63.209 Y76.631 E24.91174
G1 X63.197 Y76.206 E24.92588
G1 X63.197 Y73.424 E25.01841
G1 X63.229 Y72.812 E25.0388
G1 X63.209 Y72.631 E25.04485
G1 X63.197 Y72.206 E25.05899
G1 X63.197 Y28.235 E26.52148
G1 X63.211 Y27.785 E26.53645
G1 X63.256 Y27.047 E26.56104
G1 X63.369 Y26.131 E26.59174
G1 X63.505 Y25.407 E26.61624
G1 X63.731 Y24.513 E26.64691
G1 X63.951 Y23.827 E26.67087
G0 F6000 X64.332 Y23.949
G1 F1200 X64.658 Y23.119 E26.70053
G1 X64.967 Y22.459 E26.72477
G1 X65.403 Y21.666 E26.75487
G1 X65.798 Y21.046 E26.77932
G1 X66.289 Y20.369 E26.80713
G1 X66.744 Y19.814 E26.831
G1 X67.372 Y19.143 E26.86157
G1 X67.907 Y18.642 E26.88595
G1 X68.565 Y18.097 E26.91437
G1 X69.154 Y17.667 E26.93862
G1 X69.895 Y17.194 E26.96786
G1 X70.532 Y16.842 E26.99207
G1 X71.325 Y16.467 E27.02124
G1 X72.002 Y16.197 E27.04548
G1 X72.855 Y15.919 E27.07532
G1 X73.564 Y15.737 E27.09967
G1 X74.404 Y15.575 E27.12812
G1 X75.121 Y15.482 E27.15217
G1 X76.013 Y15.424 E27.1819
G1 X79.326 Y15.42 E27.29209
G1 X136.257 Y15.413 E29.18562
G1 X141.77 Y15.414 E29.36899
G1 X142.131 Y15.423 E29.381
G1 X142.835 Y15.476 E29.40448
G1 X143.547 Y15.566 E29.42835
G1 X144.394 Y15.727 E29.45702
G1 X145.102 Y15.907 E29.48132
G1 X145.94 Y16.177 E29.51061
G1 X146.621 Y16.445 E29.53495
G1 X147.423 Y16.821 E29.56441
G1 X148.056 Y17.168 E29.58842
G1 X148.806 Y17.644 E29.61796
G1 X149.399 Y18.075 E29.64234
G1 X150.057 Y18.617 E29.6707
G1 X150.589 Y19.113 E29.69489
G1 X151.201 Y19.76 E29.72451
G1 X151.667 Y20.321 E29.74877
G1 X152.181 Y21.025 E29.77776
G1 X152.572 Y21.637 E29.80191
G1 X153.002 Y22.414 E29.83145
G1 X153.314 Y23.074 E29.85573
G1 X153.647 Y23.916 E29.88585
G1 X153.871 Y24.61 E29.9101
G1 X154.083 Y25.44 E29.93859
G1 X154.219 Y26.148 E29.96257
G1 X154.329 Y26.988 E29.99075
G1 X154.38 Y27.73 E30.01549
G1 X154.396 Y28.21 E30.03146
G1 X154.397 Y72.198 E31.49451
G1 X154.36 Y72.896 E31.51776
G1 X154.397 Y73.417 E31.53513
G1 X154.397 Y76.206 E31.62789
G1 X154.36 Y76.899 E31.65097
G1 X154.397 Y77.417 E31.66825
G1 X154.397 Y121.385 E33.13063
G1 X154.382 Y121.839 E33.14574
G1 X154.333 Y122.593 E33.17087
G1 X154.225 Y123.444 E33.1994
G1 X154.091 Y124.15 E33.2233
G1 X153.881 Y124.978 E33.25171
G1 X153.659 Y125.672 E33.27594
G1 X153.328 Y126.514 E33.30604
G1 X153.019 Y127.172 E33.33021
G1 X152.6 Y127.937 E33.35922
G1 X152.21 Y128.554 E33.3835
G1 X151.686 Y129.276 E33.41317
G1 X151.221 Y129.838 E33.43743
G1 X150.617 Y130.482 E33.4668
G1 X150.086 Y130.98 E33.49101
G1 X149.428 Y131.525 E33.51943
G1 X148.837 Y131.957 E33.54378
G1 X148.085 Y132.436 E33.57343
G1 X147.45 Y132.786 E33.59755
G1 X146.644 Y133.166 E33.62719
G1 X145.971 Y133.432 E33.65126
G1 X145.154 Y133.698 E33.67983
G1 X144.44 Y133.883 E33.70437
G1 X143.58 Y134.049 E33.7335
G1 X142.867 Y134.141 E33.75741
G1 X142.195 Y134.195 E33.77983
G1 X141.595 Y134.211 E33.79979
G1 X79.535 Y134.205 E35.86392
G1 X79.252 Y134.206 E35.87333
G1 X76.024 Y134.2 E35.9807
G1 X75.166 Y134.146 E36.00929
G1 X74.448 Y134.056 E36.03336
G1 X73.565 Y133.887 E36.06326
G1 X72.854 Y133.703 E36.08769
G1 X72.062 Y133.447 E36.11537
G1 X71.391 Y133.185 E36.13933
G1 X70.562 Y132.797 E36.16977
G1 X69.917 Y132.442 E36.19426
G1 X69.184 Y131.977 E36.22313
G1 X68.599 Y131.553 E36.24716
G1 X67.936 Y131.007 E36.27573
G1 X67.397 Y130.505 E36.30023
G1 X66.759 Y129.827 E36.33119
G1 X66.303 Y129.272 E36.35508
G1 X65.817 Y128.603 E36.38258
G1 X65.42 Y127.983 E36.40707
G1 X64.985 Y127.196 E36.43698
G1 X64.674 Y126.537 E36.46121
G1 X64.342 Y125.699 E36.49119
G1 X64.119 Y125.008 E36.51534
G1 X63.907 Y124.18 E36.54377
G1 X63.771 Y123.473 E36.56772
G1 X63.66 Y122.603 E36.59689
G1 X63.612 Y121.862 E36.62159
G1 X63.597 Y121.41 E36.63663
G1 X63.597 Y77.423 E38.09964
G1 X63.634 Y76.726 E38.12286
G1 X63.597 Y76.206 E38.1402
G1 X63.597 Y73.424 E38.23273
G1 X63.634 Y72.727 E38.25594
G1 X63.597 Y72.206 E38.27331
G1 X63.597 Y28.235 E39.73579
G1 X63.61 Y27.809 E39.74997
G1 X63.655 Y27.071 E39.77456
G1 X63.762 Y26.205 E39.80358
G1 X63.898 Y25.481 E39.82808
G1 X64.112 Y24.635 E39.85711
G1 X64.332 Y23.949 E39.88107
G0 F6000 X64.713 Y24.071
G1 F1200 X65.021 Y23.289 E39.90902
G1 X65.33 Y22.629 E39.93326
G1 X65.741 Y21.881 E39.96165
G1 X66.136 Y21.261 E39.9861
G1 X66.598 Y20.623 E40.0123
G1 X67.053 Y20.068 E40.03617
G1 X67.646 Y19.435 E40.06502
G1 X68.181 Y18.934 E40.0894
G1 X68.8 Y18.42 E40.11616
G1 X69.389 Y17.99 E40.14041
G1 X70.089 Y17.544 E40.16802
G1 X70.726 Y17.192 E40.19223
G1 X71.473 Y16.839 E40.2197
G1 X72.15 Y16.569 E40.24395
G1 X72.954 Y16.306 E40.27208
G1 X73.663 Y16.124 E40.29643
G1 X74.455 Y15.972 E40.32325
G1 X75.172 Y15.879 E40.3473
G1 X76.013 Y15.824 E40.37533
G1 X79.326 Y15.82 E40.48552
G1 X136.257 Y15.813 E42.37905
G1 X141.76 Y15.814 E42.56208
G1 X142.121 Y15.823 E42.57409
G1 X142.785 Y15.873 E42.59624
G1 X143.497 Y15.963 E42.62011
G1 X144.295 Y16.114 E42.64712
G1 X145.003 Y16.294 E42.67142
G1 X145.794 Y16.549 E42.69906
G1 X146.475 Y16.817 E42.7234
G1 X147.231 Y17.172 E42.75118
G1 X147.864 Y17.519 E42.77519
G1 X148.571 Y17.967 E42.80303
G1 X149.164 Y18.398 E42.82741
G1 X149.785 Y18.91 E42.85418
G1 X150.317 Y19.406 E42.87837
G1 X150.893 Y20.016 E42.90628
G1 X151.359 Y20.577 E42.93054
G1 X151.844 Y21.241 E42.95788
G1 X152.235 Y21.853 E42.98204
G1 X152.64 Y22.585 E43.00986
G1 X152.952 Y23.245 E43.03414
G1 X153.266 Y24.039 E43.06254
G1 X153.49 Y24.733 E43.0868
G1 X153.691 Y25.515 E43.11365
G1 X153.827 Y26.223 E43.13763
G1 X153.929 Y27.015 E43.16419
G1 X153.98 Y27.757 E43.18893
G1 X153.996 Y28.21 E43.20401
G1 X153.997 Y72.198 E44.66705
G1 X153.961 Y72.844 E44.68857
G1 X153.997 Y73.417 E44.70767
G1 X153.997 Y76.206 E44.80043
G1 X153.962 Y76.847 E44.82178
G1 X153.997 Y77.417 E44.84077
G1 X153.997 Y121.385 E46.30316
G1 X153.983 Y121.813 E46.3174
G1 X153.934 Y122.567 E46.34253
G1 X153.832 Y123.37 E46.36945
G1 X153.698 Y124.076 E46.39335
G1 X153.5 Y124.856 E46.42012
G1 X153.278 Y125.55 E46.44435
G1 X152.966 Y126.344 E46.47273
G1 X152.657 Y127.002 E46.49691
G1 X152.262 Y127.723 E46.52425
G1 X151.872 Y128.34 E46.54853
G1 X151.378 Y129.021 E46.57651
G1 X150.913 Y129.583 E46.60077
G1 X150.343 Y130.19 E46.62847
G1 X149.812 Y130.688 E46.65268
G1 X149.192 Y131.202 E46.67946
G1 X148.601 Y131.634 E46.70381
G1 X147.892 Y132.086 E46.73178
G1 X147.257 Y132.436 E46.75589
G1 X146.497 Y132.794 E46.78384
G1 X145.824 Y133.06 E46.80791
G1 X145.053 Y133.311 E46.83487
G1 X144.339 Y133.496 E46.85941
G1 X143.529 Y133.653 E46.88685
G1 X142.816 Y133.745 E46.91076
G1 X142.182 Y133.796 E46.93191
G1 X141.595 Y133.811 E46.95144
G1 X79.533 Y133.805 E49.01563
G1 X79.25 Y133.806 E49.02505
G1 X76.025 Y133.8 E49.13231
G1 X75.216 Y133.749 E49.15927
G1 X74.498 Y133.659 E49.18334
G1 X73.665 Y133.5 E49.21155
G1 X72.954 Y133.316 E49.23597
G1 X72.207 Y133.074 E49.26209
G1 X71.536 Y132.812 E49.28605
G1 X70.755 Y132.446 E49.31473
G1 X70.11 Y132.091 E49.33922
G1 X69.419 Y131.653 E49.36643
G1 X68.834 Y131.229 E49.39046
G1 X68.209 Y130.715 E49.41738
G1 X67.67 Y130.213 E49.44188
G1 X67.068 Y129.573 E49.4711
G1 X66.612 Y129.018 E49.49499
G1 X66.154 Y128.387 E49.52092
G1 X65.757 Y127.767 E49.54541
G1 X65.346 Y127.025 E49.57362
G1 X65.035 Y126.366 E49.59786
G1 X64.723 Y125.576 E49.62611
G1 X64.5 Y124.885 E49.65026
G1 X64.3 Y124.105 E49.67704
G1 X64.164 Y123.398 E49.70099
G1 X64.059 Y122.578 E49.72848
G1 X64.011 Y121.837 E49.75318
G1 X63.997 Y121.41 E49.76739
G1 X63.997 Y77.423 E51.2304
G1 X64.033 Y76.778 E51.25189
G1 X63.997 Y76.206 E51.27095
G1 X63.997 Y73.424 E51.36348
G1 X64.033 Y72.779 E51.38497
G1 X63.997 Y72.206 E51.40406
G1 X63.997 Y28.235 E52.86655
G1 X64.009 Y27.833 E52.87992
G1 X64.054 Y27.095 E52.90451
G1 X64.155 Y26.279 E52.93186
G1 X64.291 Y25.555 E52.95636
G1 X64.493 Y24.757 E52.98374
G1 X64.713 Y24.071 E53.0077
G0 F6000 X65.094 Y24.194
G1 F1200 X65.383 Y23.458 E53.034
G1 X65.692 Y22.798 E53.05824
G1 X66.078 Y22.096 E53.08489
G1 X66.473 Y21.476 E53.10934
G1 X66.907 Y20.876 E53.13397
G1 X67.362 Y20.321 E53.15784
G1 X67.919 Y19.726 E53.18494
G1 X68.454 Y19.225 E53.20932
G1 X69.036 Y18.743 E53.23446
G1 X69.625 Y18.313 E53.25871
G1 X70.282 Y17.894 E53.28463
G1 X70.919 Y17.542 E53.30883
