;FLAVOR:Marlin
;TIME:27399
;Filament used: 19.6987m
;Layer height: 0.2
;MINX:48.222
;MINY:11.956
;MINZ:0.2
;MAXX:174.479
;MAXY:156.89
;MAXZ:19.6
;Generated with Cura_SteamEngine 4.5.0
M140 S60
M105
M190 S60
M104 S190
M105
M109 S190
M82 ;absolute extrusion mode
M201 X500.00 Y500.00 Z100.00 E5000.00 ;Setup machine max acceleration
M203 X500.00 Y500.00 Z10.00 E50.00 ;Setup machine max feedrate
M204 P500.00 R1000.00 T500.00 ;Setup Print/Retract/Travel acceleration
M205 X8.00 Y8.00 Z0.40 E5.00 ;Setup Jerk
M220 S100 ;Reset Feedrate
M221 S100 ;Reset Flowrate

G28 ;Home
M420 S1 Z2 ;Enable ABL using saved Mesh and Fade Height
G29     ;autobedlevel
G92 E0 ;Reset Extruder
G1 Z2.0 F3000 ;Move Z Axis up
G1 X10.1 Y20 Z0.28 F5000.0 ;Move to start position
G1 X10.1 Y200.0 Z0.28 F1500.0 E15 ;Draw the first line
G1 X10.4 Y200.0 Z0.28 F5000.0 ;Move to side a little
G1 X10.4 Y20 Z0.28 F1500.0 E30 ;Draw the second line
G92 E0 ;Reset Extruder
G92 E0
G92 E0
G1 F1500 E-6.5
;LAYER_COUNT:98
;LAYER:0
M107
G0 F6000 X48.583 Y17.532 Z0.2
;TYPE:SKIRT
G1 F1500 E0
G1 F1200 X48.858 Y16.791 E0.02629
G1 X49.206 Y16.083 E0.05253
G1 X49.625 Y15.413 E0.07881
G1 X50.108 Y14.789 E0.10506
G1 X50.508 Y14.359 E0.12459
G1 X50.625 Y14.242 E0.13009
G1 X51.211 Y13.712 E0.15637
G1 X51.847 Y13.245 E0.18262
G1 X52.527 Y12.844 E0.20887
G1 X53.245 Y12.514 E0.23515
G1 X53.992 Y12.259 E0.26141
G1 X54.761 Y12.08 E0.28767
G1 X55.545 Y11.98 E0.31396
G1 X56.14 Y11.957 E0.33376
G1 X166.562 Y11.956 E4.00641
G1 X167.351 Y11.996 E4.03269
G1 X168.131 Y12.115 E4.05893
G1 X168.896 Y12.313 E4.08521
G1 X169.636 Y12.587 E4.11146
G1 X170.345 Y12.935 E4.13773
G1 X171.016 Y13.352 E4.164
G1 X171.64 Y13.836 E4.19027
G1 X172.077 Y14.241 E4.21008
G1 X172.194 Y14.358 E4.21559
G1 X172.724 Y14.944 E4.24187
G1 X173.191 Y15.58 E4.26811
G1 X173.592 Y16.26 E4.29437
G1 X173.922 Y16.978 E4.32065
G1 X174.177 Y17.725 E4.3469
G1 X174.356 Y18.494 E4.37316
G1 X174.456 Y19.278 E4.39945
G1 X174.479 Y19.873 E4.41926
G1 X174.479 Y148.973 E8.71314
G1 X174.439 Y149.762 E8.73942
G1 X174.32 Y150.542 E8.76566
G1 X174.122 Y151.307 E8.79194
G1 X173.848 Y152.047 E8.81819
G1 X173.5 Y152.756 E8.84446
G1 X173.082 Y153.427 E8.87075
G1 X172.599 Y154.051 E8.89699
G1 X172.194 Y154.488 E8.91681
G1 X172.077 Y154.605 E8.92231
G1 X171.491 Y155.135 E8.94859
G1 X170.855 Y155.602 E8.97484
G1 X170.175 Y156.003 E9.00109
G1 X169.457 Y156.333 E9.02738
G1 X168.71 Y156.588 E9.05363
G1 X167.941 Y156.767 E9.07989
G1 X167.157 Y156.867 E9.10618
G1 X166.562 Y156.89 E9.12598
G1 X56.859 Y156.89 E12.77472
G1 X56.129 Y156.889 E12.799
G1 X55.341 Y156.848 E12.82524
G1 X54.56 Y156.727 E12.85153
G1 X53.796 Y156.528 E12.87779
G1 X53.056 Y156.253 E12.90404
G1 X52.347 Y155.905 E12.93031
G1 X51.678 Y155.486 E12.95657
G1 X51.054 Y155.002 E12.98283
G1 X50.625 Y154.604 E13.0023
G1 X50.508 Y154.487 E13.0078
G1 X49.978 Y153.901 E13.03408
G1 X49.511 Y153.265 E13.06032
G1 X49.11 Y152.585 E13.08658
G1 X48.78 Y151.867 E13.11286
G1 X48.525 Y151.12 E13.13912
G1 X48.346 Y150.351 E13.16538
G1 X48.246 Y149.567 E13.19166
G1 X48.223 Y148.972 E13.21147
G1 X48.222 Y20.747 E17.47625
G1 X48.223 Y19.865 E17.50559
G1 X48.264 Y19.076 E17.53186
G1 X48.384 Y18.296 E17.55811
G1 X48.583 Y17.532 E17.58437
G0 F6000 X48.983 Y17.595
G1 F1200 X49.257 Y16.876 E17.60996
G1 X49.605 Y16.19 E17.63555
G1 X50.022 Y15.544 E17.66112
G1 X50.504 Y14.944 E17.68672
G1 X50.907 Y14.524 E17.70608
G1 X51.479 Y14.01 E17.73165
G1 X52.101 Y13.557 E17.75725
G1 X52.766 Y13.171 E17.78282
G1 X53.468 Y12.856 E17.80841
G1 X54.199 Y12.616 E17.834
G1 X54.95 Y12.453 E17.85956
G1 X55.715 Y12.369 E17.88516
G1 X56.14 Y12.357 E17.8993
G1 X166.562 Y12.356 E21.57195
G1 X167.33 Y12.396 E21.59753
G1 X168.09 Y12.515 E21.62312
G1 X168.833 Y12.713 E21.64869
G1 X169.552 Y12.987 E21.67428
G1 X170.238 Y13.334 E21.69985
G1 X170.885 Y13.75 E21.72543
G1 X171.485 Y14.231 E21.75101
G1 X171.912 Y14.64 E21.77068
G1 X172.426 Y15.212 E21.79626
G1 X172.879 Y15.834 E21.82185
G1 X173.265 Y16.499 E21.84742
G1 X173.58 Y17.201 E21.87301
G1 X173.82 Y17.932 E21.8986
G1 X173.983 Y18.683 E21.92416
G1 X174.067 Y19.448 E21.94976
G1 X174.079 Y19.873 E21.9639
G1 X174.079 Y148.973 E26.25779
G1 X174.039 Y149.741 E26.28336
G1 X173.92 Y150.501 E26.30895
G1 X173.722 Y151.244 E26.33452
G1 X173.448 Y151.963 E26.36012
G1 X173.101 Y152.649 E26.38569
G1 X172.685 Y153.296 E26.41127
G1 X172.204 Y153.896 E26.43685
G1 X171.795 Y154.323 E26.45651
G1 X171.223 Y154.837 E26.48209
G1 X170.601 Y155.29 E26.50768
G1 X169.936 Y155.676 E26.53326
G1 X169.234 Y155.991 E26.55885
G1 X168.503 Y156.231 E26.58444
G1 X167.752 Y156.394 E26.61
G1 X166.987 Y156.478 E26.63559
G1 X166.562 Y156.49 E26.64974
G1 X56.86 Y156.49 E30.29844
G1 X56.13 Y156.489 E30.32272
G1 X55.362 Y156.448 E30.3483
G1 X54.602 Y156.327 E30.3739
G1 X53.859 Y156.129 E30.39947
G1 X53.141 Y155.854 E30.42504
G1 X52.455 Y155.506 E30.45063
G1 X51.809 Y155.089 E30.4762
G1 X51.209 Y154.607 E30.5018
G1 X50.79 Y154.205 E30.52111
G1 X50.276 Y153.633 E30.54669
G1 X49.823 Y153.011 E30.57228
G1 X49.437 Y152.346 E30.59786
G1 X49.122 Y151.644 E30.62345
G1 X48.882 Y150.913 E30.64904
G1 X48.719 Y150.162 E30.6746
G1 X48.635 Y149.397 E30.70019
G1 X48.623 Y148.972 E30.71433
G1 X48.622 Y20.747 E34.97912
G1 X48.623 Y19.866 E35.00842
G1 X48.664 Y19.097 E35.03403
G1 X48.784 Y18.338 E35.05959
G1 X48.983 Y17.595 E35.08517
G0 F6000 X49.383 Y17.659
G1 F1200 X49.657 Y16.963 E35.11005
G1 X50.004 Y16.301 E35.13491
G1 X50.419 Y15.679 E35.15978
G1 X51.073 Y14.924 E35.193
G1 X51.19 Y14.807 E35.19851
G1 X51.747 Y14.307 E35.2234
G1 X52.353 Y13.87 E35.24825
G1 X53.003 Y13.499 E35.27314
G1 X53.689 Y13.2 E35.29803
G1 X54.403 Y12.976 E35.32292
G1 X55.136 Y12.829 E35.34779
G1 X56.14 Y12.757 E35.38127
G1 X166.562 Y12.756 E39.05392
G1 X167.309 Y12.796 E39.0788
G1 X168.047 Y12.915 E39.10366
G1 X168.769 Y13.113 E39.12856
G1 X169.465 Y13.386 E39.15343
G1 X170.128 Y13.733 E39.17832
G1 X170.751 Y14.148 E39.20321
G1 X171.512 Y14.806 E39.23667
G1 X171.629 Y14.923 E39.24218
G1 X172.129 Y15.48 E39.26707
G1 X172.566 Y16.086 E39.29192
G1 X172.937 Y16.736 E39.31682
G1 X173.236 Y17.422 E39.34171
G1 X173.46 Y18.136 E39.36659
G1 X173.607 Y18.869 E39.39146
G1 X173.679 Y19.873 E39.42494
G1 X173.679 Y148.973 E43.71882
G1 X173.639 Y149.72 E43.7437
G1 X173.52 Y150.458 E43.76857
G1 X173.322 Y151.18 E43.79347
G1 X173.049 Y151.876 E43.81833
G1 X172.702 Y152.539 E43.84322
G1 X172.287 Y153.162 E43.86812
G1 X171.629 Y153.923 E43.90158
G1 X171.512 Y154.04 E43.90708
G1 X170.955 Y154.54 E43.93198
G1 X170.349 Y154.977 E43.95683
G1 X169.699 Y155.348 E43.98172
G1 X169.013 Y155.647 E44.00661
G1 X168.299 Y155.871 E44.0315
G1 X167.566 Y156.018 E44.05636
G1 X166.562 Y156.09 E44.08984
G1 X56.86 Y156.09 E47.73855
G1 X56.13 Y156.089 E47.76283
G1 X55.383 Y156.048 E47.78771
G1 X54.645 Y155.928 E47.81258
G1 X53.924 Y155.729 E47.83745
G1 X53.228 Y155.455 E47.86233
G1 X52.565 Y155.107 E47.88724
G1 X51.944 Y154.692 E47.91208
G1 X51.19 Y154.039 E47.94525
G1 X51.073 Y153.922 E47.95076
G1 X50.573 Y153.365 E47.97565
G1 X50.136 Y152.759 E48.0005
G1 X49.765 Y152.109 E48.0254
G1 X49.466 Y151.423 E48.05029
G1 X49.242 Y150.709 E48.07517
G1 X49.095 Y149.976 E48.10004
G1 X49.023 Y148.972 E48.13352
G1 X49.022 Y20.747 E52.3983
G1 X49.023 Y19.866 E52.4276
G1 X49.064 Y19.119 E52.45248
G1 X49.184 Y18.381 E52.47735
G1 X49.383 Y17.659 E52.50226
G0 F6000 X49.782 Y17.726
G1 F1200 X50.056 Y17.053 E52.52643
G1 X50.402 Y16.415 E52.55057
G1 X50.816 Y15.818 E52.57473
G1 X51.356 Y15.207 E52.60185
G1 X51.473 Y15.09 E52.60736
G1 X52.014 Y14.606 E52.6315
G1 X52.605 Y14.183 E52.65567
G1 X53.239 Y13.829 E52.67983
G1 X53.908 Y13.546 E52.70399
G1 X54.604 Y13.338 E52.72815
G1 X55.319 Y13.208 E52.75232
G1 X56.14 Y13.157 E52.77968
G1 X166.562 Y13.156 E56.45233
G1 X167.287 Y13.196 E56.47648
G1 X168.004 Y13.315 E56.50065
G1 X168.703 Y13.513 E56.52481
G1 X169.376 Y13.786 E56.54897
G1 X170.015 Y14.131 E56.57312
G1 X170.612 Y14.545 E56.59729
G1 X171.229 Y15.089 E56.62465
G1 X171.346 Y15.206 E56.63015
G1 X171.83 Y15.747 E56.65429
G1 X172.253 Y16.338 E56.67847
G1 X172.607 Y16.972 E56.70262
G1 X172.89 Y17.641 E56.72678
G1 X173.098 Y18.337 E56.75094
G1 X173.228 Y19.052 E56.77511
G1 X173.279 Y19.873 E56.80247
G1 X173.279 Y148.973 E61.09635
G1 X173.239 Y149.698 E61.1205
G1 X173.12 Y150.415 E61.14467
G1 X172.922 Y151.114 E61.16884
G1 X172.649 Y151.787 E61.19299
G1 X172.304 Y152.426 E61.21715
G1 X171.89 Y153.023 E61.24131
G1 X171.346 Y153.64 E61.26867
G1 X171.229 Y153.757 E61.27417
G1 X170.688 Y154.241 E61.29832
G1 X170.097 Y154.664 E61.32249
G1 X169.463 Y155.018 E61.34664
G1 X168.794 Y155.301 E61.3708
G1 X168.098 Y155.509 E61.39496
G1 X167.383 Y155.639 E61.41913
G1 X166.562 Y155.69 E61.44649
G1 X56.861 Y155.69 E65.09516
G1 X56.131 Y155.689 E65.11944
G1 X55.406 Y155.648 E65.14359
G1 X54.689 Y155.528 E65.16777
G1 X53.991 Y155.329 E65.19191
G1 X53.318 Y155.055 E65.21608
G1 X52.679 Y154.709 E65.24025
G1 X52.083 Y154.295 E65.26439
G1 X51.473 Y153.756 E65.29146
G1 X51.356 Y153.639 E65.29696
G1 X50.872 Y153.098 E65.32111
G1 X50.449 Y152.507 E65.34528
G1 X50.095 Y151.873 E65.36943
G1 X49.812 Y151.204 E65.39359
G1 X49.604 Y150.508 E65.41775
G1 X49.474 Y149.793 E65.44192
G1 X49.423 Y148.972 E65.46928
G1 X49.422 Y20.747 E69.73406
G1 X49.423 Y19.866 E69.76337
G1 X49.464 Y19.141 E69.78752
G1 X49.584 Y18.425 E69.81166
G1 X49.782 Y17.726 E69.83583
G0 F6000 X50.182 Y17.795
G1 F1200 X50.455 Y17.146 E69.85925
G1 X50.8 Y16.533 E69.88264
G1 X51.213 Y15.962 E69.90608
G1 X51.639 Y15.49 E69.92723
G1 X51.756 Y15.373 E69.93273
G1 X52.281 Y14.904 E69.95614
G1 X52.856 Y14.498 E69.97956
G1 X53.474 Y14.16 E70.00298
G1 X54.125 Y13.893 E70.02639
G1 X54.803 Y13.703 E70.04981
G1 X55.498 Y13.59 E70.07323
G1 X56.14 Y13.557 E70.09461
G1 X166.562 Y13.556 E73.76726
G1 X167.265 Y13.596 E73.79068
G1 X167.959 Y13.715 E73.8141
G1 X168.634 Y13.913 E73.83749
G1 X169.283 Y14.185 E73.8609
G1 X169.897 Y14.53 E73.88432
G1 X170.468 Y14.941 E73.90772
G1 X170.946 Y15.372 E73.92913
G1 X171.063 Y15.489 E73.93463
G1 X171.532 Y16.014 E73.95805
G1 X171.938 Y16.589 E73.98146
G1 X172.276 Y17.207 E74.00489
G1 X172.543 Y17.858 E74.02829
G1 X172.733 Y18.536 E74.05171
G1 X172.846 Y19.231 E74.07513
G1 X172.879 Y19.873 E74.09651
G1 X172.879 Y148.973 E78.39039
G1 X172.839 Y149.676 E78.41381
G1 X172.72 Y150.37 E78.43723
G1 X172.522 Y151.045 E78.46063
G1 X172.25 Y151.694 E78.48403
G1 X171.905 Y152.308 E78.50746
G1 X171.494 Y152.879 E78.53086
G1 X171.063 Y153.357 E78.55226
G1 X170.946 Y153.474 E78.55777
G1 X170.421 Y153.943 E78.58118
G1 X169.846 Y154.349 E78.60459
G1 X169.228 Y154.687 E78.62802
G1 X168.577 Y154.954 E78.65142
G1 X167.899 Y155.144 E78.67484
G1 X167.204 Y155.257 E78.69826
G1 X166.562 Y155.29 E78.71964
G1 X56.862 Y155.29 E82.36828
G1 X56.132 Y155.289 E82.39256
G1 X55.429 Y155.248 E82.41598
G1 X54.735 Y155.128 E82.43941
G1 X54.06 Y154.93 E82.4628
G1 X53.411 Y154.656 E82.48623
G1 X52.797 Y154.311 E82.50966
G1 X52.227 Y153.898 E82.53307
G1 X51.756 Y153.473 E82.55417
G1 X51.639 Y153.356 E82.55967
G1 X51.17 Y152.831 E82.58309
G1 X50.764 Y152.256 E82.6065
G1 X50.426 Y151.638 E82.62993
G1 X50.159 Y150.987 E82.65333
G1 X49.969 Y150.309 E82.67675
G1 X49.856 Y149.614 E82.70017
G1 X49.823 Y148.972 E82.72155
G1 X49.822 Y20.747 E86.98633
G1 X49.823 Y19.867 E87.0156
G1 X49.864 Y19.164 E87.03902
G1 X49.984 Y18.47 E87.06245
G1 X50.182 Y17.795 E87.08584
G0 F6000 X50.582 Y17.866
G1 F1200 X50.855 Y17.242 E87.1085
G1 X51.199 Y16.655 E87.13113
G1 X51.609 Y16.111 E87.15378
G1 X51.922 Y15.773 E87.16911
G1 X52.039 Y15.656 E87.17461
G1 X52.548 Y15.203 E87.19727
G1 X53.106 Y14.814 E87.2199
G1 X53.706 Y14.492 E87.24254
G1 X54.34 Y14.243 E87.2652
G1 X54.999 Y14.07 E87.28786
G1 X55.673 Y13.976 E87.31049
G1 X56.14 Y13.957 E87.32604
G1 X166.562 Y13.956 E90.99869
G1 X167.242 Y13.996 E91.02135
G1 X167.912 Y14.115 E91.04398
G1 X168.564 Y14.312 E91.06663
G1 X169.188 Y14.584 E91.08927
G1 X169.776 Y14.928 E91.11193
G1 X170.32 Y15.338 E91.13459
G1 X170.663 Y15.655 E91.15012
G1 X170.78 Y15.772 E91.15563
G1 X171.233 Y16.281 E91.17829
G1 X171.622 Y16.839 E91.20091
G1 X171.944 Y17.439 E91.22356
G1 X172.193 Y18.073 E91.24622
G1 X172.366 Y18.732 E91.26888
G1 X172.46 Y19.406 E91.29151
G1 X172.479 Y19.873 E91.30706
G1 X172.479 Y148.973 E95.60094
G1 X172.439 Y149.653 E95.6236
G1 X172.32 Y150.323 E95.64623
G1 X172.123 Y150.975 E95.66888
G1 X171.851 Y151.599 E95.69152
G1 X171.507 Y152.187 E95.71418
G1 X171.097 Y152.731 E95.73684
G1 X170.78 Y153.074 E95.75237
G1 X170.663 Y153.191 E95.75788
G1 X170.154 Y153.644 E95.78054
G1 X169.596 Y154.033 E95.80316
G1 X168.996 Y154.355 E95.82581
G1 X168.362 Y154.604 E95.84847
G1 X167.703 Y154.777 E95.87113
G1 X167.029 Y154.871 E95.89376
G1 X166.562 Y154.89 E95.90931
G1 X56.862 Y154.89 E99.55794
G1 X56.132 Y154.889 E99.58222
G1 X55.452 Y154.848 E99.60488
G1 X54.782 Y154.728 E99.62752
G1 X54.131 Y154.53 E99.65015
G1 X53.507 Y154.257 E99.67281
G1 X52.919 Y153.913 E99.69546
G1 X52.376 Y153.502 E99.71811
G1 X52.039 Y153.19 E99.73339
G1 X51.922 Y153.073 E99.73889
G1 X51.469 Y152.564 E99.76156
G1 X51.08 Y152.006 E99.78418
G1 X50.758 Y151.406 E99.80683
G1 X50.509 Y150.772 E99.82948
G1 X50.336 Y150.113 E99.85214
G1 X50.242 Y149.439 E99.87478
G1 X50.223 Y148.972 E99.89032
G1 X50.222 Y20.747 E104.1551
G1 X50.223 Y19.867 E104.18437
G1 X50.264 Y19.188 E104.207
G1 X50.384 Y18.517 E104.22967
G1 X50.582 Y17.866 E104.2523
G0 F6000 X50.784 Y18.566
G1 F1200 X50.981 Y17.94 E104.27413
G1 X51.254 Y17.342 E104.29599
G1 X51.596 Y16.781 E104.31785
G1 X52.205 Y16.056 E104.34934
G1 X52.322 Y15.939 E104.35484
G1 X52.814 Y15.503 E104.37671
G1 X53.355 Y15.131 E104.39854
G1 X53.937 Y14.827 E104.42038
G1 X54.552 Y14.596 E104.44223
G1 X55.191 Y14.441 E104.4641
G1 X56.14 Y14.357 E104.49579
G1 X166.562 Y14.356 E108.16844
G1 X167.218 Y14.396 E108.1903
G1 X167.864 Y14.515 E108.21215
G1 X168.491 Y14.712 E108.23401
G1 X169.089 Y14.984 E108.25586
G1 X169.65 Y15.326 E108.27771
G1 X170.38 Y15.938 E108.30939
G1 X170.497 Y16.055 E108.3149
G1 X170.933 Y16.547 E108.33676
G1 X171.305 Y17.088 E108.3586
G1 X171.609 Y17.67 E108.38044
G1 X171.84 Y18.285 E108.40229
G1 X171.995 Y18.924 E108.42416
G1 X172.079 Y19.873 E108.45584
G1 X172.079 Y148.973 E112.74973
G1 X172.039 Y149.629 E112.77159
G1 X171.92 Y150.275 E112.79343
G1 X171.723 Y150.902 E112.81529
G1 X171.451 Y151.5 E112.83714
G1 X171.109 Y152.061 E112.859
G1 X170.497 Y152.791 E112.89068
G1 X170.38 Y152.908 E112.89618
G1 X169.888 Y153.344 E112.91805
G1 X169.347 Y153.716 E112.93989
G1 X168.765 Y154.02 E112.96172
G1 X168.15 Y154.251 E112.98357
G1 X167.511 Y154.406 E113.00544
G1 X166.562 Y154.49 E113.03713
G1 X56.863 Y154.49 E116.68573
G1 X56.133 Y154.489 E116.71001
G1 X55.477 Y154.448 E116.73188
G1 X54.831 Y154.328 E116.75373
G1 X54.205 Y154.13 E116.77557
G1 X53.607 Y153.858 E116.79742
G1 X53.046 Y153.515 E116.81929
G1 X52.322 Y152.907 E116.85073
G1 X52.205 Y152.79 E116.85624
G1 X51.769 Y152.298 E116.8781
G1 X51.397 Y151.757 E116.89994
G1 X51.093 Y151.175 E116.92178
G1 X50.862 Y150.56 E116.94363
G1 X50.707 Y149.921 E116.9655
G1 X50.623 Y148.972 E116.99718
G1 X50.622 Y20.747 E121.26196
G1 X50.623 Y19.868 E121.2912
G1 X50.664 Y19.212 E121.31306
G1 X50.784 Y18.566 E121.33492
G0 F6000 X51.184 Y18.617
G1 F1200 X51.381 Y18.016 E121.35595
G1 X51.652 Y17.445 E121.37697
G1 X51.994 Y16.913 E121.39801
G1 X52.487 Y16.338 E121.4232
G1 X52.604 Y16.221 E121.4287
G1 X53.079 Y15.804 E121.44973
G1 X53.602 Y15.449 E121.47075
G1 X54.166 Y15.163 E121.49178
G1 X54.761 Y14.951 E121.51279
G1 X55.379 Y14.815 E121.53384
G1 X56.14 Y14.757 E121.55922
G1 X166.562 Y14.756 E125.23187
G1 X167.193 Y14.796 E125.2529
G1 X167.814 Y14.915 E125.27393
G1 X168.414 Y15.112 E125.29494
G1 X168.986 Y15.383 E125.31599
G1 X169.518 Y15.723 E125.33699
G1 X170.098 Y16.22 E125.36239
G1 X170.215 Y16.337 E125.3679
G1 X170.632 Y16.812 E125.38892
G1 X170.987 Y17.335 E125.40994
G1 X171.273 Y17.899 E125.43098
G1 X171.485 Y18.494 E125.45198
G1 X171.621 Y19.112 E125.47303
G1 X171.679 Y19.873 E125.49841
G1 X171.679 Y148.973 E129.7923
G1 X171.639 Y149.604 E129.81333
G1 X171.52 Y150.225 E129.83436
G1 X171.323 Y150.825 E129.85536
