;FLAVOR:Marlin
;TIME:8340
;Filament used: 5.22888m
;Layer height: 0.2
;MINX:60.117
;MINY:20.321
;MINZ:0.2
;MAXX:158.486
;MAXY:99.118
;MAXZ:14.4
;Generated with Cura_SteamEngine 4.5.0
M140 S60
M105
M190 S60
M104 S190
M105
M109 S190
M82 ;absolute extrusion mode
M201 X500.00 Y500.00 Z100.00 E5000.00 ;Setup machine max acceleration
M203 X500.00 Y500.00 Z10.00 E50.00 ;Setup machine max feedrate
M204 P500.00 R1000.00 T500.00 ;Setup Print/Retract/Travel acceleration
M205 X8.00 Y8.00 Z0.40 E5.00 ;Setup Jerk
M220 S100 ;Reset Feedrate
M221 S100 ;Reset Flowrate

G28 ;Home
M420 S1 Z2 ;Enable ABL using saved Mesh and Fade Height
G29     ;autobedlevel
G92 E0 ;Reset Extruder
G1 Z2.0 F3000 ;Move Z Axis up
G1 X10.1 Y20 Z0.28 F5000.0 ;Move to start position
G1 X10.1 Y200.0 Z0.28 F1500.0 E15 ;Draw the first line
G1 X10.4 Y200.0 Z0.28 F5000.0 ;Move to side a little
G1 X10.4 Y20 Z0.28 F1500.0 E30 ;Draw the second line
G92 E0 ;Reset Extruder
G92 E0
G92 E0
G1 F1500 E-6.5
;LAYER_COUNT:72
;LAYER:0
M107
G0 F6000 X62.162 Y31.518 Z0.2
;TYPE:SKIRT
G1 F1500 E0
G1 F1200 X63.566 Y28.749 E0.10326
G1 X63.958 Y28.063 E0.12954
G1 X64.418 Y27.421 E0.15581
G1 X64.988 Y26.781 E0.18431
G1 X67.189 Y24.564 E0.28822
G1 X67.773 Y24.032 E0.31449
G1 X68.407 Y23.562 E0.34074
G1 X69.157 Y23.122 E0.36966
G1 X71.94 Y21.691 E0.47375
G1 X72.66 Y21.366 E0.50002
G1 X73.409 Y21.116 E0.52628
G1 X74.257 Y20.929 E0.55516
G1 X77.373 Y20.423 E0.66016
G1 X78.158 Y20.336 E0.68643
G1 X78.623 Y20.322 E0.7019
G1 X139.966 Y20.321 E2.74218
G1 X140.755 Y20.361 E2.76845
G1 X141.183 Y20.416 E2.78281
G1 X144.273 Y20.904 E2.88685
G1 X145.046 Y21.067 E2.91313
G1 X145.798 Y21.307 E2.93938
G1 X146.586 Y21.654 E2.96802
G1 X149.354 Y23.059 E3.07127
G1 X150.04 Y23.451 E3.09755
G1 X150.682 Y23.911 E3.12381
G1 X151.318 Y24.478 E3.15215
G1 X153.552 Y26.695 E3.25684
G1 X154.084 Y27.278 E3.28309
G1 X154.554 Y27.913 E3.30936
G1 X155.003 Y28.681 E3.33895
G1 X156.426 Y31.465 E3.44294
G1 X156.75 Y32.185 E3.4692
G1 X156.999 Y32.935 E3.49549
G1 X157.183 Y33.78 E3.52425
G1 X157.677 Y36.86 E3.628
G1 X157.77 Y37.822 E3.66015
G1 X158.486 Y58.294 E4.34146
G1 X158.474 Y59.084 E4.36774
G1 X158.404 Y59.728 E4.38929
G1 X157.928 Y62.889 E4.49561
G1 X157.771 Y63.663 E4.52188
G1 X157.537 Y64.417 E4.54813
G1 X157.171 Y65.256 E4.57858
G1 X155.767 Y68.024 E4.68181
G1 X155.375 Y68.71 E4.70809
G1 X154.915 Y69.352 E4.73436
G1 X154.347 Y69.99 E4.76277
G1 X152.13 Y72.224 E4.86745
G1 X151.547 Y72.756 E4.8937
G1 X150.912 Y73.226 E4.91997
G1 X150.141 Y73.677 E4.94968
G1 X147.374 Y75.09 E5.05302
G1 X146.654 Y75.413 E5.07927
G1 X145.904 Y75.661 E5.10554
G1 X145.078 Y75.842 E5.13366
G1 X141.989 Y76.344 E5.23775
G1 X141.283 Y76.426 E5.26139
G1 X136.415 Y76.767 E5.4237
G1 X136.683 Y80.601 E5.55153
G1 X136.769 Y80.67 E5.5552
G1 X136.894 Y80.778 E5.56069
G1 X137.465 Y81.324 E5.58697
G1 X137.978 Y81.924 E5.61322
G1 X138.427 Y82.574 E5.6395
G1 X138.808 Y83.266 E5.66577
G1 X139.117 Y83.992 E5.69202
G1 X139.352 Y84.746 E5.71828
G1 X139.508 Y85.52 E5.74455
G1 X139.577 Y86.146 E5.76549
G1 X139.663 Y87.4 E5.8073
G1 X139.677 Y88.19 E5.83358
G1 X139.611 Y88.977 E5.85985
G1 X139.466 Y89.753 E5.8861
G1 X139.243 Y90.511 E5.91238
G1 X138.945 Y91.242 E5.93864
G1 X138.742 Y91.623 E5.953
G1 X138.717 Y91.856 E5.96079
G1 X138.553 Y92.628 E5.98704
G1 X138.415 Y93.09 E6.00308
G1 X138.331 Y93.342 E6.01191
G1 X138.043 Y94.077 E6.03817
G1 X137.683 Y94.78 E6.06444
G1 X137.254 Y95.443 E6.0907
G1 X136.76 Y96.058 E6.11694
G1 X136.206 Y96.621 E6.14321
G1 X135.597 Y97.125 E6.1695
G1 X134.942 Y97.565 E6.19575
G1 X134.245 Y97.936 E6.22201
G1 X133.514 Y98.235 E6.24828
G1 X132.756 Y98.458 E6.27456
G1 X131.98 Y98.604 E6.30082
G1 X131.529 Y98.652 E6.3159
G1 X130.147 Y98.758 E6.36201
G1 X125.262 Y99.099 E6.52488
G1 X124.473 Y99.114 E6.55112
G1 X123.686 Y99.049 E6.57739
G1 X122.909 Y98.905 E6.60367
G1 X122.151 Y98.683 E6.62994
G1 X121.42 Y98.386 E6.65618
G1 X120.722 Y98.016 E6.68246
G1 X120.065 Y97.578 E6.70872
G1 X119.647 Y97.244 E6.72652
G1 X119.522 Y97.137 E6.73199
G1 X118.949 Y96.593 E6.75827
G1 X118.433 Y95.995 E6.78454
G1 X117.981 Y95.347 E6.81082
G1 X117.597 Y94.658 E6.83705
G1 X117.284 Y93.932 E6.86335
G1 X117.046 Y93.179 E6.88962
G1 X116.886 Y92.406 E6.91587
G1 X116.813 Y91.755 E6.93766
G1 X114.981 Y65.554 E7.81124
G1 X114.966 Y64.765 E7.83748
G1 X115.031 Y63.977 E7.86378
G1 X115.175 Y63.201 E7.89003
G1 X115.396 Y62.443 E7.91629
G1 X115.694 Y61.712 E7.94255
G1 X116.063 Y61.014 E7.96881
G1 X116.502 Y60.357 E7.99509
G1 X116.836 Y59.938 E8.01291
G1 X116.943 Y59.813 E8.01838
G1 X117.487 Y59.24 E8.04466
G1 X118.085 Y58.724 E8.07093
G1 X118.733 Y58.272 E8.09721
G1 X119.422 Y57.888 E8.12345
G1 X120.148 Y57.575 E8.14974
G1 X120.901 Y57.337 E8.17601
G1 X121.674 Y57.177 E8.20226
G1 X122.326 Y57.104 E8.22408
G1 X137.767 Y56.026 E8.7389
G1 X137.571 Y50.438 E8.92487
G1 X137.58 Y49.857 E8.9442
G1 X137.273 Y40.918 E9.24169
G1 X81.343 Y40.921 E11.10193
G1 X81.024 Y50.01 E11.40442
G1 X81.039 Y50.437 E11.41863
G1 X80.844 Y56.025 E11.6046
G1 X96.284 Y57.104 E12.11939
G1 X97.068 Y57.199 E12.14565
G1 X97.838 Y57.372 E12.1719
G1 X98.587 Y57.623 E12.19817
G1 X99.307 Y57.948 E12.22445
G1 X99.99 Y58.344 E12.25071
G1 X100.629 Y58.808 E12.27697
G1 X101.219 Y59.333 E12.30324
G1 X101.642 Y59.786 E12.32385
G1 X101.75 Y59.911 E12.32935
G1 X102.236 Y60.533 E12.3556
G1 X102.655 Y61.202 E12.38186
G1 X103.006 Y61.91 E12.40814
G1 X103.282 Y62.65 E12.43441
G1 X103.483 Y63.413 E12.46065
G1 X103.605 Y64.194 E12.48694
G1 X103.648 Y64.982 E12.51319
G1 X103.629 Y65.554 E12.53223
G1 X101.797 Y91.755 E13.4058
G1 X101.702 Y92.539 E13.43207
G1 X101.528 Y93.309 E13.45833
G1 X101.278 Y94.058 E13.48459
G1 X100.953 Y94.778 E13.51086
G1 X100.556 Y95.461 E13.53714
G1 X100.093 Y96.101 E13.56341
G1 X99.568 Y96.69 E13.58965
G1 X99.088 Y97.137 E13.61147
G1 X98.963 Y97.244 E13.61694
G1 X98.338 Y97.726 E13.64319
G1 X97.667 Y98.143 E13.66947
G1 X96.958 Y98.49 E13.69572
G1 X96.217 Y98.763 E13.72199
G1 X95.452 Y98.96 E13.74826
G1 X94.672 Y99.079 E13.77451
G1 X93.883 Y99.118 E13.80078
G1 X93.348 Y99.099 E13.81859
G1 X87.141 Y98.666 E14.02553
G1 X86.357 Y98.571 E14.0518
G1 X85.587 Y98.398 E14.07805
G1 X84.838 Y98.147 E14.10432
G1 X84.118 Y97.822 E14.1306
G1 X83.435 Y97.426 E14.15686
G1 X82.795 Y96.963 E14.18313
G1 X82.206 Y96.438 E14.20937
G1 X81.673 Y95.855 E14.23564
G1 X81.201 Y95.222 E14.26191
G1 X80.796 Y94.544 E14.28817
G1 X80.461 Y93.829 E14.31444
G1 X80.29 Y93.369 E14.33076
G1 X80.205 Y93.116 E14.33963
G1 X79.992 Y92.356 E14.36589
G1 X79.862 Y91.606 E14.3912
G1 X79.584 Y91.042 E14.41212
G1 X79.307 Y90.303 E14.43837
G1 X79.107 Y89.539 E14.46463
G1 X78.985 Y88.759 E14.49089
G1 X78.943 Y87.97 E14.51717
G1 X78.956 Y87.5 E14.53281
G1 X79.028 Y86.245 E14.57462
G1 X79.113 Y85.46 E14.60088
G1 X79.277 Y84.688 E14.62713
G1 X79.518 Y83.936 E14.6534
G1 X79.834 Y83.212 E14.67967
G1 X80.222 Y82.524 E14.70594
G1 X80.677 Y81.879 E14.73219
G1 X81.195 Y81.283 E14.75846
G1 X81.665 Y80.834 E14.78008
G1 X81.789 Y80.725 E14.78557
G1 X81.914 Y80.626 E14.79087
G1 X82.188 Y76.768 E14.91951
G1 X77.373 Y76.431 E15.08005
G1 X76.703 Y76.355 E15.10248
G1 X73.615 Y75.868 E15.20646
G1 X72.842 Y75.705 E15.23273
G1 X72.09 Y75.466 E15.25898
G1 X71.303 Y75.12 E15.28757
G1 X68.534 Y73.716 E15.39083
G1 X67.848 Y73.324 E15.41711
G1 X67.206 Y72.864 E15.44338
G1 X66.564 Y72.293 E15.47195
G1 X64.347 Y70.091 E15.57588
G1 X63.816 Y69.507 E15.60213
G1 X63.346 Y68.872 E15.62841
G1 X62.907 Y68.123 E15.65729
G1 X61.468 Y65.324 E15.76196
G1 X61.143 Y64.605 E15.78821
G1 X60.892 Y63.856 E15.81448
G1 X60.703 Y62.992 E15.8439
G1 X60.21 Y59.914 E15.94758
G1 X60.125 Y59.129 E15.97384
G1 X60.117 Y58.407 E15.99785
G1 X60.836 Y37.871 E16.6813
G1 X60.926 Y36.931 E16.71271
G1 X61.414 Y33.832 E16.81705
G1 X61.576 Y33.059 E16.84332
G1 X61.816 Y32.306 E16.86961
G1 X62.162 Y31.518 E16.89823
G0 F6000 X62.519 Y31.698
G1 F1200 X63.923 Y28.929 E17.00149
G1 X64.306 Y28.262 E17.02707
G1 X64.756 Y27.639 E17.05263
G1 X65.271 Y27.062 E17.07836
G1 X67.472 Y24.845 E17.18226
G1 X68.042 Y24.328 E17.20786
G1 X68.662 Y23.873 E17.23344
G1 X69.34 Y23.478 E17.25954
G1 X72.123 Y22.047 E17.36362
G1 X72.824 Y21.731 E17.38919
G1 X73.555 Y21.49 E17.41479
G1 X74.321 Y21.324 E17.44086
G1 X77.437 Y20.818 E17.54586
G1 X78.201 Y20.734 E17.57142
G1 X78.623 Y20.722 E17.58546
G1 X139.966 Y20.721 E19.62574
G1 X140.734 Y20.761 E19.65132
G1 X141.12 Y20.812 E19.66427
G1 X144.21 Y21.3 E19.76832
G1 X144.963 Y21.459 E19.79391
G1 X145.695 Y21.695 E19.81949
G1 X146.405 Y22.01 E19.84533
G1 X149.173 Y23.415 E19.94857
G1 X149.84 Y23.799 E19.97417
G1 X150.464 Y24.249 E19.99976
G1 X151.037 Y24.761 E20.02532
G1 X153.271 Y26.978 E20.13
G1 X153.788 Y27.548 E20.15559
G1 X154.243 Y28.168 E20.18117
G1 X154.647 Y28.863 E20.20791
G1 X156.07 Y31.647 E20.3119
G1 X156.384 Y32.349 E20.33748
G1 X156.624 Y33.08 E20.36307
G1 X156.788 Y33.843 E20.38903
G1 X157.282 Y36.923 E20.49278
G1 X157.37 Y37.836 E20.52328
G1 X158.086 Y58.308 E21.2046
G1 X158.073 Y59.077 E21.23018
G1 X158.008 Y59.669 E21.24999
G1 X157.532 Y62.83 E21.35631
G1 X157.379 Y63.584 E21.3819
G1 X157.147 Y64.317 E21.40747
G1 X156.815 Y65.075 E21.43499
G1 X155.411 Y67.843 E21.53822
G1 X155.027 Y68.51 E21.56382
G1 X154.577 Y69.134 E21.58941
G1 X154.064 Y69.709 E21.61504
G1 X151.847 Y71.943 E21.71972
G1 X151.277 Y72.46 E21.74532
G1 X150.657 Y72.915 E21.7709
G1 X149.959 Y73.32 E21.79774
G1 X147.192 Y74.733 E21.90107
G1 X146.49 Y75.047 E21.92665
G1 X145.759 Y75.286 E21.95223
G1 X145.014 Y75.447 E21.97758
G1 X141.925 Y75.949 E22.08167
G1 X141.255 Y76.027 E22.1041
G1 X135.988 Y76.396 E22.27971
G1 X136.296 Y80.8 E22.42655
G1 X136.633 Y81.081 E22.44114
G1 X137.188 Y81.613 E22.46671
G1 X137.685 Y82.2 E22.4923
G1 X138.118 Y82.836 E22.51789
G1 X138.483 Y83.513 E22.54347
G1 X138.776 Y84.224 E22.56904
G1 X138.993 Y84.962 E22.59463
G1 X139.132 Y85.718 E22.6202
G1 X139.178 Y86.174 E22.63544
G1 X139.264 Y87.428 E22.67725
G1 X139.276 Y88.197 E22.70283
G1 X139.209 Y88.963 E22.7284
G1 X139.063 Y89.718 E22.75398
G1 X138.839 Y90.454 E22.77957
G1 X138.54 Y91.162 E22.80513
G1 X138.353 Y91.501 E22.818
G1 X138.288 Y91.99 E22.83441
G1 X138.035 Y92.963 E22.86785
G1 X137.951 Y93.215 E22.87668
G1 X137.67 Y93.931 E22.90227
G1 X137.317 Y94.614 E22.92784
G1 X136.894 Y95.257 E22.95344
G1 X136.407 Y95.852 E22.97901
G1 X135.861 Y96.394 E23.0046
G1 X135.261 Y96.876 E23.0302
G1 X134.615 Y97.293 E23.05577
G1 X133.929 Y97.64 E23.08134
G1 X133.211 Y97.915 E23.10691
G1 X132.468 Y98.114 E23.1325
G1 X131.498 Y98.253 E23.16509
G1 X130.119 Y98.359 E23.21109
G1 X125.234 Y98.7 E23.37396
G1 X124.465 Y98.714 E23.39954
G1 X123.699 Y98.647 E23.42512
G1 X122.944 Y98.502 E23.45069
G1 X122.208 Y98.279 E23.47626
G1 X121.499 Y97.981 E23.50184
G1 X120.824 Y97.61 E23.52746
G1 X119.907 Y96.94 E23.56524
G1 X119.782 Y96.833 E23.57071
G1 X119.224 Y96.303 E23.5963
G1 X118.725 Y95.718 E23.62188
G1 X118.289 Y95.084 E23.64747
G1 X117.921 Y94.409 E23.67304
G1 X117.625 Y93.699 E23.69863
G1 X117.404 Y92.962 E23.72422
G1 X117.261 Y92.206 E23.74981
G1 X117.212 Y91.727 E23.76582
G1 X115.38 Y65.526 E24.6394
G1 X115.366 Y64.757 E24.66498
G1 X115.433 Y63.991 E24.69055
G1 X115.578 Y63.236 E24.71612
G1 X115.801 Y62.499 E24.74174
G1 X116.099 Y61.79 E24.76731
G1 X116.469 Y61.116 E24.79289
G1 X117.14 Y60.198 E24.83071
G1 X117.247 Y60.073 E24.83618
G1 X117.777 Y59.515 E24.86178
G1 X118.362 Y59.016 E24.88735
G1 X118.996 Y58.58 E24.91294
G1 X119.671 Y58.212 E24.93851
G1 X120.381 Y57.916 E24.9641
G1 X121.118 Y57.695 E24.98969
G1 X121.874 Y57.552 E25.01528
G1 X122.354 Y57.503 E25.03133
G1 X138.18 Y56.398 E25.55898
G1 X137.971 Y50.424 E25.7578
G1 X137.98 Y49.882 E25.77583
G1 X137.659 Y40.518 E26.08746
G1 X80.956 Y40.521 E27.97341
G1 X80.628 Y49.891 E28.28525
G1 X80.64 Y50.423 E28.30295
G1 X80.432 Y56.397 E28.50176
G1 X96.256 Y57.503 E29.02936
G1 X97.019 Y57.596 E29.05492
G1 X97.769 Y57.769 E29.08052
G1 X98.497 Y58.018 E29.10611
G1 X99.195 Y58.341 E29.13169
G1 X99.855 Y58.735 E29.15726
G1 X100.471 Y59.195 E29.18283
G1 X101.036 Y59.717 E29.20841
G1 X101.447 Y60.172 E29.22881
G1 X101.919 Y60.779 E29.25438
G1 X102.326 Y61.432 E29.27997
G1 X102.662 Y62.124 E29.30556
G1 X102.925 Y62.847 E29.33115
G1 X103.111 Y63.593 E29.35672
G1 X103.219 Y64.355 E29.38232
G1 X103.247 Y65.124 E29.40791
G1 X103.23 Y65.526 E29.42129
G1 X101.398 Y91.727 E30.29487
G1 X101.305 Y92.491 E30.32047
G1 X101.132 Y93.24 E30.34604
G1 X100.883 Y93.968 E30.37163
G1 X100.56 Y94.666 E30.39721
G1 X100.166 Y95.326 E30.42277
G1 X99.706 Y95.943 E30.44837
G1 X99.184 Y96.508 E30.47396
G1 X98.828 Y96.833 E30.48999
G1 X98.703 Y96.94 E30.49546
G1 X98.094 Y97.409 E30.52103
G1 X97.439 Y97.812 E30.54661
G1 X96.745 Y98.145 E30.57221
G1 X96.021 Y98.405 E30.59779
G1 X95.274 Y98.588 E30.62337
G1 X94.512 Y98.692 E30.64895
G1 X93.376 Y98.7 E30.68674
G1 X87.169 Y98.267 E30.89368
G1 X86.406 Y98.174 E30.91925
G1 X85.656 Y98.002 E30.94484
G1 X84.928 Y97.753 E30.97043
G1 X84.23 Y97.43 E30.99601
G1 X83.57 Y97.036 E31.02158
G1 X82.953 Y96.575 E31.0472
G1 X82.388 Y96.054 E31.07276
G1 X81.88 Y95.476 E31.09835
G1 X81.435 Y94.849 E31.12393
G1 X81.057 Y94.179 E31.14951
G1 X80.669 Y93.242 E31.18324
G1 X80.584 Y92.989 E31.19212
G1 X80.378 Y92.248 E31.2177
G1 X80.249 Y91.492 E31.24321
G1 X79.927 Y90.829 E31.26772
G1 X79.665 Y90.105 E31.29333
G1 X79.479 Y89.359 E31.3189
G1 X79.372 Y88.597 E31.3445
G1 X79.355 Y87.523 E31.38022
G1 X79.427 Y86.268 E31.42203
G1 X79.511 Y85.504 E31.4476
G1 X79.674 Y84.752 E31.47319
G1 X79.914 Y84.021 E31.49878
G1 X80.228 Y83.319 E31.52436
G1 X80.614 Y82.654 E31.54993
G1 X81.067 Y82.032 E31.57552
G1 X81.581 Y81.46 E31.6011
G1 X81.929 Y81.134 E31.61696
G1 X82.053 Y81.025 E31.62245
G1 X82.3 Y80.83 E31.63292
G1 X82.615 Y76.397 E31.78073
G1 X77.401 Y76.032 E31.95457
G1 X76.765 Y75.96 E31.97586
G1 X73.677 Y75.473 E32.07984
G1 X72.925 Y75.314 E32.1054
G1 X72.193 Y75.077 E32.131
G1 X71.483 Y74.763 E32.15682
G1 X68.714 Y73.359 E32.26008
G1 X68.047 Y72.976 E32.28566
G1 X67.424 Y72.526 E32.31122
G1 X66.846 Y72.009 E32.33701
G1 X64.629 Y69.807 E32.44094
G1 X64.112 Y69.238 E32.46651
G1 X63.658 Y68.617 E32.4921
G1 X63.263 Y67.94 E32.51817
G1 X61.824 Y65.141 E32.62284
G1 X61.508 Y64.44 E32.64842
G1 X61.267 Y63.71 E32.67399
G1 X61.098 Y62.928 E32.7006
G1 X60.605 Y59.85 E32.80428
G1 X60.523 Y59.086 E32.82983
G1 X60.517 Y58.421 E32.85195
G1 X61.236 Y37.885 E33.5354
G1 X61.321 Y36.993 E33.5652
G1 X61.809 Y33.894 E33.66955
G1 X61.968 Y33.141 E33.69514
G1 X62.204 Y32.409 E33.72072
G1 X62.519 Y31.698 E33.74659
G0 F6000 X62.876 Y31.879
G1 F1200 X64.28 Y29.11 E33.84985
G1 X64.653 Y28.462 E33.87472
G1 X65.094 Y27.858 E33.89959
G1 X65.555 Y27.344 E33.92255
G1 X67.756 Y25.127 E34.02646
G1 X68.311 Y24.625 E34.05135
G1 X68.916 Y24.185 E34.07623
G1 X69.523 Y23.834 E34.09955
G1 X72.306 Y22.403 E34.20364
G1 X72.989 Y22.097 E34.22853
G1 X73.7 Y21.865 E34.2534
G1 X74.385 Y21.719 E34.2767
G1 X77.501 Y21.213 E34.38169
G1 X78.245 Y21.132 E34.40659
G1 X78.623 Y21.122 E34.41916
G1 X139.966 Y21.121 E36.45944
G1 X141.058 Y21.207 E36.49587
G1 X144.148 Y21.695 E36.59992
G1 X144.88 Y21.851 E36.62481
G1 X145.59 Y22.084 E36.64967
G1 X146.224 Y22.367 E36.67276
G1 X148.992 Y23.772 E36.776
G1 X149.64 Y24.146 E36.80089
G1 X150.245 Y24.587 E36.82579
G1 X150.755 Y25.045 E36.84859
G1 X152.989 Y27.262 E36.95327
G1 X153.491 Y27.817 E36.97816
G1 X153.931 Y28.422 E37.00304
G1 X154.291 Y29.045 E37.02697
G1 X155.714 Y31.829 E37.13096
G1 X156.018 Y32.512 E37.15583
G1 X156.248 Y33.224 E37.18071
G1 X156.393 Y33.906 E37.20391
G1 X156.887 Y36.986 E37.30766
G1 X156.971 Y37.85 E37.33653
G1 X157.687 Y58.322 E38.01785
G1 X157.673 Y59.07 E38.04273
G1 X157.613 Y59.609 E38.06077
G1 X157.137 Y62.77 E38.16709
G1 X156.986 Y63.503 E38.19198
G1 X156.758 Y64.216 E38.21688
G1 X156.458 Y64.895 E38.24157
G1 X155.054 Y67.663 E38.3448
G1 X154.68 Y68.311 E38.36968
G1 X154.24 Y68.915 E38.39453
G1 X153.78 Y69.427 E38.41743
G1 X151.563 Y71.661 E38.52211
G1 X151.008 Y72.163 E38.547
G1 X150.403 Y72.603 E38.57188
G1 X149.778 Y72.964 E38.59589
G1 X147.011 Y74.377 E38.69922
G1 X146.327 Y74.681 E38.72412
G1 X145.615 Y74.911 E38.749
G1 X144.95 Y75.052 E38.77161
