;FLAVOR:Marlin
;TIME:33273
;Filament used: 23.8081m
;Layer height: 0.2
;MINX:42.95
;MINY:12.95
;MINZ:0.2
;MAXX:177.05
;MAXY:207.05
;MAXZ:19.6
;Generated with Cura_SteamEngine 4.5.0
M140 S60
M105
M190 S60
M104 S190
M105
M109 S190
M82 ;absolute extrusion mode
M201 X500.00 Y500.00 Z100.00 E5000.00 ;Setup machine max acceleration
M203 X500.00 Y500.00 Z10.00 E50.00 ;Setup machine max feedrate
M204 P500.00 R1000.00 T500.00 ;Setup Print/Retract/Travel acceleration
M205 X8.00 Y8.00 Z0.40 E5.00 ;Setup Jerk
M220 S100 ;Reset Feedrate
M221 S100 ;Reset Flowrate

G28 ;Home
M420 S1 Z2 ;Enable ABL using saved Mesh and Fade Height
G29     ;autobedlevel
G92 E0 ;Reset Extruder
G1 Z2.0 F3000 ;Move Z Axis up
G1 X10.1 Y20 Z0.28 F5000.0 ;Move to start position
G1 X10.1 Y200.0 Z0.28 F1500.0 E15 ;Draw the first line
G1 X10.4 Y200.0 Z0.28 F5000.0 ;Move to side a little
G1 X10.4 Y20 Z0.28 F1500.0 E30 ;Draw the second line
G92 E0 ;Reset Extruder
G92 E0
G92 E0
G1 F1500 E-6.5
;LAYER_COUNT:98
;LAYER:0
M107
G0 F6000 X43.581 Y17.793 Z0.2
;TYPE:SKIRT
G1 F1500 E0
G1 F1200 X43.929 Y17.084 E0.02627
G1 X44.347 Y16.413 E0.05256
G1 X44.83 Y15.789 E0.07881
G1 X45.235 Y15.352 E0.09862
G1 X45.352 Y15.235 E0.10413
G1 X45.938 Y14.705 E0.13041
G1 X46.574 Y14.238 E0.15665
G1 X47.254 Y13.837 E0.18291
G1 X47.972 Y13.507 E0.20919
G1 X48.719 Y13.252 E0.23544
G1 X49.488 Y13.073 E0.2617
G1 X50.272 Y12.973 E0.28799
G1 X50.867 Y12.95 E0.3078
G1 X169.133 Y12.95 E4.24134
G1 X169.922 Y12.99 E4.26761
G1 X170.702 Y13.109 E4.29386
G1 X171.467 Y13.307 E4.32014
G1 X172.207 Y13.581 E4.34639
G1 X172.916 Y13.929 E4.37265
G1 X173.587 Y14.347 E4.39895
G1 X174.211 Y14.83 E4.42519
G1 X174.648 Y15.235 E4.44501
G1 X174.765 Y15.352 E4.45051
G1 X175.295 Y15.938 E4.47679
G1 X175.762 Y16.574 E4.50304
G1 X176.163 Y17.254 E4.52929
G1 X176.493 Y17.972 E4.55558
G1 X176.748 Y18.719 E4.58183
G1 X176.927 Y19.488 E4.60809
G1 X177.027 Y20.272 E4.63438
G1 X177.05 Y20.867 E4.65418
G1 X177.05 Y21.319 E4.66922
G1 X177.01 Y22.108 E4.69549
G1 X176.891 Y22.888 E4.72173
G1 X176.693 Y23.653 E4.74802
G1 X176.419 Y24.393 E4.77426
G1 X176.071 Y25.102 E4.80053
G1 X175.653 Y25.773 E4.82682
G1 X175.17 Y26.397 E4.85307
G1 X174.627 Y26.97 E4.87933
G1 X174.028 Y27.485 E4.9056
G1 X173.38 Y27.936 E4.93186
G1 X173.128 Y28.071 E4.94137
G1 X173.129 Y191.915 E10.39084
G1 X173.813 Y192.355 E10.41789
G1 X174.429 Y192.848 E10.44413
G1 X174.992 Y193.402 E10.4704
G1 X175.496 Y194.01 E10.49667
G1 X175.937 Y194.665 E10.52293
G1 X176.309 Y195.362 E10.54921
G1 X176.608 Y196.093 E10.57548
G1 X176.832 Y196.85 E10.60174
G1 X176.978 Y197.626 E10.628
G1 X177.05 Y198.681 E10.66317
G1 X177.05 Y199.133 E10.6782
G1 X177.01 Y199.922 E10.70448
G1 X176.891 Y200.702 E10.73072
G1 X176.693 Y201.467 E10.75701
G1 X176.419 Y202.207 E10.78325
G1 X176.071 Y202.916 E10.80952
G1 X175.653 Y203.587 E10.83581
G1 X175.17 Y204.211 E10.86206
G1 X174.765 Y204.648 E10.88188
G1 X174.648 Y204.765 E10.88738
G1 X174.062 Y205.295 E10.91366
G1 X173.426 Y205.762 E10.9399
G1 X172.746 Y206.163 E10.96616
G1 X172.028 Y206.493 E10.99244
G1 X171.281 Y206.748 E11.01869
G1 X170.512 Y206.927 E11.04496
G1 X169.728 Y207.027 E11.07124
G1 X169.133 Y207.05 E11.09105
G1 X50.867 Y207.05 E15.02459
G1 X50.078 Y207.01 E15.05087
G1 X49.298 Y206.891 E15.07711
G1 X48.533 Y206.693 E15.10339
G1 X47.793 Y206.419 E15.12964
G1 X47.084 Y206.071 E15.15591
G1 X46.413 Y205.653 E15.1822
G1 X45.789 Y205.17 E15.20845
G1 X45.352 Y204.765 E15.22826
G1 X45.235 Y204.648 E15.23377
G1 X44.705 Y204.062 E15.26004
G1 X44.238 Y203.426 E15.28629
G1 X43.837 Y202.746 E15.31255
G1 X43.507 Y202.028 E15.33883
G1 X43.252 Y201.281 E15.36508
G1 X43.073 Y200.512 E15.39134
G1 X42.973 Y199.728 E15.41763
G1 X42.95 Y199.133 E15.43743
G1 X42.95 Y198.683 E15.4524
G1 X42.99 Y197.894 E15.47868
G1 X43.109 Y197.114 E15.50492
G1 X43.307 Y196.349 E15.5312
G1 X43.581 Y195.609 E15.55745
G1 X43.929 Y194.9 E15.58372
G1 X44.347 Y194.229 E15.61001
G1 X44.83 Y193.605 E15.63625
G1 X45.373 Y193.032 E15.66251
G1 X45.972 Y192.517 E15.68878
G1 X46.62 Y192.066 E15.71504
G1 X46.872 Y191.931 E15.72455
G1 X46.871 Y28.083 E21.17416
G1 X46.187 Y27.643 E21.20121
G1 X45.571 Y27.15 E21.22745
G1 X45.008 Y26.596 E21.25372
G1 X44.504 Y25.988 E21.27999
G1 X44.063 Y25.333 E21.30625
G1 X43.691 Y24.636 E21.33253
G1 X43.392 Y23.905 E21.3588
G1 X43.168 Y23.148 E21.38505
G1 X43.022 Y22.372 E21.41132
G1 X42.95 Y21.317 E21.44649
G1 X42.95 Y20.867 E21.46146
G1 X42.99 Y20.078 E21.48773
G1 X43.109 Y19.298 E21.51397
G1 X43.307 Y18.533 E21.54026
G1 X43.581 Y17.793 E21.5665
G0 F6000 X43.981 Y17.877
G1 F1200 X44.328 Y17.191 E21.59207
G1 X44.744 Y16.544 E21.61766
G1 X45.225 Y15.944 E21.64323
G1 X45.634 Y15.517 E21.6629
G1 X46.206 Y15.003 E21.68848
G1 X46.828 Y14.55 E21.71407
G1 X47.493 Y14.164 E21.73964
G1 X48.195 Y13.849 E21.76523
G1 X48.926 Y13.609 E21.79082
G1 X49.677 Y13.446 E21.81638
G1 X50.442 Y13.362 E21.84198
G1 X50.867 Y13.35 E21.85612
G1 X169.133 Y13.35 E25.78967
G1 X169.901 Y13.39 E25.81524
G1 X170.661 Y13.509 E25.84083
G1 X171.404 Y13.707 E25.8664
G1 X172.123 Y13.981 E25.892
G1 X172.809 Y14.328 E25.91757
G1 X173.456 Y14.744 E25.94315
G1 X174.056 Y15.225 E25.96873
G1 X174.483 Y15.634 E25.98839
G1 X174.997 Y16.206 E26.01397
G1 X175.45 Y16.828 E26.03956
G1 X175.836 Y17.493 E26.06514
G1 X176.151 Y18.195 E26.09073
G1 X176.391 Y18.926 E26.11632
G1 X176.554 Y19.677 E26.14188
G1 X176.638 Y20.442 E26.16747
G1 X176.65 Y20.867 E26.18162
G1 X176.65 Y21.319 E26.19665
G1 X176.61 Y22.087 E26.22223
G1 X176.491 Y22.847 E26.24781
G1 X176.293 Y23.59 E26.27339
G1 X176.019 Y24.309 E26.29898
G1 X175.672 Y24.995 E26.32455
G1 X175.256 Y25.642 E26.35013
G1 X174.775 Y26.242 E26.37571
G1 X174.234 Y26.789 E26.4013
G1 X173.639 Y27.277 E26.42689
G1 X172.997 Y27.7 E26.45246
G1 X172.728 Y27.839 E26.46254
G1 X172.729 Y192.066 E31.92475
G1 X172.729 Y192.16 E31.92787
G1 X172.967 Y192.282 E31.93677
G1 X173.611 Y192.703 E31.96236
G1 X174.208 Y193.188 E31.98794
G1 X174.751 Y193.732 E32.01351
G1 X175.235 Y194.33 E32.03909
G1 X175.655 Y194.974 E32.06467
G1 X176.005 Y195.659 E32.09025
G1 X176.282 Y196.377 E32.11585
G1 X176.483 Y197.119 E32.14142
G1 X176.606 Y197.878 E32.16699
G1 X176.65 Y198.681 E32.19374
G1 X176.65 Y199.133 E32.20877
G1 X176.61 Y199.901 E32.23435
G1 X176.491 Y200.661 E32.25994
G1 X176.293 Y201.404 E32.28551
G1 X176.019 Y202.123 E32.3111
G1 X175.672 Y202.809 E32.33667
G1 X175.256 Y203.456 E32.36226
G1 X174.775 Y204.056 E32.38783
G1 X174.366 Y204.483 E32.4075
G1 X173.794 Y204.997 E32.43308
G1 X173.172 Y205.45 E32.45867
G1 X172.507 Y205.836 E32.48424
G1 X171.805 Y206.151 E32.50983
G1 X171.074 Y206.391 E32.53542
G1 X170.323 Y206.554 E32.56098
G1 X169.558 Y206.638 E32.58658
G1 X169.133 Y206.65 E32.60072
G1 X50.867 Y206.65 E36.53427
G1 X50.099 Y206.61 E36.55984
G1 X49.339 Y206.491 E36.58543
G1 X48.596 Y206.293 E36.611
G1 X47.877 Y206.019 E36.6366
G1 X47.191 Y205.672 E36.66217
G1 X46.544 Y205.256 E36.68775
G1 X45.944 Y204.775 E36.71333
G1 X45.517 Y204.366 E36.73299
G1 X45.003 Y203.794 E36.75857
G1 X44.55 Y203.172 E36.78416
G1 X44.164 Y202.507 E36.80974
G1 X43.849 Y201.805 E36.83533
G1 X43.609 Y201.074 E36.86092
G1 X43.446 Y200.323 E36.88648
G1 X43.362 Y199.558 E36.91207
G1 X43.35 Y199.133 E36.92622
G1 X43.35 Y198.683 E36.94118
G1 X43.39 Y197.915 E36.96676
G1 X43.509 Y197.155 E36.99235
G1 X43.707 Y196.412 E37.01792
G1 X43.981 Y195.693 E37.04351
G1 X44.328 Y195.007 E37.06908
G1 X44.744 Y194.36 E37.09467
G1 X45.225 Y193.76 E37.12024
G1 X45.766 Y193.213 E37.14583
G1 X46.361 Y192.725 E37.17143
G1 X47.003 Y192.302 E37.197
G1 X47.272 Y192.163 E37.20707
G1 X47.271 Y27.838 E42.67254
G1 X47.033 Y27.716 E42.68144
G1 X46.389 Y27.295 E42.70703
G1 X45.792 Y26.81 E42.73261
G1 X45.249 Y26.266 E42.75817
G1 X44.765 Y25.668 E42.78376
G1 X44.345 Y25.024 E42.80933
G1 X43.995 Y24.339 E42.83492
G1 X43.718 Y23.621 E42.86051
G1 X43.517 Y22.879 E42.88608
G1 X43.394 Y22.12 E42.91166
G1 X43.35 Y21.317 E42.9384
G1 X43.35 Y20.867 E42.95337
G1 X43.39 Y20.099 E42.97895
G1 X43.509 Y19.339 E43.00454
G1 X43.707 Y18.596 E43.03011
G1 X43.981 Y17.877 E43.0557
G0 F6000 X44.38 Y17.964
G1 F1200 X44.727 Y17.301 E43.08059
G1 X45.142 Y16.678 E43.10549
G1 X45.8 Y15.917 E43.13895
G1 X45.917 Y15.8 E43.14445
G1 X46.474 Y15.3 E43.16935
G1 X47.08 Y14.863 E43.1942
G1 X47.73 Y14.492 E43.21909
G1 X48.416 Y14.193 E43.24398
G1 X49.13 Y13.969 E43.26887
G1 X49.863 Y13.822 E43.29373
G1 X50.867 Y13.75 E43.32721
G1 X169.133 Y13.75 E47.26076
G1 X169.88 Y13.79 E47.28564
G1 X170.618 Y13.909 E47.3105
G1 X171.34 Y14.107 E47.3354
G1 X172.036 Y14.38 E47.36027
G1 X172.699 Y14.727 E47.38516
G1 X173.322 Y15.142 E47.41005
G1 X174.083 Y15.8 E47.44351
G1 X174.2 Y15.917 E47.44902
G1 X174.7 Y16.474 E47.47391
G1 X175.137 Y17.08 E47.49876
G1 X175.508 Y17.73 E47.52365
G1 X175.807 Y18.416 E47.54854
G1 X176.031 Y19.13 E47.57343
G1 X176.178 Y19.863 E47.5983
G1 X176.25 Y20.867 E47.63178
G1 X176.25 Y21.319 E47.64681
G1 X176.21 Y22.066 E47.67169
G1 X176.091 Y22.804 E47.69655
G1 X175.893 Y23.526 E47.72146
G1 X175.62 Y24.222 E47.74632
G1 X175.273 Y24.885 E47.77121
G1 X174.858 Y25.508 E47.79611
G1 X174.379 Y26.082 E47.82097
G1 X173.842 Y26.603 E47.84586
G1 X173.252 Y27.062 E47.87072
G1 X172.616 Y27.457 E47.89562
G1 X172.328 Y27.6 E47.90632
G1 X172.329 Y192.066 E53.37648
G1 X172.329 Y192.404 E53.38772
G1 X172.784 Y192.638 E53.40474
G1 X173.408 Y193.05 E53.42961
G1 X173.986 Y193.526 E53.45451
G1 X174.509 Y194.061 E53.4794
G1 X174.972 Y194.648 E53.50426
G1 X175.369 Y195.282 E53.52914
G1 X175.697 Y195.954 E53.55401
G1 X175.951 Y196.658 E53.57891
G1 X176.129 Y197.384 E53.60377
G1 X176.228 Y198.126 E53.62867
G1 X176.25 Y198.681 E53.64714
G1 X176.25 Y199.133 E53.66217
G1 X176.21 Y199.88 E53.68705
G1 X176.091 Y200.618 E53.71192
G1 X175.893 Y201.34 E53.73682
G1 X175.62 Y202.036 E53.76168
G1 X175.273 Y202.699 E53.78657
G1 X174.858 Y203.322 E53.81147
G1 X174.2 Y204.083 E53.84493
G1 X174.083 Y204.2 E53.85043
G1 X173.526 Y204.7 E53.87533
G1 X172.92 Y205.137 E53.90018
G1 X172.27 Y205.508 E53.92507
G1 X171.584 Y205.807 E53.94996
G1 X170.87 Y206.031 E53.97485
G1 X170.137 Y206.178 E53.99972
G1 X169.133 Y206.25 E54.03319
G1 X50.867 Y206.25 E57.96674
G1 X50.12 Y206.21 E57.99162
G1 X49.382 Y206.091 E58.01648
G1 X48.66 Y205.893 E58.04138
G1 X47.964 Y205.62 E58.06625
G1 X47.301 Y205.273 E58.09114
G1 X46.678 Y204.858 E58.11603
G1 X45.917 Y204.2 E58.14949
G1 X45.8 Y204.083 E58.155
G1 X45.3 Y203.526 E58.17989
G1 X44.863 Y202.92 E58.20474
G1 X44.492 Y202.27 E58.22964
G1 X44.193 Y201.584 E58.25453
G1 X43.969 Y200.87 E58.27941
G1 X43.822 Y200.137 E58.30428
G1 X43.75 Y199.133 E58.33776
G1 X43.75 Y198.683 E58.35273
G1 X43.79 Y197.936 E58.37761
G1 X43.909 Y197.198 E58.40247
G1 X44.107 Y196.476 E58.42737
G1 X44.38 Y195.78 E58.45224
G1 X44.727 Y195.117 E58.47713
G1 X45.142 Y194.494 E58.50202
G1 X45.621 Y193.92 E58.52689
G1 X46.158 Y193.399 E58.55177
G1 X46.748 Y192.94 E58.57664
G1 X47.384 Y192.545 E58.60154
G1 X47.672 Y192.402 E58.61223
G1 X47.671 Y27.594 E64.09377
G1 X47.216 Y27.36 E64.11079
G1 X46.592 Y26.948 E64.13566
G1 X46.014 Y26.472 E64.16056
G1 X45.491 Y25.937 E64.18544
G1 X45.028 Y25.35 E64.21031
G1 X44.631 Y24.716 E64.23519
G1 X44.303 Y24.044 E64.26006
G1 X44.049 Y23.34 E64.28495
G1 X43.871 Y22.614 E64.30982
G1 X43.772 Y21.872 E64.33471
G1 X43.75 Y21.317 E64.35319
G1 X43.75 Y20.867 E64.36815
G1 X43.79 Y20.12 E64.39304
G1 X43.909 Y19.382 E64.4179
G1 X44.107 Y18.66 E64.4428
G1 X44.38 Y17.964 E64.46766
G0 F6000 X44.78 Y18.053
G1 F1200 X45.125 Y17.414 E64.49182
G1 X45.539 Y16.817 E64.51598
G1 X46.083 Y16.2 E64.54334
G1 X46.2 Y16.083 E64.54884
G1 X46.741 Y15.599 E64.57299
G1 X47.332 Y15.176 E64.59716
G1 X47.966 Y14.822 E64.62131
G1 X48.635 Y14.539 E64.64547
G1 X49.331 Y14.331 E64.66963
G1 X50.046 Y14.201 E64.6938
G1 X50.867 Y14.15 E64.72116
G1 X169.133 Y14.15 E68.65471
G1 X169.858 Y14.19 E68.67886
G1 X170.575 Y14.309 E68.70303
G1 X171.274 Y14.507 E68.72719
G1 X171.947 Y14.78 E68.75135
G1 X172.586 Y15.125 E68.7755
G1 X173.183 Y15.539 E68.79967
G1 X173.8 Y16.083 E68.82702
G1 X173.917 Y16.2 E68.83253
G1 X174.401 Y16.741 E68.85667
G1 X174.824 Y17.332 E68.88084
G1 X175.178 Y17.966 E68.905
G1 X175.461 Y18.635 E68.92916
G1 X175.669 Y19.331 E68.95332
G1 X175.799 Y20.046 E68.97749
G1 X175.85 Y20.867 E69.00485
G1 X175.85 Y21.319 E69.01988
G1 X175.81 Y22.044 E69.04403
G1 X175.691 Y22.761 E69.0682
G1 X175.493 Y23.46 E69.09237
G1 X175.22 Y24.133 E69.11652
G1 X174.875 Y24.772 E69.14068
G1 X174.461 Y25.369 E69.16484
G1 X173.985 Y25.917 E69.18898
G1 X173.451 Y26.41 E69.21315
G1 X172.866 Y26.84 E69.2373
G1 X171.955 Y27.339 E69.27185
G1 X171.928 Y27.351 E69.27283
G1 X171.929 Y192.066 E74.75128
G1 X171.929 Y192.649 E74.77067
G1 X172.6 Y192.994 E74.79576
G1 X173.205 Y193.397 E74.81994
G1 X173.761 Y193.863 E74.84407
G1 X174.263 Y194.388 E74.86823
G1 X174.705 Y194.965 E74.8924
G1 X175.08 Y195.587 E74.91656
G1 X175.385 Y196.247 E74.94074
G1 X175.615 Y196.935 E74.96487
G1 X175.768 Y197.645 E74.98903
G1 X175.85 Y198.681 E75.02359
G1 X175.85 Y199.133 E75.03862
G1 X175.81 Y199.858 E75.06278
G1 X175.691 Y200.575 E75.08695
G1 X175.493 Y201.274 E75.11111
G1 X175.22 Y201.947 E75.13527
G1 X174.875 Y202.586 E75.15942
G1 X174.461 Y203.183 E75.18358
G1 X173.917 Y203.8 E75.21094
G1 X173.8 Y203.917 E75.21645
G1 X173.259 Y204.401 E75.24059
G1 X172.668 Y204.824 E75.26476
G1 X172.034 Y205.178 E75.28891
G1 X171.365 Y205.461 E75.31307
G1 X170.669 Y205.669 E75.33724
G1 X169.954 Y205.799 E75.36141
G1 X169.133 Y205.85 E75.38877
G1 X50.867 Y205.85 E79.32231
G1 X50.142 Y205.81 E79.34646
G1 X49.425 Y205.691 E79.37063
G1 X48.726 Y205.493 E79.3948
G1 X48.053 Y205.22 E79.41895
G1 X47.414 Y204.875 E79.4431
G1 X46.817 Y204.461 E79.46727
G1 X46.2 Y203.917 E79.49463
G1 X46.083 Y203.8 E79.50013
G1 X45.599 Y203.259 E79.52427
G1 X45.176 Y202.668 E79.54845
G1 X44.822 Y202.034 E79.5726
G1 X44.539 Y201.365 E79.59676
G1 X44.331 Y200.669 E79.62092
G1 X44.201 Y199.954 E79.64509
G1 X44.15 Y199.133 E79.67245
G1 X44.15 Y198.683 E79.68742
G1 X44.19 Y197.958 E79.71157
G1 X44.309 Y197.241 E79.73574
G1 X44.507 Y196.542 E79.7599
G1 X44.78 Y195.869 E79.78406
G1 X45.125 Y195.23 E79.80821
G1 X45.539 Y194.633 E79.83238
G1 X46.015 Y194.085 E79.85652
G1 X46.549 Y193.592 E79.88069
G1 X47.134 Y193.162 E79.90484
G1 X48.045 Y192.663 E79.93939
G1 X48.071 Y192.651 E79.94034
G1 X48.072 Y192.061 E79.95996
G1 X48.071 Y27.349 E85.43831
G1 X47.4 Y27.004 E85.4634
G1 X46.795 Y26.601 E85.48758
G1 X46.239 Y26.135 E85.51171
G1 X45.737 Y25.61 E85.53587
G1 X45.295 Y25.033 E85.56004
G1 X44.92 Y24.411 E85.5842
G1 X44.615 Y23.751 E85.60838
G1 X44.385 Y23.063 E85.63251
G1 X44.232 Y22.353 E85.65667
G1 X44.15 Y21.317 E85.69123
G1 X44.15 Y20.867 E85.7062
G1 X44.19 Y20.142 E85.73035
G1 X44.309 Y19.425 E85.75452
G1 X44.507 Y18.726 E85.77869
G1 X44.78 Y18.053 E85.80284
G0 F6000 X45.179 Y18.146
G1 F1200 X45.524 Y17.532 E85.82627
G1 X45.935 Y16.961 E85.84967
G1 X46.366 Y16.483 E85.87107
G1 X46.483 Y16.366 E85.87658
G1 X47.008 Y15.897 E85.89999
G1 X47.583 Y15.491 E85.9234
G1 X48.201 Y15.153 E85.94683
G1 X48.852 Y14.886 E85.97023
G1 X49.53 Y14.696 E85.99365
G1 X50.225 Y14.583 E86.01707
G1 X50.867 Y14.55 E86.03845
G1 X169.133 Y14.55 E89.97199
G1 X169.836 Y14.59 E89.99541
G1 X170.53 Y14.709 E90.01883
G1 X171.205 Y14.907 E90.04223
G1 X171.854 Y15.179 E90.06564
G1 X172.468 Y15.524 E90.08906
G1 X173.039 Y15.935 E90.11246
G1 X173.517 Y16.366 E90.13387
G1 X173.634 Y16.483 E90.13937
G1 X174.103 Y17.008 E90.16278
G1 X174.509 Y17.583 E90.1862
G1 X174.847 Y18.201 E90.20962
G1 X175.114 Y18.852 E90.23303
G1 X175.304 Y19.53 E90.25645
G1 X175.417 Y20.225 E90.27987
G1 X175.45 Y20.867 E90.30125
G1 X175.45 Y21.319 E90.31628
G1 X175.41 Y22.022 E90.3397
G1 X175.291 Y22.716 E90.36312
G1 X175.093 Y23.391 E90.38652
G1 X174.821 Y24.04 E90.40992
G1 X174.476 Y24.654 E90.43335
G1 X174.065 Y25.225 E90.45675
G1 X173.591 Y25.746 E90.48017
G1 X173.061 Y26.21 E90.5036
G1 X172.482 Y26.61 E90.52701
G1 X171.722 Y27.005 E90.5555
G1 X171.528 Y27.079 E90.5624
G1 X171.529 Y192.066 E96.04989
G1 X171.528 Y192.916 E96.07816
G1 X171.791 Y193.026 E96.08764
G1 X172.416 Y193.35 E96.11106
G1 X173 Y193.743 E96.13447
