;FLAVOR:Marlin
;TIME:11165
;Filament used: 6.59849m
;Layer height: 0.2
;MINX:87.142
;MINY:15.005
;MINZ:0.2
;MAXX:133.254
;MAXY:170.911
;MAXZ:24.6
;Generated with Cura_SteamEngine 4.5.0
M140 S60
M105
M190 S60
M104 S190
M105
M109 S190
M82 ;absolute extrusion mode
M201 X500.00 Y500.00 Z100.00 E5000.00 ;Setup machine max acceleration
M203 X500.00 Y500.00 Z10.00 E50.00 ;Setup machine max feedrate
M204 P500.00 R1000.00 T500.00 ;Setup Print/Retract/Travel acceleration
M205 X8.00 Y8.00 Z0.40 E5.00 ;Setup Jerk
M220 S100 ;Reset Feedrate
M221 S100 ;Reset Flowrate

G28 ;Home
M420 S1 Z2 ;Enable ABL using saved Mesh and Fade Height
G29     ;autobedlevel
G92 E0 ;Reset Extruder
G1 Z2.0 F3000 ;Move Z Axis up
G1 X10.1 Y20 Z0.28 F5000.0 ;Move to start position
G1 X10.1 Y200.0 Z0.28 F1500.0 E15 ;Draw the first line
G1 X10.4 Y200.0 Z0.28 F5000.0 ;Move to side a little
G1 X10.4 Y20 Z0.28 F1500.0 E30 ;Draw the second line
G92 E0 ;Reset Extruder
G92 E0
G92 E0
G1 F1500 E-6.5
;LAYER_COUNT:123
;LAYER:0
M107
G0 F6000 X88.121 Y31.362 Z0.2
;TYPE:SKIRT
G1 F1500 E0
G1 F1200 X88.288 Y30.922 E0.01565
G1 X89.771 Y27.361 E0.14395
G1 X90.112 Y26.649 E0.17021
G1 X90.522 Y25.974 E0.19648
G1 X90.776 Y25.622 E0.21091
G1 X93.186 Y22.47 E0.34288
G1 X93.696 Y21.868 E0.36913
G1 X94.266 Y21.321 E0.3954
G1 X94.635 Y21.019 E0.41126
G1 X97.765 Y18.618 E0.54247
G1 X98.415 Y18.17 E0.56872
G1 X99.107 Y17.79 E0.59498
G1 X99.521 Y17.603 E0.61009
G1 X103.167 Y16.089 E0.7414
G1 X103.91 Y15.824 E0.76763
G1 X104.677 Y15.635 E0.79391
G1 X105.18 Y15.555 E0.81085
G1 X109.056 Y15.065 E0.94079
G1 X109.843 Y15.005 E0.96704
G1 X110.633 Y15.026 E0.99333
G1 X111.067 Y15.072 E1.00784
G1 X114.989 Y15.596 E1.13945
G1 X115.765 Y15.74 E1.1657
G1 X116.523 Y15.962 E1.19197
G1 X116.917 Y16.111 E1.20598
G1 X120.67 Y17.651 E1.3409
G1 X121.385 Y17.987 E1.36718
G1 X122.061 Y18.394 E1.39342
G1 X122.455 Y18.677 E1.40956
G1 X125.47 Y20.989 E1.53593
G1 X126.072 Y21.501 E1.56221
G1 X126.619 Y22.071 E1.58849
G1 X126.922 Y22.443 E1.60445
G1 X129.364 Y25.639 E1.73822
G1 X129.811 Y26.29 E1.76449
G1 X130.19 Y26.983 E1.79076
G1 X130.373 Y27.391 E1.80563
G1 X131.877 Y31.024 E1.93641
G1 X132.142 Y31.768 E1.96268
G1 X132.33 Y32.535 E1.98895
G1 X132.401 Y32.976 E2.0038
G1 X132.932 Y36.955 E2.13732
G1 X132.997 Y37.742 E2.16358
G1 X132.982 Y38.532 E2.18986
G1 X132.936 Y38.994 E2.2053
G1 X132.438 Y42.821 E2.33366
G1 X132.296 Y43.597 E2.3599
G1 X132.077 Y44.356 E2.38618
G1 X131.908 Y44.803 E2.40207
G1 X130.382 Y48.481 E2.53451
G1 X130.042 Y49.194 E2.56079
G1 X129.633 Y49.869 E2.58704
G1 X129.372 Y50.232 E2.60191
G1 X126.984 Y53.353 E2.73261
G1 X126.473 Y53.955 E2.75888
G1 X125.903 Y54.502 E2.78515
G1 X125.539 Y54.8 E2.8008
G1 X122.37 Y57.233 E2.93368
G1 X121.72 Y57.681 E2.95994
G1 X121.028 Y58.062 E2.98621
G1 X120.604 Y58.253 E3.00168
G1 X117.01 Y59.741 E3.13105
G1 X116.266 Y60.006 E3.15732
G1 X115.499 Y60.194 E3.18359
G1 X115.042 Y60.268 E3.19899
G1 X111.176 Y60.776 E3.32868
G1 X110.389 Y60.839 E3.35494
G1 X109.6 Y60.822 E3.38118
G1 X109.132 Y60.774 E3.39683
G1 X105.027 Y60.228 E3.53457
G1 X104.25 Y60.084 E3.56085
G1 X103.492 Y59.863 E3.58711
G1 X103.053 Y59.695 E3.60274
G1 X99.453 Y58.194 E3.73247
G1 X98.741 Y57.854 E3.75871
G1 X98.066 Y57.443 E3.785
G1 X97.722 Y57.195 E3.7991
G1 X94.598 Y54.81 E3.92983
G1 X93.995 Y54.299 E3.95612
G1 X93.447 Y53.731 E3.98237
G1 X93.136 Y53.35 E3.99872
G1 X90.788 Y50.281 E4.12725
G1 X90.341 Y49.63 E4.15351
G1 X89.961 Y48.937 E4.1798
G1 X89.778 Y48.528 E4.1947
G1 X88.217 Y44.763 E4.33026
G1 X87.952 Y44.02 E4.3565
G1 X87.763 Y43.253 E4.38277
G1 X87.688 Y42.785 E4.39854
G1 X87.205 Y39.083 E4.52271
G1 X87.142 Y38.296 E4.54897
G1 X87.16 Y37.506 E4.57525
G1 X87.207 Y37.05 E4.5905
G1 X87.757 Y32.897 E4.72984
G1 X87.9 Y32.12 E4.75611
G1 X88.121 Y31.362 E4.78237
G0 F6000 X88.512 Y31.456
G1 F1200 X88.658 Y31.076 E4.79591
G1 X90.141 Y27.515 E4.92421
G1 X90.473 Y26.821 E4.9498
G1 X91.093 Y25.865 E4.9877
G1 X93.503 Y22.713 E5.11967
G1 X94.002 Y22.127 E5.14527
G1 X94.558 Y21.596 E5.17084
G1 X94.878 Y21.337 E5.18453
G1 X98.008 Y18.936 E5.31574
G1 X98.642 Y18.5 E5.34133
G1 X99.317 Y18.132 E5.3669
G1 X99.674 Y17.973 E5.3799
G1 X103.32 Y16.459 E5.5112
G1 X104.045 Y16.201 E5.5368
G1 X104.792 Y16.02 E5.56236
G1 X105.23 Y15.951 E5.57711
G1 X109.106 Y15.461 E5.70705
G1 X109.873 Y15.405 E5.73263
G1 X111.014 Y15.468 E5.77064
G1 X114.936 Y15.992 E5.90224
G1 X115.692 Y16.134 E5.92783
G1 X116.765 Y16.481 E5.96534
G1 X120.518 Y18.021 E6.10026
G1 X121.214 Y18.35 E6.12587
G1 X121.871 Y18.749 E6.15143
G1 X122.212 Y18.995 E6.16542
G1 X125.227 Y21.307 E6.29179
G1 X125.812 Y21.806 E6.31736
G1 X126.342 Y22.363 E6.34293
G1 X126.604 Y22.686 E6.35677
G1 X129.046 Y25.882 E6.49054
G1 X129.481 Y26.517 E6.51614
G1 X130.003 Y27.544 E6.55446
G1 X131.507 Y31.177 E6.68524
G1 X131.764 Y31.902 E6.71082
G1 X132.005 Y33.029 E6.74916
G1 X132.536 Y37.008 E6.88267
G1 X132.598 Y37.775 E6.90827
G1 X132.58 Y38.544 E6.93385
G1 X132.539 Y38.942 E6.94716
G1 X132.041 Y42.769 E7.07552
G1 X131.902 Y43.525 E7.10108
G1 X131.686 Y44.263 E7.12666
G1 X131.538 Y44.65 E7.14044
G1 X130.012 Y48.328 E7.27288
G1 X129.681 Y49.022 E7.29845
G1 X129.054 Y49.989 E7.33679
G1 X126.666 Y53.11 E7.46749
G1 X126.168 Y53.695 E7.49304
G1 X125.611 Y54.226 E7.51864
G1 X125.295 Y54.483 E7.53219
G1 X122.126 Y56.916 E7.66507
G1 X121.493 Y57.352 E7.69063
G1 X120.817 Y57.72 E7.71623
G1 X120.451 Y57.883 E7.72956
G1 X116.857 Y59.371 E7.85894
G1 X116.132 Y59.628 E7.88452
G1 X115.384 Y59.808 E7.91011
G1 X114.99 Y59.871 E7.92338
G1 X111.124 Y60.379 E8.05307
G1 X110.357 Y60.439 E8.07866
G1 X109.588 Y60.42 E8.10424
G1 X109.184 Y60.377 E8.11776
G1 X105.079 Y59.831 E8.25549
G1 X104.323 Y59.691 E8.28106
G1 X103.586 Y59.472 E8.30664
G1 X103.207 Y59.326 E8.32014
G1 X99.607 Y57.825 E8.44987
G1 X98.914 Y57.493 E8.47543
G1 X97.965 Y56.877 E8.51306
G1 X94.841 Y54.492 E8.64378
G1 X94.254 Y53.994 E8.66939
G1 X93.723 Y53.438 E8.69496
G1 X93.454 Y53.106 E8.70917
G1 X91.106 Y50.037 E8.83769
G1 X90.671 Y49.403 E8.86327
G1 X90.304 Y48.727 E8.88885
G1 X90.147 Y48.375 E8.90167
G1 X88.586 Y44.61 E9.03723
G1 X88.329 Y43.885 E9.06281
G1 X88.148 Y43.138 E9.08838
G1 X88.084 Y42.733 E9.10202
G1 X87.601 Y39.031 E9.22619
G1 X87.541 Y38.265 E9.25174
G1 X87.562 Y37.496 E9.27733
G1 X87.603 Y37.102 E9.2905
G1 X88.153 Y32.949 E9.42984
G1 X88.294 Y32.193 E9.45542
G1 X88.512 Y31.456 E9.48098
G0 F6000 X89.027 Y31.23
G1 F1200 X90.51 Y27.669 E9.60928
G1 X90.834 Y26.995 E9.63415
G1 X91.411 Y26.108 E9.66935
G1 X93.821 Y22.956 E9.80132
G1 X94.307 Y22.387 E9.82621
G1 X95.121 Y21.654 E9.86264
G1 X98.251 Y19.253 E9.99384
G1 X98.869 Y18.83 E10.01875
G1 X99.828 Y18.342 E10.05454
G1 X103.474 Y16.828 E10.18585
G1 X104.179 Y16.579 E10.21072
G1 X104.907 Y16.406 E10.2356
G1 X105.28 Y16.348 E10.24816
G1 X109.156 Y15.858 E10.3781
G1 X109.902 Y15.804 E10.40298
G1 X110.961 Y15.865 E10.43826
G1 X114.883 Y16.389 E10.56986
G1 X115.618 Y16.527 E10.59474
G1 X116.613 Y16.851 E10.62954
G1 X120.366 Y18.391 E10.76447
G1 X121.042 Y18.712 E10.78936
G1 X121.969 Y19.312 E10.82608
G1 X124.984 Y21.624 E10.95245
G1 X125.552 Y22.11 E10.97732
G1 X126.286 Y22.929 E11.01389
G1 X128.728 Y26.125 E11.14767
G1 X129.15 Y26.743 E11.17256
G1 X129.634 Y27.697 E11.20814
G1 X131.138 Y31.33 E11.33892
G1 X131.386 Y32.036 E11.36381
G1 X131.608 Y33.082 E11.39937
G1 X132.139 Y37.061 E11.53289
G1 X132.199 Y37.807 E11.55778
G1 X132.142 Y38.89 E11.59385
G1 X131.644 Y42.717 E11.72221
G1 X131.508 Y43.453 E11.74711
G1 X131.169 Y44.497 E11.78361
G1 X129.643 Y48.175 E11.91606
G1 X129.319 Y48.849 E11.94093
G1 X128.736 Y49.746 E11.97651
G1 X126.348 Y52.867 E12.10722
G1 X125.863 Y53.436 E12.13208
G1 X125.052 Y54.165 E12.16835
G1 X121.883 Y56.598 E12.30124
G1 X121.266 Y57.022 E12.32614
G1 X120.298 Y57.514 E12.36225
G1 X116.704 Y59.002 E12.49163
G1 X115.998 Y59.25 E12.51652
G1 X114.938 Y59.474 E12.55255
G1 X111.072 Y59.982 E12.68224
G1 X110.326 Y60.04 E12.70713
G1 X109.237 Y59.981 E12.7434
G1 X105.132 Y59.435 E12.88114
G1 X104.397 Y59.297 E12.90601
G1 X103.361 Y58.957 E12.94228
G1 X99.761 Y57.456 E13.072
G1 X99.087 Y57.132 E13.09688
G1 X98.207 Y56.559 E13.1318
G1 X95.083 Y54.174 E13.26253
G1 X94.514 Y53.689 E13.28739
G1 X93.771 Y52.863 E13.32435
G1 X91.423 Y49.794 E13.45287
G1 X91.001 Y49.177 E13.47773
G1 X90.517 Y48.222 E13.51334
G1 X88.956 Y44.457 E13.6489
G1 X88.707 Y43.752 E13.67377
G1 X88.481 Y42.682 E13.71014
G1 X87.998 Y38.98 E13.83432
G1 X87.941 Y38.234 E13.8592
G1 X88 Y37.155 E13.89514
G1 X88.55 Y33.002 E14.03448
G1 X88.687 Y32.267 E14.05934
G1 X89.027 Y31.23 E14.09564
G0 F6000 X89.396 Y31.384
G1 F1200 X90.879 Y27.823 E14.22394
G1 X91.195 Y27.168 E14.24813
G1 X91.729 Y26.351 E14.28059
G1 X94.139 Y23.199 E14.41256
G1 X94.611 Y22.647 E14.43672
G1 X95.365 Y21.971 E14.4704
G1 X98.495 Y19.57 E14.6016
G1 X99.095 Y19.161 E14.62576
G1 X99.981 Y18.712 E14.65879
G1 X103.627 Y17.198 E14.7901
G1 X104.312 Y16.956 E14.81426
G1 X105.33 Y16.745 E14.84884
G1 X109.206 Y16.255 E14.97878
G1 X109.931 Y16.204 E15.00296
G1 X110.908 Y16.261 E15.03551
G1 X114.83 Y16.785 E15.16711
G1 X115.544 Y16.921 E15.19129
G1 X116.462 Y17.221 E15.22341
G1 X120.215 Y18.761 E15.35833
G1 X120.87 Y19.073 E15.38246
G1 X121.725 Y19.63 E15.4164
G1 X124.74 Y21.942 E15.54277
G1 X125.291 Y22.415 E15.56693
G1 X125.968 Y23.172 E15.6007
G1 X128.41 Y26.368 E15.73448
G1 X128.819 Y26.968 E15.75863
G1 X129.264 Y27.85 E15.79149
G1 X130.768 Y31.483 E15.92227
G1 X131.009 Y32.169 E15.94645
G1 X131.212 Y33.135 E15.97928
G1 X131.743 Y37.114 E16.1128
G1 X131.799 Y37.838 E16.13695
G1 X131.746 Y38.839 E16.17029
G1 X131.248 Y42.666 E16.29865
G1 X131.115 Y43.38 E16.32281
G1 X130.799 Y44.343 E16.35652
G1 X129.273 Y48.021 E16.48896
G1 X128.958 Y48.676 E16.51313
G1 X128.419 Y49.503 E16.54597
G1 X126.031 Y52.624 E16.67667
G1 X125.558 Y53.175 E16.70082
G1 X124.808 Y53.848 E16.73434
G1 X121.639 Y56.281 E16.86722
G1 X121.04 Y56.691 E16.89136
G1 X120.145 Y57.144 E16.92473
G1 X116.551 Y58.632 E17.05411
G1 X115.865 Y58.873 E17.07829
G1 X114.886 Y59.078 E17.11156
G1 X111.02 Y59.586 E17.24125
G1 X110.296 Y59.641 E17.2654
G1 X109.29 Y59.584 E17.29891
G1 X105.185 Y59.038 E17.43664
G1 X104.471 Y58.903 E17.46081
G1 X103.515 Y58.588 E17.49429
G1 X99.915 Y57.087 E17.62402
G1 X99.261 Y56.771 E17.64818
G1 X98.45 Y56.241 E17.6804
G1 X95.326 Y53.856 E17.81112
G1 X94.774 Y53.384 E17.83528
G1 X94.089 Y52.62 E17.86941
G1 X91.741 Y49.551 E17.99793
G1 X91.332 Y48.951 E18.02208
G1 X90.886 Y48.069 E18.05496
G1 X89.325 Y44.304 E18.19052
G1 X89.084 Y43.618 E18.2147
G1 X88.877 Y42.63 E18.24827
G1 X88.394 Y38.928 E18.37245
G1 X88.34 Y38.204 E18.39659
G1 X88.396 Y37.207 E18.42981
G1 X88.946 Y33.054 E18.56914
G1 X89.081 Y32.341 E18.59328
G1 X89.396 Y31.384 E18.62679
G0 F6000 X89.765 Y31.537
G1 F1200 X91.248 Y27.976 E18.75509
G1 X91.556 Y27.343 E18.7785
G1 X92.047 Y26.594 E18.80829
G1 X94.457 Y23.442 E18.94026
G1 X94.915 Y22.908 E18.96366
G1 X95.608 Y22.289 E18.99456
G1 X98.738 Y19.888 E19.12577
G1 X99.32 Y19.492 E19.14918
G1 X100.134 Y19.081 E19.17951
G1 X103.78 Y17.567 E19.31082
G1 X104.445 Y17.334 E19.33425
G1 X105.38 Y17.142 E19.366
G1 X109.256 Y16.652 E19.49594
G1 X109.959 Y16.603 E19.51938
G1 X110.855 Y16.658 E19.54924
G1 X114.777 Y17.182 E19.68084
G1 X115.468 Y17.314 E19.70424
G1 X116.31 Y17.591 E19.73372
G1 X120.063 Y19.131 E19.86865
G1 X120.698 Y19.435 E19.89206
G1 X121.482 Y19.947 E19.92321
G1 X124.497 Y22.259 E20.04958
G1 X125.03 Y22.718 E20.07297
G1 X125.651 Y23.415 E20.10402
G1 X128.093 Y26.611 E20.2378
G1 X128.487 Y27.194 E20.2612
G1 X128.895 Y28.003 E20.29134
G1 X130.399 Y31.636 E20.42212
G1 X130.63 Y32.301 E20.44553
G1 X130.816 Y33.188 E20.47567
G1 X131.347 Y37.167 E20.60919
G1 X131.4 Y37.869 E20.63261
G1 X131.349 Y38.787 E20.66318
G1 X130.851 Y42.614 E20.79154
G1 X130.721 Y43.306 E20.81496
G1 X130.43 Y44.19 E20.84592
G1 X128.904 Y47.868 E20.97836
G1 X128.597 Y48.502 E21.00179
G1 X128.101 Y49.26 E21.03192
G1 X125.713 Y52.381 E21.16262
G1 X125.254 Y52.914 E21.18602
G1 X124.565 Y53.531 E21.21678
G1 X121.396 Y55.964 E21.34966
G1 X120.814 Y56.36 E21.37308
G1 X119.992 Y56.774 E21.40369
G1 X116.398 Y58.262 E21.53306
G1 X115.733 Y58.494 E21.55649
G1 X114.834 Y58.681 E21.58703
G1 X110.968 Y59.189 E21.71672
G1 X110.266 Y59.241 E21.74013
G1 X109.343 Y59.188 E21.77088
G1 X105.238 Y58.642 E21.90862
G1 X104.546 Y58.51 E21.93205
G1 X103.669 Y58.219 E21.96278
G1 X100.069 Y56.718 E22.09251
G1 X99.436 Y56.41 E22.11592
G1 X98.693 Y55.923 E22.14547
G1 X95.569 Y53.538 E22.27619
G1 X95.034 Y53.08 E22.29962
G1 X94.407 Y52.377 E22.33095
G1 X92.059 Y49.308 E22.45947
G1 X91.664 Y48.726 E22.48287
G1 X91.256 Y47.916 E22.51303
G1 X89.695 Y44.151 E22.64859
G1 X89.462 Y43.486 E22.67203
G1 X89.274 Y42.578 E22.70287
G1 X88.791 Y38.876 E22.82704
G1 X88.74 Y38.174 E22.85045
G1 X88.793 Y37.26 E22.8809
G1 X89.343 Y33.107 E23.02024
G1 X89.475 Y32.415 E23.04367
G1 X89.765 Y31.537 E23.07442
G0 F6000 X90.135 Y31.691
G1 F1200 X91.618 Y28.13 E23.20272
G1 X91.916 Y27.518 E23.22536
G1 X92.364 Y26.837 E23.25247
G1 X94.774 Y23.685 E23.38444
G1 X95.219 Y23.169 E23.40711
G1 X95.852 Y22.606 E23.43528
G1 X98.982 Y20.205 E23.56649
G1 X99.545 Y19.823 E23.58912
G1 X100.288 Y19.45 E23.61677
G1 X103.934 Y17.936 E23.74807
G1 X104.577 Y17.713 E23.77071
G1 X105.431 Y17.539 E23.7997
G1 X109.307 Y17.049 E23.92964
G1 X109.986 Y17.003 E23.95228
G1 X110.802 Y17.054 E23.97947
G1 X114.724 Y17.578 E24.11107
G1 X115.393 Y17.708 E24.13374
G1 X116.158 Y17.961 E24.16054
G1 X119.911 Y19.501 E24.29547
G1 X120.524 Y19.796 E24.31809
G1 X121.238 Y20.264 E24.34649
G1 X124.253 Y22.576 E24.47286
G1 X124.768 Y23.022 E24.49552
G1 X125.333 Y23.658 E24.52381
G1 X127.775 Y26.854 E24.65759
G1 X128.156 Y27.418 E24.68023
G1 X128.525 Y28.156 E24.70767
G1 X130.029 Y31.789 E24.83845
G1 X130.252 Y32.433 E24.86112
G1 X130.419 Y33.241 E24.88856
G1 X130.95 Y37.22 E25.02207
G1 X131 Y37.899 E25.04472
G1 X130.953 Y38.735 E25.07257
G1 X130.455 Y42.562 E25.20093
G1 X130.327 Y43.231 E25.22358
G1 X130.06 Y44.037 E25.25182
G1 X128.534 Y47.715 E25.38426
G1 X128.237 Y48.327 E25.40689
G1 X127.783 Y49.016 E25.43433
G1 X125.395 Y52.137 E25.56504
G1 X124.951 Y52.653 E25.58768
G1 X124.321 Y53.214 E25.61574
G1 X121.152 Y55.647 E25.74862
G1 X120.589 Y56.029 E25.77125
G1 X119.839 Y56.405 E25.79915
G1 X116.245 Y57.893 E25.92853
G1 X115.601 Y58.116 E25.9512
G1 X114.782 Y58.285 E25.97901
G1 X110.916 Y58.793 E26.1087
G1 X110.237 Y58.841 E26.13134
G1 X109.395 Y58.791 E26.1594
G1 X105.29 Y58.245 E26.29713
G1 X104.622 Y58.116 E26.31976
G1 X103.823 Y57.849 E26.34778
G1 X100.223 Y56.348 E26.47751
G1 X99.611 Y56.05 E26.50015
G1 X98.935 Y55.605 E26.52706
G1 X95.811 Y53.22 E26.65779
G1 X95.295 Y52.776 E26.68043
G1 X94.725 Y52.134 E26.70898
G1 X92.377 Y49.065 E26.83751
G1 X91.995 Y48.501 E26.86016
G1 X91.625 Y47.762 E26.88765
G1 X90.064 Y43.997 E27.02321
G1 X89.841 Y43.354 E27.04585
G1 X89.671 Y42.526 E27.07396
G1 X89.188 Y38.824 E27.19813
G1 X89.139 Y38.145 E27.22078
G1 X89.189 Y37.313 E27.2485
G1 X89.739 Y33.16 E27.38783
G1 X89.868 Y32.491 E27.41049
G1 X90.135 Y31.691 E27.43855
G0 F6000 X90.504 Y31.845
G1 F1200 X91.987 Y28.284 E27.56685
G1 X92.276 Y27.694 E27.5887
G1 X92.682 Y27.08 E27.61318
G1 X95.092 Y23.928 E27.74515
G1 X95.522 Y23.431 E27.76701
G1 X96.095 Y22.923 E27.79248
G1 X99.225 Y20.522 E27.92368
G1 X99.77 Y20.155 E27.94553
G1 X100.441 Y19.82 E27.97048
G1 X104.087 Y18.306 E28.10179
G1 X104.708 Y18.091 E28.12364
G1 X105.481 Y17.936 E28.14986
G1 X109.357 Y17.446 E28.27981
G1 X110.012 Y17.403 E28.30164
G1 X110.749 Y17.451 E28.3262
G1 X114.671 Y17.975 E28.45781
G1 X115.316 Y18.101 E28.47967
G1 X116.006 Y18.331 E28.50386
G1 X119.759 Y19.871 E28.63878
G1 X120.35 Y20.157 E28.66062
G1 X120.995 Y20.582 E28.68631
G1 X124.01 Y22.894 E28.81268
G1 X124.506 Y23.325 E28.83454
G1 X125.015 Y23.9 E28.86008
G1 X127.457 Y27.096 E28.99386
G1 X127.823 Y27.642 E29.01572
G1 X128.155 Y28.309 E29.0405
G1 X129.659 Y31.942 E29.17128
G1 X129.873 Y32.564 E29.19316
G1 X130.023 Y33.294 E29.21794
G1 X130.554 Y37.273 E29.35146
G1 X130.601 Y37.928 E29.3733
G1 X130.556 Y38.684 E29.39849
G1 X130.058 Y42.511 E29.52685
G1 X129.934 Y43.156 E29.54869
