;FLAVOR:Marlin
;TIME:24210
;Filament used: 17.0497m
;Layer height: 0.2
;MINX:44.698
;MINY:19.069
;MINZ:0.2
;MAXX:174.298
;MAXY:168.669
;MAXZ:16.4
;Generated with Cura_SteamEngine 4.5.0
M140 S60
M105
M190 S60
M104 S190
M105
M109 S190
M82 ;absolute extrusion mode
M201 X500.00 Y500.00 Z100.00 E5000.00 ;Setup machine max acceleration
M203 X500.00 Y500.00 Z10.00 E50.00 ;Setup machine max feedrate
M204 P500.00 R1000.00 T500.00 ;Setup Print/Retract/Travel acceleration
M205 X8.00 Y8.00 Z0.40 E5.00 ;Setup Jerk
M220 S100 ;Reset Feedrate
M221 S100 ;Reset Flowrate

G28 ;Home
M420 S1 Z2 ;Enable ABL using saved Mesh and Fade Height
G29     ;autobedlevel
G92 E0 ;Reset Extruder
G1 Z2.0 F3000 ;Move Z Axis up
G1 X10.1 Y20 Z0.28 F5000.0 ;Move to start position
G1 X10.1 Y200.0 Z0.28 F1500.0 E15 ;Draw the first line
G1 X10.4 Y200.0 Z0.28 F5000.0 ;Move to side a little
G1 X10.4 Y20 Z0.28 F1500.0 E30 ;Draw the second line
G92 E0 ;Reset Extruder
G92 E0
G92 E0
G1 F1500 E-6.5
;LAYER_COUNT:82
;LAYER:0
M107
G0 F6000 X46.128 Y24.083 Z0.2
;TYPE:SKIRT
G1 F1500 E0
G1 F1200 X46.475 Y23.42 E0.02489
G1 X46.89 Y22.797 E0.04979
G1 X47.548 Y22.036 E0.08325
G1 X47.665 Y21.919 E0.08875
G1 X48.222 Y21.419 E0.11365
G1 X48.828 Y20.982 E0.1385
G1 X49.478 Y20.611 E0.16339
G1 X50.164 Y20.312 E0.18828
G1 X50.878 Y20.088 E0.21317
G1 X51.611 Y19.941 E0.23803
G1 X52.615 Y19.869 E0.27151
G1 X166.381 Y19.869 E4.05538
G1 X167.128 Y19.909 E4.08026
G1 X167.866 Y20.028 E4.10513
G1 X168.588 Y20.226 E4.13003
G1 X169.284 Y20.499 E4.15489
G1 X169.947 Y20.846 E4.17978
G1 X170.57 Y21.261 E4.20468
G1 X171.144 Y21.74 E4.22955
G1 X171.665 Y22.277 E4.25443
G1 X172.124 Y22.867 E4.27929
G1 X172.519 Y23.503 E4.30419
G1 X172.843 Y24.177 E4.32907
G1 X173.093 Y24.882 E4.35395
G1 X173.267 Y25.61 E4.37884
G1 X173.362 Y26.352 E4.40372
G1 X173.381 Y26.863 E4.42073
G1 X173.498 Y160.746 E8.8737
G1 X173.459 Y161.493 E8.89858
G1 X173.34 Y162.231 E8.92344
G1 X173.143 Y162.953 E8.94833
G1 X172.87 Y163.65 E8.97323
G1 X172.524 Y164.313 E8.9981
G1 X172.11 Y164.936 E9.02298
G1 X171.448 Y165.702 E9.05666
G1 X171.331 Y165.819 E9.06216
G1 X170.774 Y166.319 E9.08705
G1 X170.168 Y166.756 E9.1119
G1 X169.518 Y167.127 E9.1368
G1 X168.832 Y167.426 E9.16169
G1 X168.118 Y167.65 E9.18658
G1 X167.385 Y167.797 E9.21144
G1 X166.381 Y167.869 E9.24492
G1 X52.615 Y167.869 E13.02879
G1 X51.868 Y167.829 E13.05367
G1 X51.13 Y167.71 E13.07854
G1 X50.408 Y167.512 E13.10344
G1 X49.712 Y167.239 E13.1283
G1 X49.049 Y166.892 E13.15319
G1 X48.426 Y166.477 E13.17809
G1 X47.665 Y165.819 E13.21155
G1 X47.548 Y165.702 E13.21705
G1 X47.048 Y165.145 E13.24195
G1 X46.611 Y164.539 E13.2668
G1 X46.24 Y163.889 E13.29169
G1 X45.941 Y163.203 E13.31658
G1 X45.717 Y162.489 E13.34147
G1 X45.57 Y161.756 E13.36633
G1 X45.498 Y160.752 E13.39981
G1 X45.498 Y26.986 E17.84889
G1 X45.538 Y26.239 E17.87377
G1 X45.657 Y25.501 E17.89863
G1 X45.855 Y24.779 E17.92353
G1 X46.128 Y24.083 E17.9484
G0 F6000 X45.729 Y23.996
G1 F1200 X46.076 Y23.31 E17.97397
G1 X46.492 Y22.663 E17.99955
G1 X46.973 Y22.063 E18.02513
G1 X47.382 Y21.636 E18.04479
G1 X47.954 Y21.122 E18.07037
G1 X48.576 Y20.669 E18.09596
G1 X49.241 Y20.283 E18.12154
G1 X49.943 Y19.968 E18.14713
G1 X50.674 Y19.728 E18.17272
G1 X51.425 Y19.565 E18.19828
G1 X52.19 Y19.481 E18.22388
G1 X52.615 Y19.469 E18.23802
G1 X166.381 Y19.469 E22.02189
G1 X167.149 Y19.509 E22.04747
G1 X167.909 Y19.628 E22.07306
G1 X168.652 Y19.826 E22.09863
G1 X169.371 Y20.1 E22.12422
G1 X170.057 Y20.447 E22.14979
G1 X170.704 Y20.863 E22.17537
G1 X171.304 Y21.344 E22.20095
G1 X171.851 Y21.885 E22.22654
G1 X172.339 Y22.48 E22.25213
G1 X172.762 Y23.122 E22.27771
G1 X173.117 Y23.805 E22.30331
G1 X173.398 Y24.52 E22.32886
G1 X173.604 Y25.262 E22.35447
G1 X173.732 Y26.02 E22.38004
G1 X173.781 Y26.863 E22.40813
G1 X173.898 Y160.746 E26.86109
G1 X173.859 Y161.514 E26.88667
G1 X173.74 Y162.274 E26.91226
G1 X173.543 Y163.017 E26.93782
G1 X173.27 Y163.736 E26.9634
G1 X172.923 Y164.423 E26.989
G1 X172.508 Y165.07 E27.01457
G1 X172.027 Y165.67 E27.04014
G1 X171.731 Y165.985 E27.05452
G1 X171.614 Y166.102 E27.06002
G1 X171.042 Y166.616 E27.0856
G1 X170.42 Y167.069 E27.11119
G1 X169.755 Y167.455 E27.13677
G1 X169.053 Y167.77 E27.16236
G1 X168.322 Y168.01 E27.18795
G1 X167.571 Y168.173 E27.21351
G1 X166.806 Y168.257 E27.23911
G1 X166.381 Y168.269 E27.25325
G1 X52.615 Y168.269 E31.03712
G1 X51.847 Y168.229 E31.0627
G1 X51.087 Y168.11 E31.08828
G1 X50.344 Y167.912 E31.11386
G1 X49.625 Y167.638 E31.13945
G1 X48.939 Y167.291 E31.16502
G1 X48.292 Y166.875 E31.1906
G1 X47.692 Y166.394 E31.21618
G1 X47.265 Y165.985 E31.23585
G1 X46.751 Y165.413 E31.26142
G1 X46.298 Y164.791 E31.28702
G1 X45.912 Y164.126 E31.31259
G1 X45.597 Y163.424 E31.33818
G1 X45.357 Y162.693 E31.36377
G1 X45.194 Y161.942 E31.38933
G1 X45.11 Y161.177 E31.41493
G1 X45.098 Y160.752 E31.42907
G1 X45.098 Y26.986 E35.87815
G1 X45.138 Y26.218 E35.90372
G1 X45.257 Y25.458 E35.92931
G1 X45.455 Y24.715 E35.95488
G1 X45.729 Y23.996 E35.98048
G0 F6000 X45.329 Y23.912
G1 F1200 X45.677 Y23.203 E36.00675
G1 X46.095 Y22.532 E36.03304
G1 X46.578 Y21.908 E36.05928
G1 X46.983 Y21.471 E36.0791
G1 X47.1 Y21.354 E36.0846
G1 X47.686 Y20.824 E36.11088
G1 X48.322 Y20.357 E36.13713
G1 X49.002 Y19.956 E36.16338
G1 X49.72 Y19.626 E36.18967
G1 X50.467 Y19.371 E36.21592
G1 X51.236 Y19.192 E36.24218
G1 X52.02 Y19.092 E36.26847
G1 X52.615 Y19.069 E36.28827
G1 X166.381 Y19.069 E40.07214
G1 X167.17 Y19.109 E40.09842
G1 X167.95 Y19.228 E40.12466
G1 X168.715 Y19.426 E40.15095
G1 X169.455 Y19.7 E40.17719
G1 X170.164 Y20.048 E40.20346
G1 X170.835 Y20.466 E40.22975
G1 X171.459 Y20.949 E40.256
G1 X172.032 Y21.492 E40.28226
G1 X172.547 Y22.091 E40.30853
G1 X172.998 Y22.739 E40.33479
G1 X173.382 Y23.43 E40.36108
G1 X173.694 Y24.155 E40.38733
G1 X173.931 Y24.908 E40.41359
G1 X174.09 Y25.682 E40.43987
G1 X174.171 Y26.467 E40.46612
G1 X174.181 Y26.862 E40.47926
G1 X174.298 Y160.745 E44.93223
G1 X174.259 Y161.534 E44.9585
G1 X174.14 Y162.315 E44.98478
G1 X173.943 Y163.079 E45.01102
G1 X173.669 Y163.82 E45.0373
G1 X173.322 Y164.529 E45.06355
G1 X172.905 Y165.2 E45.08983
G1 X172.423 Y165.825 E45.11608
G1 X172.013 Y166.267 E45.13613
G1 X171.896 Y166.384 E45.14163
G1 X171.31 Y166.914 E45.16791
G1 X170.674 Y167.381 E45.19416
G1 X169.994 Y167.782 E45.22041
G1 X169.276 Y168.112 E45.2467
G1 X168.529 Y168.367 E45.27295
G1 X167.76 Y168.546 E45.29921
G1 X166.976 Y168.646 E45.3255
G1 X166.381 Y168.669 E45.3453
G1 X52.615 Y168.669 E49.12917
G1 X51.826 Y168.629 E49.15545
G1 X51.046 Y168.51 E49.18169
G1 X50.281 Y168.312 E49.20798
G1 X49.541 Y168.038 E49.23422
G1 X48.832 Y167.69 E49.26049
G1 X48.161 Y167.272 E49.28678
G1 X47.537 Y166.789 E49.31303
G1 X47.1 Y166.384 E49.33285
G1 X46.983 Y166.267 E49.33835
G1 X46.453 Y165.681 E49.36463
G1 X45.986 Y165.045 E49.39087
G1 X45.585 Y164.365 E49.41713
G1 X45.255 Y163.647 E49.44341
G1 X45 Y162.9 E49.46966
G1 X44.821 Y162.131 E49.49593
G1 X44.721 Y161.347 E49.52221
G1 X44.698 Y160.752 E49.54202
G1 X44.698 Y26.986 E53.99109
G1 X44.738 Y26.197 E54.01737
G1 X44.857 Y25.417 E54.04361
G1 X45.055 Y24.652 E54.06989
G1 X45.329 Y23.912 E54.09614
G0 F6000 X46.528 Y24.172
G1 F1200 X46.873 Y23.533 E54.12029
G1 X47.287 Y22.936 E54.14446
G1 X47.831 Y22.319 E54.17181
G1 X47.948 Y22.202 E54.17732
G1 X48.489 Y21.718 E54.20146
G1 X49.08 Y21.295 E54.22563
G1 X49.714 Y20.941 E54.24979
G1 X50.383 Y20.658 E54.27395
G1 X51.079 Y20.45 E54.29811
G1 X51.794 Y20.32 E54.32228
G1 X52.615 Y20.269 E54.34964
G1 X166.381 Y20.269 E58.13351
G1 X167.106 Y20.309 E58.15766
G1 X167.823 Y20.428 E58.18183
G1 X168.522 Y20.626 E58.206
G1 X169.195 Y20.899 E58.23015
G1 X169.834 Y21.244 E58.25431
G1 X170.431 Y21.658 E58.27847
G1 X170.979 Y22.134 E58.30261
G1 X171.472 Y22.668 E58.32678
G1 X171.902 Y23.253 E58.35093
G1 X172.266 Y23.882 E58.3751
G1 X172.559 Y24.547 E58.39927
G1 X172.777 Y25.24 E58.42344
G1 X172.917 Y25.952 E58.44757
G1 X172.981 Y26.863 E58.47795
G1 X173.098 Y160.746 E62.93091
G1 X173.059 Y161.472 E62.9551
G1 X172.94 Y162.188 E62.97924
G1 X172.743 Y162.887 E63.00339
G1 X172.471 Y163.561 E63.02756
G1 X172.126 Y164.2 E63.05172
G1 X171.713 Y164.797 E63.07586
G1 X171.165 Y165.419 E63.10343
G1 X171.048 Y165.536 E63.10894
G1 X170.507 Y166.02 E63.13308
G1 X169.916 Y166.443 E63.15725
G1 X169.282 Y166.797 E63.1814
G1 X168.613 Y167.08 E63.20556
G1 X167.917 Y167.288 E63.22973
G1 X167.202 Y167.418 E63.2539
G1 X166.381 Y167.469 E63.28126
G1 X52.615 Y167.469 E67.06513
G1 X51.89 Y167.429 E67.08928
G1 X51.173 Y167.31 E67.11345
G1 X50.474 Y167.112 E67.13762
G1 X49.801 Y166.839 E67.16177
G1 X49.162 Y166.494 E67.18592
G1 X48.565 Y166.08 E67.21009
G1 X47.948 Y165.536 E67.23745
G1 X47.831 Y165.419 E67.24295
G1 X47.347 Y164.878 E67.26709
G1 X46.924 Y164.287 E67.29127
G1 X46.57 Y163.653 E67.31542
G1 X46.287 Y162.984 E67.33958
G1 X46.079 Y162.288 E67.36374
G1 X45.949 Y161.573 E67.38791
G1 X45.898 Y160.752 E67.41527
G1 X45.898 Y26.986 E71.86434
G1 X45.938 Y26.261 E71.88849
G1 X46.057 Y25.544 E71.91267
G1 X46.255 Y24.845 E71.93683
G1 X46.528 Y24.172 E71.96099
G0 F6000 X46.927 Y24.265
G1 F1200 X47.272 Y23.651 E71.98441
G1 X47.683 Y23.08 E72.00781
G1 X48.114 Y22.602 E72.02922
G1 X48.231 Y22.485 E72.03472
G1 X48.756 Y22.016 E72.05814
G1 X49.331 Y21.61 E72.08155
G1 X49.949 Y21.272 E72.10498
G1 X50.6 Y21.005 E72.12838
G1 X51.278 Y20.815 E72.1518
G1 X51.973 Y20.702 E72.17522
G1 X52.615 Y20.669 E72.1966
G1 X166.381 Y20.669 E75.98047
G1 X167.084 Y20.709 E76.00389
G1 X167.778 Y20.828 E76.02731
G1 X168.453 Y21.026 E76.05071
G1 X169.102 Y21.298 E76.07411
G1 X169.716 Y21.643 E76.09754
G1 X170.287 Y22.054 E76.12094
G1 X170.808 Y22.528 E76.14436
G1 X171.272 Y23.058 E76.16779
G1 X171.672 Y23.637 E76.1912
G1 X172.004 Y24.258 E76.21462
G1 X172.264 Y24.912 E76.23803
G1 X172.448 Y25.592 E76.26146
G1 X172.554 Y26.288 E76.28487
G1 X172.581 Y26.864 E76.30405
G1 X172.698 Y160.747 E80.75702
G1 X172.659 Y161.449 E80.7804
G1 X172.54 Y162.143 E80.80382
G1 X172.343 Y162.819 E80.82724
G1 X172.071 Y163.469 E80.85068
G1 X171.727 Y164.083 E80.87409
G1 X171.316 Y164.654 E80.89749
G1 X170.882 Y165.136 E80.91906
G1 X170.765 Y165.253 E80.92456
G1 X170.24 Y165.722 E80.94798
G1 X169.665 Y166.128 E80.97139
G1 X169.047 Y166.466 E80.99482
G1 X168.396 Y166.733 E81.01822
G1 X167.718 Y166.923 E81.04164
G1 X167.023 Y167.036 E81.06506
G1 X166.381 Y167.069 E81.08644
G1 X52.615 Y167.069 E84.87031
G1 X51.912 Y167.029 E84.89373
G1 X51.218 Y166.91 E84.91715
G1 X50.543 Y166.712 E84.94055
G1 X49.894 Y166.44 E84.96395
G1 X49.28 Y166.095 E84.98738
G1 X48.709 Y165.684 E85.01078
G1 X48.231 Y165.253 E85.03218
G1 X48.114 Y165.136 E85.03769
G1 X47.645 Y164.611 E85.0611
G1 X47.239 Y164.036 E85.08451
G1 X46.901 Y163.418 E85.10794
G1 X46.634 Y162.767 E85.13134
G1 X46.444 Y162.089 E85.15476
G1 X46.331 Y161.394 E85.17818
G1 X46.298 Y160.752 E85.19956
G1 X46.298 Y26.986 E89.64864
G1 X46.338 Y26.283 E89.67206
G1 X46.457 Y25.589 E89.69548
G1 X46.655 Y24.914 E89.71887
G1 X46.927 Y24.265 E89.74228
G0 F6000 X47.326 Y24.36
G1 F1200 X47.67 Y23.772 E89.76494
G1 X48.08 Y23.228 E89.78759
G1 X48.397 Y22.885 E89.80313
G1 X48.514 Y22.768 E89.80863
G1 X49.023 Y22.315 E89.83129
G1 X49.581 Y21.926 E89.85392
G1 X50.181 Y21.604 E89.87657
G1 X50.815 Y21.355 E89.89922
G1 X51.474 Y21.182 E89.92188
G1 X52.148 Y21.088 E89.94452
G1 X52.615 Y21.069 E89.96006
G1 X166.381 Y21.069 E93.74394
G1 X167.061 Y21.109 E93.76659
G1 X167.731 Y21.228 E93.78922
G1 X168.383 Y21.425 E93.81188
G1 X169.007 Y21.697 E93.83452
G1 X169.595 Y22.041 E93.85718
G1 X170.139 Y22.451 E93.87983
G1 X170.63 Y22.922 E93.90246
G1 X171.064 Y23.447 E93.92512
G1 X171.433 Y24.019 E93.94776
G1 X171.732 Y24.631 E93.97041
G1 X171.957 Y25.273 E93.99304
G1 X172.106 Y25.938 E94.01571
G1 X172.181 Y26.864 E94.04661
G1 X172.298 Y160.747 E98.49957
G1 X172.259 Y161.427 E98.52223
G1 X172.14 Y162.097 E98.54486
G1 X171.943 Y162.749 E98.56751
G1 X171.672 Y163.373 E98.59014
G1 X171.329 Y163.962 E98.61281
G1 X170.92 Y164.506 E98.63545
G1 X170.599 Y164.853 E98.65117
G1 X170.482 Y164.97 E98.65667
G1 X169.973 Y165.423 E98.67934
G1 X169.415 Y165.812 E98.70196
G1 X168.815 Y166.134 E98.72461
G1 X168.181 Y166.383 E98.74726
G1 X167.522 Y166.556 E98.76993
G1 X166.848 Y166.65 E98.79256
G1 X166.381 Y166.669 E98.80811
G1 X52.615 Y166.669 E102.59198
G1 X51.935 Y166.629 E102.61463
G1 X51.265 Y166.51 E102.63727
G1 X50.613 Y166.313 E102.65992
G1 X49.989 Y166.041 E102.68256
G1 X49.401 Y165.697 E102.70522
G1 X48.857 Y165.287 E102.72788
G1 X48.514 Y164.97 E102.74341
G1 X48.397 Y164.853 E102.74891
G1 X47.944 Y164.344 E102.77158
G1 X47.555 Y163.786 E102.7942
G1 X47.233 Y163.186 E102.81685
G1 X46.984 Y162.552 E102.8395
G1 X46.811 Y161.893 E102.86216
G1 X46.717 Y161.219 E102.8848
G1 X46.698 Y160.752 E102.90034
G1 X46.698 Y26.986 E107.34942
G1 X46.738 Y26.306 E107.37208
G1 X46.857 Y25.636 E107.39471
G1 X47.054 Y24.984 E107.41736
G1 X47.326 Y24.36 E107.44
G0 F6000 X47.726 Y24.459
G1 F1200 X48.068 Y23.898 E107.46186
G1 X48.68 Y23.168 E107.49354
G1 X48.797 Y23.051 E107.49904
G1 X49.289 Y22.615 E107.52091
G1 X49.83 Y22.243 E107.54274
G1 X50.412 Y21.939 E107.56458
G1 X51.027 Y21.708 E107.58643
G1 X51.666 Y21.553 E107.6083
G1 X52.615 Y21.469 E107.63999
G1 X166.381 Y21.469 E111.42386
G1 X167.037 Y21.509 E111.44572
G1 X167.683 Y21.628 E111.46757
G1 X168.31 Y21.825 E111.48943
G1 X168.908 Y22.097 E111.51128
G1 X169.469 Y22.439 E111.53313
G1 X169.984 Y22.847 E111.55498
G1 X170.446 Y23.314 E111.57683
G1 X170.847 Y23.834 E111.59867
G1 X171.183 Y24.398 E111.62051
G1 X171.447 Y25 E111.64237
G1 X171.637 Y25.629 E111.66423
G1 X171.748 Y26.276 E111.68606
G1 X171.781 Y26.864 E111.70565
G1 X171.898 Y160.747 E116.15862
G1 X171.859 Y161.403 E116.18047
G1 X171.74 Y162.049 E116.20232
G1 X171.544 Y162.676 E116.22417
G1 X171.273 Y163.275 E116.24604
G1 X170.931 Y163.836 E116.26789
G1 X170.316 Y164.57 E116.29974
G1 X170.199 Y164.687 E116.30524
G1 X169.707 Y165.123 E116.32711
G1 X169.166 Y165.495 E116.34895
G1 X168.584 Y165.799 E116.37078
G1 X167.969 Y166.03 E116.39264
G1 X167.33 Y166.185 E116.4145
G1 X166.381 Y166.269 E116.44619
G1 X52.615 Y166.269 E120.23006
G1 X51.959 Y166.229 E120.25192
G1 X51.313 Y166.11 E120.27377
G1 X50.686 Y165.913 E120.29563
G1 X50.088 Y165.641 E120.31748
G1 X49.527 Y165.299 E120.33933
G1 X48.797 Y164.687 E120.37102
G1 X48.68 Y164.57 E120.37652
G1 X48.244 Y164.078 E120.39839
G1 X47.872 Y163.537 E120.42022
G1 X47.568 Y162.955 E120.44206
G1 X47.337 Y162.34 E120.46391
G1 X47.182 Y161.701 E120.48578
G1 X47.098 Y160.752 E120.51747
G1 X47.098 Y26.986 E124.96654
G1 X47.138 Y26.33 E124.9884
G1 X47.257 Y25.684 E125.01025
G1 X47.454 Y25.057 E125.03211
G1 X47.726 Y24.459 E125.05396
G0 F6000 X47.854 Y25.134
G1 F1200 X48.125 Y24.562 E125.07501
G1 X48.465 Y24.03 E125.09601
G1 X48.962 Y23.45 E125.12142
G1 X49.079 Y23.333 E125.12692
G1 X49.554 Y22.916 E125.14794
G1 X50.077 Y22.561 E125.16897
G1 X50.641 Y22.275 E125.19
G1 X51.236 Y22.063 E125.21101
G1 X51.854 Y21.927 E125.23205
G1 X52.615 Y21.869 E125.25744
G1 X166.381 Y21.869 E129.04131
G1 X167.012 Y21.909 E129.06234
G1 X167.633 Y22.028 E129.08337
G1 X168.233 Y22.225 E129.10437
G1 X168.805 Y22.496 E129.12543
G1 X169.337 Y22.836 E129.14643
G1 X169.822 Y23.242 E129.16746
G1 X170.252 Y23.705 E129.18848
G1 X170.621 Y24.219 E129.20952
G1 X170.921 Y24.775 E129.23054
G1 X171.149 Y25.364 E129.25154
G1 X171.301 Y25.978 E129.27258
G1 X171.381 Y26.865 E129.3022
G1 X171.498 Y160.748 E133.75517
G1 X171.459 Y161.379 E133.7762
G1 X171.34 Y161.999 E133.7972
G1 X171.144 Y162.6 E133.81822
G1 X170.873 Y163.172 E133.83927
G1 X170.533 Y163.705 E133.8603
G1 X170.034 Y164.288 E133.88582
G1 X169.917 Y164.405 E133.89133
G1 X169.442 Y164.822 E133.91235
G1 X168.919 Y165.177 E133.93337
G1 X168.355 Y165.463 E133.95441
G1 X167.76 Y165.675 E133.97542
G1 X167.142 Y165.811 E133.99646
G1 X166.381 Y165.869 E134.02185
G1 X52.615 Y165.869 E137.80572
G1 X51.984 Y165.829 E137.82675
G1 X51.363 Y165.71 E137.84778
G1 X50.763 Y165.513 E137.86878
G1 X50.191 Y165.242 E137.88984
G1 X49.659 Y164.902 E137.91083
G1 X49.079 Y164.405 E137.93624
G1 X48.962 Y164.288 E137.94174
G1 X48.545 Y163.813 E137.96277
