;FLAVOR:Marlin
;TIME:8574
;Filament used: 5.25721m
;Layer height: 0.2
;MINX:59.322
;MINY:21.256
;MINZ:0.2
;MAXX:157.691
;MAXY:100.054
;MAXZ:14.4
;Generated with Cura_SteamEngine 4.5.0
M140 S60
M105
M190 S60
M104 S190
M105
M109 S190
M82 ;absolute extrusion mode
M201 X500.00 Y500.00 Z100.00 E5000.00 ;Setup machine max acceleration
M203 X500.00 Y500.00 Z10.00 E50.00 ;Setup machine max feedrate
M204 P500.00 R1000.00 T500.00 ;Setup Print/Retract/Travel acceleration
M205 X8.00 Y8.00 Z0.40 E5.00 ;Setup Jerk
M220 S100 ;Reset Feedrate
M221 S100 ;Reset Flowrate

G28 ;Home
M420 S1 Z2 ;Enable ABL using saved Mesh and Fade Height
G29     ;autobedlevel
G92 E0 ;Reset Extruder
G1 Z2.0 F3000 ;Move Z Axis up
G1 X10.1 Y20 Z0.28 F5000.0 ;Move to start position
G1 X10.1 Y200.0 Z0.28 F1500.0 E15 ;Draw the first line
G1 X10.4 Y200.0 Z0.28 F5000.0 ;Move to side a little
G1 X10.4 Y20 Z0.28 F1500.0 E30 ;Draw the second line
G92 E0 ;Reset Extruder
G92 E0
G92 E0
G1 F1500 E-6.5
;LAYER_COUNT:72
;LAYER:0
M107
G0 F6000 X61.368 Y32.451 Z0.2
;TYPE:SKIRT
G1 F1500 E0
G1 F1200 X62.784 Y29.66 E0.10409
G1 X63.177 Y28.975 E0.13036
G1 X63.636 Y28.333 E0.15661
G1 X64.217 Y27.681 E0.18565
G1 X66.405 Y25.487 E0.28871
G1 X66.99 Y24.957 E0.31497
G1 X67.626 Y24.489 E0.34123
G1 X68.36 Y24.059 E0.36952
G1 X71.144 Y22.627 E0.47365
G1 X71.864 Y22.302 E0.49993
G1 X72.613 Y22.051 E0.5262
G1 X73.463 Y21.864 E0.55515
G1 X76.557 Y21.362 E0.6594
G1 X77.342 Y21.275 E0.68567
G1 X77.801 Y21.261 E0.70094
G1 X86.326 Y21.256 E0.98448
G1 X139.171 Y21.256 E2.74212
G1 X139.96 Y21.296 E2.76839
G1 X140.388 Y21.352 E2.78275
G1 X143.458 Y21.837 E2.88612
G1 X144.231 Y21.999 E2.91239
G1 X144.983 Y22.239 E2.93865
G1 X145.758 Y22.579 E2.9668
G1 X148.567 Y23.998 E3.07147
G1 X149.253 Y24.389 E3.09773
G1 X149.896 Y24.848 E3.12401
G1 X150.555 Y25.435 E3.15336
G1 X152.768 Y27.64 E3.25726
G1 X153.299 Y28.225 E3.28354
G1 X153.768 Y28.86 E3.3098
G1 X154.209 Y29.616 E3.33891
G1 X155.632 Y32.401 E3.44293
G1 X155.955 Y33.122 E3.4692
G1 X156.204 Y33.871 E3.49546
G1 X156.388 Y34.717 E3.52425
G1 X156.884 Y37.816 E3.62864
G1 X156.977 Y38.777 E3.66075
G1 X157.691 Y59.229 E4.3414
G1 X157.679 Y60.018 E4.36765
G1 X157.609 Y60.662 E4.38919
G1 X157.133 Y63.824 E4.49555
G1 X156.976 Y64.598 E4.52181
G1 X156.742 Y65.352 E4.54807
G1 X156.375 Y66.193 E4.57859
G1 X154.959 Y68.983 E4.68265
G1 X154.567 Y69.668 E4.7089
G1 X154.107 Y70.31 E4.73517
G1 X153.529 Y70.958 E4.76405
G1 X151.326 Y73.169 E4.86786
G1 X150.741 Y73.7 E4.89414
G1 X150.106 Y74.168 E4.92038
G1 X149.348 Y74.611 E4.94958
G1 X146.579 Y76.025 E5.05299
G1 X145.859 Y76.348 E5.07923
G1 X145.109 Y76.596 E5.10551
G1 X144.284 Y76.777 E5.1336
G1 X141.19 Y77.28 E5.23786
G1 X140.483 Y77.362 E5.26153
G1 X137.615 Y77.563 E5.35716
G1 X137.636 Y78.122 E5.37576
G1 X137.585 Y78.91 E5.40202
G1 X137.484 Y79.552 E5.42364
G1 X137.424 Y79.85 E5.43375
G1 X137.229 Y80.615 E5.46001
G1 X136.957 Y81.356 E5.48626
G1 X136.613 Y82.067 E5.51253
G1 X136.56 Y82.153 E5.51589
G1 X136.67 Y82.259 E5.52097
G1 X137.183 Y82.859 E5.54723
G1 X137.632 Y83.509 E5.5735
G1 X138.013 Y84.201 E5.59978
G1 X138.322 Y84.927 E5.62602
G1 X138.557 Y85.681 E5.65229
G1 X138.713 Y86.455 E5.67855
G1 X138.782 Y87.081 E5.6995
G1 X138.868 Y88.335 E5.7413
G1 X138.882 Y89.125 E5.76758
G1 X138.816 Y89.912 E5.79385
G1 X138.671 Y90.688 E5.82011
G1 X138.448 Y91.446 E5.84639
G1 X138.15 Y92.177 E5.87264
G1 X137.946 Y92.56 E5.88708
G1 X137.92 Y92.799 E5.89507
G1 X137.755 Y93.571 E5.92133
G1 X137.619 Y94.025 E5.93709
G1 X137.535 Y94.277 E5.94593
G1 X137.247 Y95.012 E5.97218
G1 X136.887 Y95.715 E5.99845
G1 X136.458 Y96.378 E6.02472
G1 X135.964 Y96.993 E6.05095
G1 X135.41 Y97.556 E6.07722
G1 X134.801 Y98.06 E6.10352
G1 X134.146 Y98.5 E6.12976
G1 X133.449 Y98.871 E6.15602
G1 X132.718 Y99.17 E6.18229
G1 X131.96 Y99.393 E6.20857
G1 X131.184 Y99.539 E6.23483
G1 X130.733 Y99.587 E6.24992
G1 X129.352 Y99.693 E6.29599
G1 X124.467 Y100.034 E6.45886
G1 X123.678 Y100.049 E6.4851
G1 X122.891 Y99.984 E6.51137
G1 X122.114 Y99.84 E6.53765
G1 X121.356 Y99.618 E6.56392
G1 X120.625 Y99.321 E6.59017
G1 X119.927 Y98.951 E6.61644
G1 X119.27 Y98.513 E6.6427
G1 X118.852 Y98.179 E6.6605
G1 X118.727 Y98.072 E6.66597
G1 X118.154 Y97.528 E6.69225
G1 X117.638 Y96.93 E6.71852
G1 X117.186 Y96.282 E6.7448
G1 X116.802 Y95.593 E6.77103
G1 X116.489 Y94.867 E6.79733
G1 X116.251 Y94.114 E6.8236
G1 X116.091 Y93.341 E6.84985
G1 X116.018 Y92.69 E6.87164
G1 X114.186 Y66.489 E7.74522
G1 X114.171 Y65.7 E7.77146
G1 X114.236 Y64.912 E7.79776
G1 X114.38 Y64.136 E7.82401
G1 X114.601 Y63.378 E7.85027
G1 X114.899 Y62.647 E7.87653
G1 X115.268 Y61.949 E7.90279
G1 X115.707 Y61.292 E7.92907
G1 X116.041 Y60.873 E7.94689
G1 X116.148 Y60.748 E7.95236
G1 X116.692 Y60.175 E7.97864
G1 X117.29 Y59.659 E8.00491
G1 X117.938 Y59.207 E8.03119
G1 X118.627 Y58.823 E8.05743
G1 X119.353 Y58.51 E8.08372
G1 X120.106 Y58.272 E8.10999
G1 X120.879 Y58.112 E8.13624
G1 X121.531 Y58.039 E8.15806
G1 X136.972 Y56.961 E8.67288
G1 X136.776 Y51.373 E8.85886
G1 X136.785 Y50.798 E8.87798
G1 X136.474 Y41.857 E9.17554
G1 X129.041 Y41.856 E9.42276
G1 X80.548 Y41.856 E11.03565
G1 X80.231 Y50.951 E11.33833
G1 X80.244 Y51.37 E11.35227
G1 X80.049 Y56.944 E11.53778
G1 X95.498 Y58.04 E12.05291
G1 X96.282 Y58.135 E12.07917
G1 X97.052 Y58.31 E12.10544
G1 X97.801 Y58.561 E12.13171
G1 X98.52 Y58.887 E12.15797
G1 X99.203 Y59.284 E12.18424
G1 X99.842 Y59.748 E12.21051
G1 X100.431 Y60.274 E12.23677
G1 X100.872 Y60.748 E12.25831
G1 X100.979 Y60.873 E12.26378
G1 X101.461 Y61.498 E12.29003
G1 X101.878 Y62.169 E12.31631
G1 X102.225 Y62.878 E12.34256
G1 X102.498 Y63.619 E12.36883
G1 X102.695 Y64.384 E12.3951
G1 X102.814 Y65.164 E12.42134
G1 X102.853 Y65.953 E12.44762
G1 X102.834 Y66.489 E12.46546
G1 X101.002 Y92.691 E13.33907
G1 X100.907 Y93.475 E13.36533
G1 X100.733 Y94.245 E13.39159
G1 X100.483 Y94.994 E13.41785
G1 X100.158 Y95.714 E13.44413
G1 X99.761 Y96.397 E13.4704
G1 X99.298 Y97.036 E13.49665
G1 X98.773 Y97.626 E13.52292
G1 X98.293 Y98.073 E13.54473
G1 X98.168 Y98.18 E13.5502
G1 X97.543 Y98.662 E13.57645
G1 X96.872 Y99.079 E13.60273
G1 X96.163 Y99.426 E13.62898
G1 X95.422 Y99.699 E13.65525
G1 X94.657 Y99.896 E13.68152
G1 X93.877 Y100.015 E13.70777
G1 X93.088 Y100.054 E13.73404
G1 X92.552 Y100.035 E13.75188
G1 X86.344 Y99.601 E13.95886
G1 X85.56 Y99.506 E13.98513
G1 X84.79 Y99.332 E14.01139
G1 X84.041 Y99.082 E14.03765
G1 X83.321 Y98.757 E14.06392
G1 X82.638 Y98.361 E14.09018
G1 X81.999 Y97.897 E14.11645
G1 X81.409 Y97.372 E14.14271
G1 X80.876 Y96.789 E14.16899
G1 X80.404 Y96.156 E14.19525
G1 X79.999 Y95.478 E14.22152
G1 X79.664 Y94.763 E14.24778
G1 X79.494 Y94.304 E14.26406
G1 X79.409 Y94.051 E14.27294
G1 X79.196 Y93.291 E14.29919
G1 X79.065 Y92.536 E14.32467
G1 X78.801 Y92.006 E14.34437
G1 X78.522 Y91.267 E14.37064
G1 X78.319 Y90.504 E14.3969
G1 X78.194 Y89.725 E14.42314
G1 X78.148 Y88.936 E14.44943
G1 X78.161 Y88.435 E14.4661
G1 X78.233 Y87.181 E14.50787
G1 X78.318 Y86.396 E14.53414
G1 X78.482 Y85.623 E14.56042
G1 X78.723 Y84.871 E14.58668
G1 X79.039 Y84.148 E14.61293
G1 X79.427 Y83.46 E14.6392
G1 X79.882 Y82.815 E14.66545
G1 X80.4 Y82.219 E14.69171
G1 X80.471 Y82.151 E14.69498
G1 X80.37 Y81.984 E14.70148
G1 X80.034 Y81.269 E14.72775
G1 X79.772 Y80.524 E14.75402
G1 X79.61 Y79.876 E14.77623
G1 X79.549 Y79.578 E14.78635
G1 X79.43 Y78.798 E14.81259
G1 X79.391 Y78.009 E14.83887
G1 X79.414 Y77.564 E14.85369
G1 X76.572 Y77.366 E14.94844
G1 X75.897 Y77.289 E14.97104
G1 X72.817 Y76.802 E15.07475
G1 X72.044 Y76.64 E15.10102
G1 X71.292 Y76.4 E15.12728
G1 X70.508 Y76.055 E15.15577
G1 X67.739 Y74.651 E15.25903
G1 X67.053 Y74.259 E15.2853
G1 X66.411 Y73.799 E15.31157
G1 X65.769 Y73.228 E15.34015
G1 X63.552 Y71.026 E15.44408
G1 X63.021 Y70.442 E15.47033
G1 X62.551 Y69.807 E15.49661
G1 X62.112 Y69.058 E15.52548
G1 X60.682 Y66.276 E15.62952
G1 X60.357 Y65.556 E15.65579
G1 X60.106 Y64.807 E15.68207
G1 X59.92 Y63.96 E15.71091
G1 X59.418 Y60.869 E15.81506
G1 X59.331 Y60.085 E15.8413
G1 X59.322 Y59.346 E15.86588
G1 X60.042 Y38.803 E16.54956
G1 X60.132 Y37.864 E16.58094
G1 X60.619 Y34.768 E16.68518
G1 X60.781 Y33.995 E16.71145
G1 X61.02 Y33.243 E16.73769
G1 X61.368 Y32.451 E16.76646
G0 F6000 X61.725 Y32.632
G1 F1200 X63.141 Y29.841 E16.87056
G1 X63.524 Y29.174 E16.89614
G1 X63.974 Y28.55 E16.92173
G1 X64.5 Y27.964 E16.94792
G1 X66.688 Y25.77 E17.05097
G1 X67.259 Y25.254 E17.07657
G1 X67.88 Y24.8 E17.10216
G1 X68.543 Y24.414 E17.12767
G1 X71.327 Y22.982 E17.2318
G1 X72.029 Y22.667 E17.25739
G1 X72.759 Y22.425 E17.28297
G1 X73.527 Y22.259 E17.30911
G1 X76.621 Y21.757 E17.41336
G1 X77.385 Y21.673 E17.43892
G1 X77.802 Y21.661 E17.4528
G1 X86.327 Y21.656 E17.73634
G1 X139.171 Y21.656 E19.49394
G1 X139.939 Y21.696 E19.51952
G1 X140.326 Y21.747 E19.5325
G1 X143.396 Y22.232 E19.63588
G1 X144.148 Y22.391 E19.66144
G1 X144.88 Y22.628 E19.68703
G1 X145.578 Y22.936 E19.71241
G1 X148.387 Y24.355 E19.81708
G1 X149.054 Y24.737 E19.84264
G1 X149.679 Y25.186 E19.86824
G1 X150.273 Y25.718 E19.89476
G1 X152.486 Y27.923 E19.99867
G1 X153.002 Y28.493 E20.02424
G1 X153.456 Y29.114 E20.04982
G1 X153.853 Y29.798 E20.07613
G1 X155.276 Y32.583 E20.18015
G1 X155.59 Y33.285 E20.20573
G1 X155.829 Y34.016 E20.23131
G1 X155.993 Y34.781 E20.25733
G1 X156.489 Y37.88 E20.36171
G1 X156.577 Y38.791 E20.39215
G1 X157.291 Y59.243 E21.0728
G1 X157.278 Y60.012 E21.09839
G1 X157.214 Y60.603 E21.11816
G1 X156.738 Y63.765 E21.22451
G1 X156.584 Y64.518 E21.25007
G1 X156.352 Y65.252 E21.27568
G1 X156.019 Y66.012 E21.30327
G1 X154.603 Y68.802 E21.40734
G1 X154.219 Y69.469 E21.43294
G1 X153.769 Y70.092 E21.4585
G1 X153.246 Y70.676 E21.48457
G1 X151.043 Y72.887 E21.58838
G1 X150.473 Y73.403 E21.61396
G1 X149.852 Y73.857 E21.63954
G1 X149.166 Y74.254 E21.6659
G1 X146.397 Y75.668 E21.76931
G1 X145.695 Y75.982 E21.79489
G1 X144.964 Y76.221 E21.82047
G1 X144.219 Y76.382 E21.84582
G1 X141.125 Y76.885 E21.95008
G1 X140.455 Y76.963 E21.97251
G1 X137.181 Y77.192 E22.08167
G1 X137.224 Y77.567 E22.09423
G1 X137.23 Y78.336 E22.11981
G1 X137.091 Y79.473 E22.1579
G1 X137.031 Y79.771 E22.16801
G1 X136.841 Y80.516 E22.19359
G1 X136.574 Y81.237 E22.21916
G1 X136.233 Y81.927 E22.24476
G1 X136.049 Y82.218 E22.25621
G1 X136.393 Y82.548 E22.27206
G1 X136.89 Y83.135 E22.29765
G1 X137.323 Y83.771 E22.32324
G1 X137.688 Y84.448 E22.34882
G1 X137.981 Y85.159 E22.37439
G1 X138.198 Y85.897 E22.39998
G1 X138.337 Y86.653 E22.42555
G1 X138.383 Y87.109 E22.44079
G1 X138.469 Y88.363 E22.4826
G1 X138.481 Y89.132 E22.50818
G1 X138.414 Y89.898 E22.53375
G1 X138.268 Y90.653 E22.55933
G1 X138.044 Y91.389 E22.58492
G1 X137.745 Y92.097 E22.61048
G1 X137.557 Y92.438 E22.62343
G1 X137.49 Y92.932 E22.64001
G1 X137.239 Y93.898 E22.67321
G1 X137.155 Y94.15 E22.68204
G1 X136.874 Y94.866 E22.70762
G1 X136.521 Y95.549 E22.73319
G1 X136.098 Y96.192 E22.75879
G1 X135.611 Y96.787 E22.78437
G1 X135.065 Y97.329 E22.80995
G1 X134.465 Y97.811 E22.83555
G1 X133.819 Y98.228 E22.86113
G1 X133.133 Y98.575 E22.8867
G1 X132.415 Y98.85 E22.91227
G1 X131.672 Y99.049 E22.93785
G1 X130.703 Y99.188 E22.97041
G1 X129.324 Y99.294 E23.01641
G1 X124.439 Y99.635 E23.17928
G1 X123.67 Y99.649 E23.20486
G1 X122.904 Y99.582 E23.23044
G1 X122.149 Y99.437 E23.25601
G1 X121.413 Y99.214 E23.28159
G1 X120.704 Y98.916 E23.30717
G1 X120.029 Y98.545 E23.33279
G1 X119.112 Y97.875 E23.37056
G1 X118.987 Y97.768 E23.37603
G1 X118.429 Y97.238 E23.40163
G1 X117.93 Y96.653 E23.4272
G1 X117.494 Y96.019 E23.45279
G1 X117.126 Y95.344 E23.47836
G1 X116.83 Y94.634 E23.50395
G1 X116.609 Y93.897 E23.52954
G1 X116.466 Y93.141 E23.55513
G1 X116.417 Y92.662 E23.57115
G1 X114.585 Y66.461 E24.44472
G1 X114.571 Y65.692 E24.4703
G1 X114.638 Y64.926 E24.49588
G1 X114.783 Y64.171 E24.52145
G1 X115.006 Y63.434 E24.54706
G1 X115.304 Y62.725 E24.57264
G1 X115.674 Y62.051 E24.59821
G1 X116.345 Y61.133 E24.63603
G1 X116.452 Y61.008 E24.6415
G1 X116.982 Y60.45 E24.6671
G1 X117.567 Y59.951 E24.69267
G1 X118.201 Y59.515 E24.71827
G1 X118.876 Y59.147 E24.74384
G1 X119.586 Y58.851 E24.76942
G1 X120.323 Y58.63 E24.79501
G1 X121.079 Y58.487 E24.8206
G1 X121.559 Y58.438 E24.83665
G1 X137.386 Y57.333 E25.36434
G1 X137.176 Y51.359 E25.56316
G1 X137.185 Y50.822 E25.58102
G1 X136.86 Y41.457 E25.89269
G1 X129.041 Y41.456 E26.15275
G1 X80.162 Y41.456 E27.77847
G1 X79.835 Y50.859 E28.09141
G1 X79.844 Y51.356 E28.10794
G1 X79.636 Y57.315 E28.30626
G1 X95.47 Y58.439 E28.83422
G1 X96.233 Y58.533 E28.85979
G1 X96.983 Y58.706 E28.88539
G1 X97.71 Y58.956 E28.91096
G1 X98.408 Y59.28 E28.93656
G1 X99.068 Y59.674 E28.96212
G1 X99.684 Y60.135 E28.98771
G1 X100.248 Y60.658 E29.0133
G1 X100.568 Y61.008 E29.02907
G1 X100.675 Y61.133 E29.03454
G1 X101.144 Y61.742 E29.06011
G1 X101.547 Y62.397 E29.08569
G1 X101.88 Y63.091 E29.11129
G1 X102.14 Y63.815 E29.13688
G1 X102.323 Y64.562 E29.16246
G1 X102.427 Y65.324 E29.18804
G1 X102.435 Y66.461 E29.22585
G1 X100.603 Y92.663 E30.09946
G1 X100.51 Y93.427 E30.12506
G1 X100.337 Y94.176 E30.15063
G1 X100.088 Y94.904 E30.17622
G1 X99.765 Y95.602 E30.2018
G1 X99.371 Y96.262 E30.22737
G1 X98.911 Y96.879 E30.25296
G1 X98.389 Y97.444 E30.27855
G1 X98.033 Y97.769 E30.29458
G1 X97.908 Y97.876 E30.30005
G1 X97.299 Y98.345 E30.32562
G1 X96.644 Y98.748 E30.3512
G1 X95.95 Y99.081 E30.3768
G1 X95.226 Y99.341 E30.40239
G1 X94.479 Y99.524 E30.42797
G1 X93.717 Y99.628 E30.45354
G1 X92.58 Y99.636 E30.49136
G1 X86.372 Y99.202 E30.69834
G1 X85.608 Y99.109 E30.72394
G1 X84.859 Y98.936 E30.74951
G1 X84.131 Y98.687 E30.7751
G1 X83.433 Y98.364 E30.80068
G1 X82.773 Y97.97 E30.82625
G1 X82.156 Y97.51 E30.85185
G1 X81.591 Y96.988 E30.87743
G1 X81.084 Y96.41 E30.903
G1 X80.639 Y95.783 E30.92857
G1 X80.261 Y95.113 E30.95416
G1 X79.873 Y94.177 E30.98786
G1 X79.788 Y93.924 E30.99674
G1 X79.582 Y93.183 E31.02232
G1 X79.453 Y92.425 E31.04789
G1 X79.144 Y91.791 E31.07135
G1 X78.879 Y91.069 E31.09693
G1 X78.69 Y90.323 E31.12253
G1 X78.579 Y89.562 E31.14811
G1 X78.56 Y88.458 E31.18483
G1 X78.632 Y87.204 E31.22661
G1 X78.716 Y86.439 E31.2522
G1 X78.879 Y85.688 E31.27776
G1 X79.119 Y84.957 E31.30335
G1 X79.433 Y84.255 E31.32893
G1 X79.819 Y83.589 E31.35453
G1 X80.272 Y82.968 E31.3801
G1 X80.787 Y82.396 E31.4057
G1 X80.973 Y82.221 E31.41419
G1 X80.631 Y81.618 E31.43725
G1 X80.324 Y80.912 E31.46286
G1 X80.091 Y80.179 E31.48844
G1 X80.002 Y79.796 E31.50152
G1 X79.941 Y79.498 E31.51163
G1 X79.826 Y78.737 E31.53723
G1 X79.791 Y77.969 E31.5628
G1 X79.836 Y77.201 E31.58839
G1 X76.599 Y76.967 E31.69633
G1 X75.959 Y76.894 E31.71776
G1 X72.879 Y76.407 E31.82147
G1 X72.127 Y76.248 E31.84704
G1 X71.395 Y76.011 E31.87263
G1 X70.688 Y75.698 E31.89834
G1 X67.919 Y74.294 E32.0016
G1 X67.252 Y73.911 E32.02718
G1 X66.629 Y73.461 E32.05275
G1 X66.051 Y72.944 E32.07854
G1 X63.834 Y70.742 E32.18247
G1 X63.317 Y70.173 E32.20804
G1 X62.863 Y69.552 E32.23362
G1 X62.468 Y68.875 E32.25969
G1 X61.038 Y66.093 E32.36373
G1 X60.722 Y65.392 E32.38931
G1 X60.481 Y64.661 E32.41491
G1 X60.315 Y63.896 E32.44094
G1 X59.813 Y60.805 E32.5451
G1 X59.729 Y60.041 E32.57066
G1 X59.722 Y59.36 E32.59331
G1 X60.442 Y38.817 E33.27699
G1 X60.527 Y37.926 E33.30676
G1 X61.014 Y34.83 E33.411
G1 X61.173 Y34.078 E33.43657
G1 X61.409 Y33.346 E33.46215
G1 X61.725 Y32.632 E33.48812
G0 F6000 X62.081 Y32.813
G1 F1200 X63.497 Y30.022 E33.59221
G1 X63.871 Y29.374 E33.6171
G1 X64.312 Y28.769 E33.642
G1 X64.783 Y28.246 E33.66541
G1 X66.971 Y26.052 E33.76846
G1 X67.527 Y25.551 E33.79336
G1 X68.133 Y25.113 E33.81822
G1 X68.726 Y24.77 E33.84101
G1 X71.51 Y23.338 E33.94514
G1 X72.193 Y23.032 E33.97003
G1 X72.904 Y22.801 E33.99489
G1 X73.591 Y22.653 E34.01827
G1 X76.685 Y22.151 E34.12252
G1 X77.802 Y22.061 E34.15979
G1 X86.327 Y22.056 E34.44334
G1 X139.171 Y22.056 E36.20093
G1 X140.263 Y22.142 E36.23737
G1 X143.333 Y22.627 E36.34074
G1 X144.065 Y22.783 E36.36563
G1 X144.776 Y23.016 E36.39052
G1 X145.397 Y23.293 E36.41314
G1 X148.206 Y24.712 E36.51781
G1 X148.855 Y25.084 E36.54269
G1 X149.46 Y25.524 E36.56757
G1 X149.991 Y26.001 E36.59131
G1 X152.204 Y28.206 E36.69522
G1 X152.705 Y28.762 E36.72011
G1 X153.144 Y29.368 E36.745
G1 X153.496 Y29.98 E36.76848
