;FLAVOR:Marlin
;TIME:12436
;Filament used: 8.80263m
;Layer height: 0.2
;MINX:47.2
;MINY:17.2
;MINZ:0.2
;MAXX:172.8
;MAXY:202.8
;MAXZ:1.4
;Generated with Cura_SteamEngine 4.5.0
M140 S60
M105
M190 S60
M104 S190
M105
M109 S190
M82 ;absolute extrusion mode
M201 X500.00 Y500.00 Z100.00 E5000.00 ;Setup machine max acceleration
M203 X500.00 Y500.00 Z10.00 E50.00 ;Setup machine max feedrate
M204 P500.00 R1000.00 T500.00 ;Setup Print/Retract/Travel acceleration
M205 X8.00 Y8.00 Z0.40 E5.00 ;Setup Jerk
M220 S100 ;Reset Feedrate
M221 S100 ;Reset Flowrate

G28 ;Home
M420 S1 Z2 ;Enable ABL using saved Mesh and Fade Height
G29     ;autobedlevel
G92 E0 ;Reset Extruder
G1 Z2.0 F3000 ;Move Z Axis up
G1 X10.1 Y20 Z0.28 F5000.0 ;Move to start position
G1 X10.1 Y200.0 Z0.28 F1500.0 E15 ;Draw the first line
G1 X10.4 Y200.0 Z0.28 F5000.0 ;Move to side a little
G1 X10.4 Y20 Z0.28 F1500.0 E30 ;Draw the second line
G92 E0 ;Reset Extruder
G92 E0
G92 E0
G1 F1500 E-6.5
;LAYER_COUNT:7
;LAYER:0
M107
G0 F6000 X47.831 Y22.043 Z0.2
;TYPE:SKIRT
G1 F1500 E0
G1 F1200 X48.179 Y21.334 E0.02627
G1 X48.597 Y20.663 E0.05256
G1 X49.08 Y20.039 E0.07881
G1 X49.485 Y19.602 E0.09862
G1 X49.602 Y19.485 E0.10413
G1 X50.188 Y18.955 E0.13041
G1 X50.824 Y18.488 E0.15665
G1 X51.504 Y18.087 E0.18291
G1 X52.222 Y17.757 E0.20919
G1 X52.969 Y17.502 E0.23544
G1 X53.738 Y17.323 E0.2617
G1 X54.522 Y17.223 E0.28799
G1 X55.117 Y17.2 E0.3078
G1 X164.883 Y17.2 E3.95863
G1 X165.672 Y17.24 E3.9849
G1 X166.452 Y17.359 E4.01115
G1 X167.217 Y17.557 E4.03743
G1 X167.957 Y17.831 E4.06367
G1 X168.666 Y18.179 E4.08994
G1 X169.337 Y18.597 E4.11624
G1 X169.961 Y19.08 E4.14248
G1 X170.398 Y19.485 E4.1623
G1 X170.515 Y19.602 E4.1678
G1 X171.045 Y20.188 E4.19408
G1 X171.512 Y20.824 E4.22033
G1 X171.913 Y21.504 E4.24658
G1 X172.243 Y22.222 E4.27286
G1 X172.498 Y22.969 E4.29912
G1 X172.677 Y23.738 E4.32538
G1 X172.777 Y24.522 E4.35167
G1 X172.8 Y25.117 E4.37147
G1 X172.8 Y194.883 E10.01791
G1 X172.76 Y195.672 E10.04419
G1 X172.641 Y196.452 E10.07043
G1 X172.443 Y197.217 E10.09671
G1 X172.169 Y197.957 E10.12296
G1 X171.821 Y198.666 E10.14923
G1 X171.403 Y199.337 E10.17552
G1 X170.92 Y199.961 E10.20177
G1 X170.515 Y200.398 E10.22158
G1 X170.398 Y200.515 E10.22709
G1 X169.812 Y201.045 E10.25337
G1 X169.176 Y201.512 E10.27961
G1 X168.496 Y201.913 E10.30587
G1 X167.778 Y202.243 E10.33215
G1 X167.031 Y202.498 E10.3584
G1 X166.262 Y202.677 E10.38466
G1 X165.478 Y202.777 E10.41095
G1 X164.883 Y202.8 E10.43075
G1 X55.117 Y202.8 E14.08159
G1 X54.328 Y202.76 E14.10786
G1 X53.548 Y202.641 E14.1341
G1 X52.783 Y202.443 E14.16039
G1 X52.043 Y202.169 E14.18663
G1 X51.334 Y201.821 E14.2129
G1 X50.663 Y201.403 E14.23919
G1 X50.039 Y200.92 E14.26544
G1 X49.602 Y200.515 E14.28526
G1 X49.485 Y200.398 E14.29076
G1 X48.955 Y199.812 E14.31704
G1 X48.488 Y199.176 E14.34328
G1 X48.087 Y198.496 E14.36954
G1 X47.757 Y197.778 E14.39582
G1 X47.502 Y197.031 E14.42208
G1 X47.323 Y196.262 E14.44834
G1 X47.223 Y195.478 E14.47462
G1 X47.2 Y194.883 E14.49443
G1 X47.2 Y25.117 E20.14087
G1 X47.24 Y24.328 E20.16714
G1 X47.359 Y23.548 E20.19339
G1 X47.557 Y22.783 E20.21967
G1 X47.831 Y22.043 E20.24592
G0 F6000 X48.231 Y22.127
G1 F1200 X48.578 Y21.441 E20.27148
G1 X48.994 Y20.794 E20.29707
G1 X49.475 Y20.194 E20.32265
G1 X49.884 Y19.767 E20.34231
G1 X50.456 Y19.253 E20.36789
G1 X51.078 Y18.8 E20.39348
G1 X51.743 Y18.414 E20.41906
G1 X52.445 Y18.099 E20.44465
G1 X53.176 Y17.859 E20.47024
G1 X53.927 Y17.696 E20.4958
G1 X54.692 Y17.612 E20.52139
G1 X55.117 Y17.6 E20.53554
G1 X164.883 Y17.6 E24.18637
G1 X165.651 Y17.64 E24.21195
G1 X166.411 Y17.759 E24.23753
G1 X167.154 Y17.957 E24.26311
G1 X167.873 Y18.231 E24.2887
G1 X168.559 Y18.578 E24.31427
G1 X169.206 Y18.994 E24.33985
G1 X169.806 Y19.475 E24.36543
G1 X170.233 Y19.884 E24.38509
G1 X170.747 Y20.456 E24.41067
G1 X171.2 Y21.078 E24.43626
G1 X171.586 Y21.743 E24.46184
G1 X171.901 Y22.445 E24.48743
G1 X172.141 Y23.176 E24.51302
G1 X172.304 Y23.927 E24.53858
G1 X172.388 Y24.692 E24.56418
G1 X172.4 Y25.117 E24.57832
G1 X172.4 Y194.883 E30.22476
G1 X172.36 Y195.651 E30.25034
G1 X172.241 Y196.411 E30.27592
G1 X172.043 Y197.154 E30.3015
G1 X171.769 Y197.873 E30.32709
G1 X171.422 Y198.559 E30.35266
G1 X171.006 Y199.206 E30.37824
G1 X170.525 Y199.806 E30.40382
G1 X170.116 Y200.233 E30.42348
G1 X169.544 Y200.747 E30.44906
G1 X168.922 Y201.2 E30.47465
G1 X168.257 Y201.586 E30.50023
G1 X167.555 Y201.901 E30.52582
G1 X166.824 Y202.141 E30.55141
G1 X166.073 Y202.304 E30.57697
G1 X165.308 Y202.388 E30.60257
G1 X164.883 Y202.4 E30.61671
G1 X55.117 Y202.4 E34.26754
G1 X54.349 Y202.36 E34.29312
G1 X53.589 Y202.241 E34.3187
G1 X52.846 Y202.043 E34.34428
G1 X52.127 Y201.769 E34.36987
G1 X51.441 Y201.422 E34.39544
G1 X50.794 Y201.006 E34.42102
G1 X50.194 Y200.525 E34.4466
G1 X49.767 Y200.116 E34.46627
G1 X49.253 Y199.544 E34.49184
G1 X48.8 Y198.922 E34.51744
G1 X48.414 Y198.257 E34.54301
G1 X48.099 Y197.555 E34.5686
G1 X47.859 Y196.824 E34.59419
G1 X47.696 Y196.073 E34.61975
G1 X47.612 Y195.308 E34.64535
G1 X47.6 Y194.883 E34.65949
G1 X47.6 Y25.117 E40.30593
G1 X47.64 Y24.349 E40.33151
G1 X47.759 Y23.589 E40.35709
G1 X47.957 Y22.846 E40.38267
G1 X48.231 Y22.127 E40.40826
G0 F6000 X48.63 Y22.214
G1 F1200 X48.977 Y21.551 E40.43315
G1 X49.392 Y20.928 E40.45805
G1 X50.05 Y20.167 E40.49151
G1 X50.167 Y20.05 E40.49701
G1 X50.724 Y19.55 E40.52191
G1 X51.33 Y19.113 E40.54676
G1 X51.98 Y18.742 E40.57165
G1 X52.666 Y18.443 E40.59654
G1 X53.38 Y18.219 E40.62143
G1 X54.113 Y18.072 E40.64629
G1 X55.117 Y18 E40.67977
G1 X164.883 Y18 E44.3306
G1 X165.63 Y18.04 E44.35548
G1 X166.368 Y18.159 E44.38035
G1 X167.09 Y18.357 E44.40525
G1 X167.786 Y18.63 E44.43011
G1 X168.449 Y18.977 E44.455
G1 X169.072 Y19.392 E44.4799
G1 X169.833 Y20.05 E44.51336
G1 X169.95 Y20.167 E44.51886
G1 X170.45 Y20.724 E44.54376
G1 X170.887 Y21.33 E44.56861
G1 X171.258 Y21.98 E44.5935
G1 X171.557 Y22.666 E44.61839
G1 X171.781 Y23.38 E44.64328
G1 X171.928 Y24.113 E44.66815
G1 X172 Y25.117 E44.70162
G1 X172 Y194.883 E50.34806
G1 X171.96 Y195.63 E50.37295
G1 X171.841 Y196.368 E50.39781
G1 X171.643 Y197.09 E50.42271
G1 X171.37 Y197.786 E50.44758
G1 X171.023 Y198.449 E50.47246
G1 X170.608 Y199.072 E50.49736
G1 X169.95 Y199.833 E50.53082
G1 X169.833 Y199.95 E50.53633
G1 X169.276 Y200.45 E50.56122
G1 X168.67 Y200.887 E50.58607
G1 X168.02 Y201.258 E50.61096
G1 X167.334 Y201.557 E50.63585
G1 X166.62 Y201.781 E50.66074
G1 X165.887 Y201.928 E50.68561
G1 X164.883 Y202 E50.71909
G1 X55.117 Y202 E54.36992
G1 X54.37 Y201.96 E54.3948
G1 X53.632 Y201.841 E54.41966
G1 X52.91 Y201.643 E54.44456
G1 X52.214 Y201.37 E54.46943
G1 X51.551 Y201.023 E54.49432
G1 X50.928 Y200.608 E54.51921
G1 X50.167 Y199.95 E54.55268
G1 X50.05 Y199.833 E54.55818
G1 X49.55 Y199.276 E54.58307
G1 X49.113 Y198.67 E54.60792
G1 X48.742 Y198.02 E54.63282
G1 X48.443 Y197.334 E54.65771
G1 X48.219 Y196.62 E54.68259
G1 X48.072 Y195.887 E54.70746
G1 X48 Y194.883 E54.74094
G1 X48 Y25.117 E60.38738
G1 X48.04 Y24.37 E60.41226
G1 X48.159 Y23.632 E60.43712
G1 X48.357 Y22.91 E60.46202
G1 X48.63 Y22.214 E60.48689
G0 F6000 X49.03 Y22.303
G1 F1200 X49.375 Y21.664 E60.51104
G1 X49.789 Y21.067 E60.53521
G1 X50.333 Y20.45 E60.56256
G1 X50.45 Y20.333 E60.56807
G1 X50.991 Y19.849 E60.59221
G1 X51.582 Y19.426 E60.61638
G1 X52.216 Y19.072 E60.64054
G1 X52.885 Y18.789 E60.6647
G1 X53.581 Y18.581 E60.68886
G1 X54.296 Y18.451 E60.71303
G1 X55.117 Y18.4 E60.74039
G1 X164.883 Y18.4 E64.39122
G1 X165.608 Y18.44 E64.41537
G1 X166.325 Y18.559 E64.43954
G1 X167.024 Y18.757 E64.46371
G1 X167.697 Y19.03 E64.48786
G1 X168.336 Y19.375 E64.51201
G1 X168.933 Y19.789 E64.53618
G1 X169.55 Y20.333 E64.56354
G1 X169.667 Y20.45 E64.56904
G1 X170.151 Y20.991 E64.59318
G1 X170.574 Y21.582 E64.61736
G1 X170.928 Y22.216 E64.64151
G1 X171.211 Y22.885 E64.66567
G1 X171.419 Y23.581 E64.68983
G1 X171.549 Y24.296 E64.714
G1 X171.6 Y25.117 E64.74136
G1 X171.6 Y194.883 E70.3878
G1 X171.56 Y195.608 E70.41195
G1 X171.441 Y196.325 E70.43612
G1 X171.243 Y197.024 E70.46029
G1 X170.97 Y197.697 E70.48444
G1 X170.625 Y198.336 E70.5086
G1 X170.211 Y198.933 E70.53276
G1 X169.667 Y199.55 E70.56012
G1 X169.55 Y199.667 E70.56562
G1 X169.009 Y200.151 E70.58976
G1 X168.418 Y200.574 E70.61394
G1 X167.784 Y200.928 E70.63809
G1 X167.115 Y201.211 E70.66225
G1 X166.419 Y201.419 E70.68641
G1 X165.704 Y201.549 E70.71058
G1 X164.883 Y201.6 E70.73794
G1 X55.117 Y201.6 E74.38877
G1 X54.392 Y201.56 E74.41292
G1 X53.675 Y201.441 E74.4371
G1 X52.976 Y201.243 E74.46126
G1 X52.303 Y200.97 E74.48542
G1 X51.664 Y200.625 E74.50957
G1 X51.067 Y200.211 E74.53373
G1 X50.45 Y199.667 E74.56109
G1 X50.333 Y199.55 E74.56659
G1 X49.849 Y199.009 E74.59074
G1 X49.426 Y198.418 E74.61491
G1 X49.072 Y197.784 E74.63906
G1 X48.789 Y197.115 E74.66322
G1 X48.581 Y196.419 E74.68738
G1 X48.451 Y195.704 E74.71155
G1 X48.4 Y194.883 E74.73891
G1 X48.4 Y25.117 E80.38535
G1 X48.44 Y24.392 E80.4095
G1 X48.559 Y23.675 E80.43368
G1 X48.757 Y22.976 E80.45784
G1 X49.03 Y22.303 E80.482
G0 F6000 X49.429 Y22.396
G1 F1200 X49.774 Y21.782 E80.50542
G1 X50.185 Y21.211 E80.52882
G1 X50.616 Y20.733 E80.55023
G1 X50.733 Y20.616 E80.55573
G1 X51.258 Y20.147 E80.57914
G1 X51.833 Y19.741 E80.60256
G1 X52.451 Y19.403 E80.62598
G1 X53.102 Y19.136 E80.64939
G1 X53.78 Y18.946 E80.67281
G1 X54.475 Y18.833 E80.69623
G1 X55.117 Y18.8 E80.71761
G1 X164.883 Y18.8 E84.36844
G1 X165.586 Y18.84 E84.39186
G1 X166.28 Y18.959 E84.41528
G1 X166.955 Y19.157 E84.43867
G1 X167.604 Y19.429 E84.46208
G1 X168.218 Y19.774 E84.4855
G1 X168.789 Y20.185 E84.5089
G1 X169.267 Y20.616 E84.53031
G1 X169.384 Y20.733 E84.53581
G1 X169.853 Y21.258 E84.55923
G1 X170.259 Y21.833 E84.58264
G1 X170.597 Y22.451 E84.60607
G1 X170.864 Y23.102 E84.62947
G1 X171.054 Y23.78 E84.65289
G1 X171.167 Y24.475 E84.67631
G1 X171.2 Y25.117 E84.69769
G1 X171.2 Y194.883 E90.34413
G1 X171.16 Y195.586 E90.36755
G1 X171.041 Y196.28 E90.39097
G1 X170.843 Y196.955 E90.41437
G1 X170.571 Y197.604 E90.43777
G1 X170.226 Y198.218 E90.4612
G1 X169.815 Y198.789 E90.4846
G1 X169.384 Y199.267 E90.506
G1 X169.267 Y199.384 E90.51151
G1 X168.742 Y199.853 E90.53492
G1 X168.167 Y200.259 E90.55833
G1 X167.549 Y200.597 E90.58176
G1 X166.898 Y200.864 E90.60516
G1 X166.22 Y201.054 E90.62858
G1 X165.525 Y201.167 E90.652
G1 X164.883 Y201.2 E90.67338
G1 X55.117 Y201.2 E94.32421
G1 X54.414 Y201.16 E94.34763
G1 X53.72 Y201.041 E94.37105
G1 X53.045 Y200.843 E94.39445
G1 X52.396 Y200.571 E94.41785
G1 X51.782 Y200.226 E94.44128
G1 X51.211 Y199.815 E94.46468
G1 X50.733 Y199.384 E94.48609
G1 X50.616 Y199.267 E94.49159
G1 X50.147 Y198.742 E94.515
G1 X49.741 Y198.167 E94.53841
G1 X49.403 Y197.549 E94.56184
G1 X49.136 Y196.898 E94.58525
G1 X48.946 Y196.22 E94.60866
G1 X48.833 Y195.525 E94.63208
G1 X48.8 Y194.883 E94.65347
G1 X48.8 Y25.117 E100.29991
G1 X48.84 Y24.414 E100.32333
G1 X48.959 Y23.72 E100.34674
G1 X49.157 Y23.045 E100.37014
G1 X49.429 Y22.396 E100.39355
G0 F6000 X49.556 Y23.115
G1 F1200 X49.828 Y22.491 E100.41619
G1 X50.172 Y21.903 E100.43884
G1 X50.582 Y21.359 E100.4615
G1 X50.899 Y21.016 E100.47704
G1 X51.016 Y20.899 E100.48254
G1 X51.525 Y20.446 E100.5052
G1 X52.083 Y20.057 E100.52783
G1 X52.683 Y19.735 E100.55047
G1 X53.317 Y19.486 E100.57313
G1 X53.976 Y19.313 E100.59579
G1 X54.65 Y19.219 E100.61842
G1 X55.117 Y19.2 E100.63397
G1 X164.883 Y19.2 E104.2848
G1 X165.563 Y19.24 E104.30746
G1 X166.233 Y19.359 E104.33009
G1 X166.885 Y19.556 E104.35274
G1 X167.509 Y19.828 E104.37538
G1 X168.097 Y20.172 E104.39804
G1 X168.641 Y20.582 E104.4207
G1 X168.984 Y20.899 E104.43623
G1 X169.101 Y21.016 E104.44174
G1 X169.554 Y21.525 E104.4644
G1 X169.943 Y22.083 E104.48702
G1 X170.265 Y22.683 E104.50967
G1 X170.514 Y23.317 E104.53233
G1 X170.687 Y23.976 E104.55499
G1 X170.781 Y24.65 E104.57762
G1 X170.8 Y25.117 E104.59317
G1 X170.8 Y194.883 E110.23961
G1 X170.76 Y195.563 E110.26226
G1 X170.641 Y196.233 E110.2849
G1 X170.444 Y196.885 E110.30755
G1 X170.172 Y197.509 E110.33019
G1 X169.828 Y198.097 E110.35285
G1 X169.418 Y198.641 E110.37551
G1 X169.101 Y198.984 E110.39104
G1 X168.984 Y199.101 E110.39654
G1 X168.475 Y199.554 E110.41921
G1 X167.917 Y199.943 E110.44183
G1 X167.317 Y200.265 E110.46448
G1 X166.683 Y200.514 E110.48713
G1 X166.024 Y200.687 E110.5098
G1 X165.35 Y200.781 E110.53243
G1 X164.883 Y200.8 E110.54797
G1 X55.117 Y200.8 E114.19881
G1 X54.437 Y200.76 E114.22146
G1 X53.767 Y200.641 E114.2441
G1 X53.115 Y200.444 E114.26675
G1 X52.491 Y200.172 E114.28939
G1 X51.903 Y199.828 E114.31205
G1 X51.359 Y199.418 E114.3347
G1 X51.016 Y199.101 E114.35024
G1 X50.899 Y198.984 E114.35574
G1 X50.446 Y198.475 E114.37841
G1 X50.057 Y197.917 E114.40103
G1 X49.735 Y197.317 E114.42368
G1 X49.486 Y196.683 E114.44633
G1 X49.313 Y196.024 E114.46899
G1 X49.219 Y195.35 E114.49163
G1 X49.2 Y194.883 E114.50717
G1 X49.2 Y25.117 E120.15361
G1 X49.24 Y24.437 E120.17627
G1 X49.359 Y23.767 E120.1989
G1 X49.556 Y23.115 E120.22156
G0 F6000 X49.956 Y23.188
G1 F1200 X50.228 Y22.59 E120.24341
G1 X50.57 Y22.029 E120.26526
G1 X51.182 Y21.299 E120.29694
G1 X51.299 Y21.182 E120.30245
G1 X51.791 Y20.746 E120.32431
G1 X52.332 Y20.374 E120.34615
G1 X52.914 Y20.07 E120.36799
G1 X53.529 Y19.839 E120.38984
G1 X54.168 Y19.684 E120.41171
G1 X55.117 Y19.6 E120.44339
G1 X164.883 Y19.6 E124.09423
G1 X165.539 Y19.64 E124.11609
G1 X166.185 Y19.759 E124.13793
G1 X166.812 Y19.956 E124.15979
G1 X167.41 Y20.228 E124.18164
G1 X167.971 Y20.57 E124.2035
G1 X168.701 Y21.182 E124.23518
G1 X168.818 Y21.299 E124.24068
G1 X169.254 Y21.791 E124.26255
G1 X169.626 Y22.332 E124.28438
G1 X169.93 Y22.914 E124.30622
G1 X170.161 Y23.529 E124.32807
G1 X170.316 Y24.168 E124.34994
G1 X170.4 Y25.117 E124.38163
G1 X170.4 Y194.883 E130.02807
G1 X170.36 Y195.539 E130.04993
G1 X170.241 Y196.185 E130.07178
G1 X170.044 Y196.812 E130.09364
G1 X169.772 Y197.41 E130.11549
G1 X169.43 Y197.971 E130.13734
G1 X168.818 Y198.701 E130.16902
G1 X168.701 Y198.818 E130.17453
G1 X168.209 Y199.254 E130.19639
G1 X167.668 Y199.626 E130.21823
G1 X167.086 Y199.93 E130.24007
G1 X166.471 Y200.161 E130.26192
G1 X165.832 Y200.316 E130.28379
G1 X164.883 Y200.4 E130.31547
G1 X55.117 Y200.4 E133.96631
G1 X54.461 Y200.36 E133.98817
G1 X53.815 Y200.241 E134.01001
G1 X53.188 Y200.044 E134.03187
G1 X52.59 Y199.772 E134.05372
G1 X52.029 Y199.43 E134.07558
G1 X51.299 Y198.818 E134.10726
G1 X51.182 Y198.701 E134.11276
G1 X50.746 Y198.209 E134.13463
G1 X50.374 Y197.668 E134.15646
G1 X50.07 Y197.086 E134.1783
G1 X49.839 Y196.471 E134.20015
G1 X49.684 Y195.832 E134.22202
G1 X49.6 Y194.883 E134.25371
G1 X49.6 Y25.117 E139.90015
G1 X49.64 Y24.461 E139.92201
G1 X49.759 Y23.815 E139.94386
G1 X49.956 Y23.188 E139.96572
G0 F6000 X50.356 Y23.265
G1 F1200 X50.627 Y22.693 E139.98677
G1 X50.967 Y22.161 E140.00777
G1 X51.464 Y21.581 E140.03317
G1 X51.581 Y21.464 E140.03868
G1 X52.056 Y21.047 E140.0597
G1 X52.579 Y20.692 E140.08072
G1 X53.143 Y20.406 E140.10176
G1 X53.738 Y20.194 E140.12276
G1 X54.356 Y20.058 E140.14381
G1 X55.117 Y20 E140.16919
G1 X164.883 Y20 E143.82003
G1 X165.514 Y20.04 E143.84106
G1 X166.135 Y20.159 E143.86209
G1 X166.735 Y20.356 E143.88309
G1 X167.307 Y20.627 E143.90414
G1 X167.839 Y20.967 E143.92514
G1 X168.419 Y21.464 E143.95055
G1 X168.536 Y21.581 E143.95605
G1 X168.953 Y22.056 E143.97707
G1 X169.308 Y22.579 E143.9981
G1 X169.594 Y23.143 E144.01913
G1 X169.806 Y23.738 E144.04014
G1 X169.942 Y24.356 E144.06118
G1 X170 Y25.117 E144.08657
G1 X170 Y194.883 E149.73301
G1 X169.96 Y195.514 E149.75404
G1 X169.841 Y196.135 E149.77507
G1 X169.644 Y196.735 E149.79607
G1 X169.373 Y197.307 E149.81712
G1 X169.033 Y197.839 E149.83812
G1 X168.536 Y198.419 E149.86353
G1 X168.419 Y198.536 E149.86903
G1 X167.944 Y198.953 E149.89005
G1 X167.421 Y199.308 E149.91108
G1 X166.857 Y199.594 E149.93211
G1 X166.262 Y199.806 E149.95312
G1 X165.644 Y199.942 E149.97417
G1 X164.883 Y200 E149.99955
G1 X55.117 Y200 E153.65038
G1 X54.486 Y199.96 E153.67141
G1 X53.865 Y199.841 E153.69244
G1 X53.265 Y199.644 E153.71345
G1 X52.693 Y199.373 E153.7345
G1 X52.161 Y199.033 E153.7555
G1 X51.581 Y198.536 E153.7809
