;FLAVOR:Marlin
;TIME:30103
;Filament used: 21.6673m
;Layer height: 0.2
;MINX:45.2
;MINY:15.2
;MINZ:0.2
;MAXX:174.8
;MAXY:204.8
;MAXZ:16.4
;Generated with Cura_SteamEngine 4.5.0
M140 S60
M105
M190 S60
M104 S190
M105
M109 S190
M82 ;absolute extrusion mode
M201 X500.00 Y500.00 Z100.00 E5000.00 ;Setup machine max acceleration
M203 X500.00 Y500.00 Z10.00 E50.00 ;Setup machine max feedrate
M204 P500.00 R1000.00 T500.00 ;Setup Print/Retract/Travel acceleration
M205 X8.00 Y8.00 Z0.40 E5.00 ;Setup Jerk
M220 S100 ;Reset Feedrate
M221 S100 ;Reset Flowrate

G28 ;Home
M420 S1 Z2 ;Enable ABL using saved Mesh and Fade Height
G29     ;autobedlevel
G92 E0 ;Reset Extruder
G1 Z2.0 F3000 ;Move Z Axis up
G1 X10.1 Y20 Z0.28 F5000.0 ;Move to start position
G1 X10.1 Y200.0 Z0.28 F1500.0 E15 ;Draw the first line
G1 X10.4 Y200.0 Z0.28 F5000.0 ;Move to side a little
G1 X10.4 Y20 Z0.28 F1500.0 E30 ;Draw the second line
G92 E0 ;Reset Extruder
G92 E0
G92 E0
G1 F1500 E-6.5
;LAYER_COUNT:82
;LAYER:0
M107
G0 F6000 X45.831 Y20.043 Z0.2
;TYPE:SKIRT
G1 F1500 E0
G1 F1200 X46.179 Y19.334 E0.02627
G1 X46.597 Y18.663 E0.05256
G1 X47.08 Y18.039 E0.07881
G1 X47.485 Y17.602 E0.09862
G1 X47.602 Y17.485 E0.10413
G1 X48.188 Y16.955 E0.13041
G1 X48.824 Y16.488 E0.15665
G1 X49.504 Y16.087 E0.18291
G1 X50.222 Y15.757 E0.20919
G1 X50.969 Y15.502 E0.23544
G1 X51.738 Y15.323 E0.2617
G1 X52.522 Y15.223 E0.28799
G1 X53.117 Y15.2 E0.3078
G1 X166.883 Y15.2 E4.09167
G1 X167.672 Y15.24 E4.11794
G1 X168.452 Y15.359 E4.14419
G1 X169.217 Y15.557 E4.17047
G1 X169.957 Y15.831 E4.19672
G1 X170.666 Y16.179 E4.22298
G1 X171.337 Y16.597 E4.24928
G1 X171.961 Y17.08 E4.27552
G1 X172.534 Y17.623 E4.30178
G1 X173.049 Y18.222 E4.32805
G1 X173.5 Y18.87 E4.35431
G1 X173.884 Y19.561 E4.38061
G1 X174.196 Y20.286 E4.40686
G1 X174.433 Y21.039 E4.43311
G1 X174.592 Y21.813 E4.45939
G1 X174.673 Y22.598 E4.48564
G1 X174.683 Y22.995 E4.49885
G1 X174.8 Y196.878 E10.28222
G1 X174.761 Y197.666 E10.30846
G1 X174.642 Y198.447 E10.33474
G1 X174.444 Y199.212 E10.36102
G1 X174.171 Y199.953 E10.38729
G1 X173.824 Y200.662 E10.41354
G1 X173.406 Y201.332 E10.43981
G1 X172.924 Y201.957 E10.46606
G1 X172.515 Y202.398 E10.48606
G1 X172.398 Y202.515 E10.49157
G1 X171.812 Y203.045 E10.51785
G1 X171.176 Y203.512 E10.54409
G1 X170.496 Y203.913 E10.57035
G1 X169.778 Y204.243 E10.59663
G1 X169.031 Y204.498 E10.62288
G1 X168.262 Y204.677 E10.64914
G1 X167.478 Y204.777 E10.67543
G1 X166.883 Y204.8 E10.69524
G1 X53.117 Y204.8 E14.47911
G1 X52.328 Y204.76 E14.50538
G1 X51.548 Y204.641 E14.53163
G1 X50.783 Y204.443 E14.55791
G1 X50.043 Y204.169 E14.58415
G1 X49.334 Y203.821 E14.61042
G1 X48.663 Y203.403 E14.63672
G1 X48.039 Y202.92 E14.66296
G1 X47.602 Y202.515 E14.68278
G1 X47.485 Y202.398 E14.68828
G1 X46.955 Y201.812 E14.71456
G1 X46.488 Y201.176 E14.74081
G1 X46.087 Y200.496 E14.76706
G1 X45.757 Y199.778 E14.79334
G1 X45.502 Y199.031 E14.8196
G1 X45.323 Y198.262 E14.84586
G1 X45.223 Y197.478 E14.87215
G1 X45.2 Y196.883 E14.89195
G1 X45.2 Y23.117 E20.67143
G1 X45.24 Y22.328 E20.69771
G1 X45.359 Y21.548 E20.72395
G1 X45.557 Y20.783 E20.75023
G1 X45.831 Y20.043 E20.77648
G0 F6000 X46.231 Y20.127
G1 F1200 X46.578 Y19.441 E20.80205
G1 X46.994 Y18.794 E20.82763
G1 X47.475 Y18.194 E20.85321
G1 X47.884 Y17.767 E20.87287
G1 X48.456 Y17.253 E20.89845
G1 X49.078 Y16.8 E20.92404
G1 X49.743 Y16.414 E20.94962
G1 X50.445 Y16.099 E20.97521
G1 X51.176 Y15.859 E21.0008
G1 X51.927 Y15.696 E21.02636
G1 X52.692 Y15.612 E21.05196
G1 X53.117 Y15.6 E21.0661
G1 X166.883 Y15.6 E24.84997
G1 X167.651 Y15.64 E24.87555
G1 X168.411 Y15.759 E24.90113
G1 X169.154 Y15.957 E24.92671
G1 X169.873 Y16.231 E24.9523
G1 X170.559 Y16.578 E24.97787
G1 X171.206 Y16.994 E25.00345
G1 X171.806 Y17.475 E25.02903
G1 X172.353 Y18.016 E25.05462
G1 X172.841 Y18.611 E25.08021
G1 X173.264 Y19.253 E25.10579
G1 X173.619 Y19.936 E25.13139
G1 X173.9 Y20.651 E25.15694
G1 X174.106 Y21.393 E25.18255
G1 X174.234 Y22.151 E25.20812
G1 X174.283 Y22.995 E25.23624
G1 X174.4 Y196.878 E31.01961
G1 X174.361 Y197.646 E31.04519
G1 X174.242 Y198.406 E31.07077
G1 X174.044 Y199.15 E31.09638
G1 X173.771 Y199.868 E31.12193
G1 X173.425 Y200.555 E31.14751
G1 X173.009 Y201.202 E31.1731
G1 X172.528 Y201.803 E31.1987
G1 X172.116 Y202.233 E31.21851
G1 X171.544 Y202.747 E31.24408
G1 X170.922 Y203.2 E31.26968
G1 X170.257 Y203.586 E31.29525
G1 X169.555 Y203.901 E31.32084
G1 X168.824 Y204.141 E31.34643
G1 X168.073 Y204.304 E31.37199
G1 X167.308 Y204.388 E31.39759
G1 X166.883 Y204.4 E31.41173
G1 X53.117 Y204.4 E35.1956
G1 X52.349 Y204.36 E35.22118
G1 X51.589 Y204.241 E35.24677
G1 X50.846 Y204.043 E35.27234
G1 X50.127 Y203.769 E35.29793
G1 X49.441 Y203.422 E35.3235
G1 X48.794 Y203.006 E35.34909
G1 X48.194 Y202.525 E35.37466
G1 X47.767 Y202.116 E35.39433
G1 X47.253 Y201.544 E35.41991
G1 X46.8 Y200.922 E35.4455
G1 X46.414 Y200.257 E35.47107
G1 X46.099 Y199.555 E35.49667
G1 X45.859 Y198.824 E35.52226
G1 X45.696 Y198.073 E35.54782
G1 X45.612 Y197.308 E35.57341
G1 X45.6 Y196.883 E35.58755
G1 X45.6 Y23.117 E41.36703
G1 X45.64 Y22.349 E41.39261
G1 X45.759 Y21.589 E41.4182
G1 X45.957 Y20.846 E41.44377
G1 X46.231 Y20.127 E41.46937
G0 F6000 X46.63 Y20.214
G1 F1200 X46.977 Y19.551 E41.49425
G1 X47.392 Y18.928 E41.51915
G1 X48.05 Y18.167 E41.55261
G1 X48.167 Y18.05 E41.55812
G1 X48.724 Y17.55 E41.58301
G1 X49.33 Y17.113 E41.60786
G1 X49.98 Y16.742 E41.63275
G1 X50.666 Y16.443 E41.65764
G1 X51.38 Y16.219 E41.68253
G1 X52.113 Y16.072 E41.7074
G1 X53.117 Y16 E41.74088
G1 X166.883 Y16 E45.52475
G1 X167.63 Y16.04 E45.54963
G1 X168.368 Y16.159 E45.57449
G1 X169.09 Y16.357 E45.59939
G1 X169.786 Y16.63 E45.62426
G1 X170.449 Y16.977 E45.64915
G1 X171.072 Y17.392 E45.67405
G1 X171.646 Y17.871 E45.69891
G1 X172.167 Y18.408 E45.7238
G1 X172.626 Y18.998 E45.74866
G1 X173.021 Y19.634 E45.77356
G1 X173.345 Y20.308 E45.79843
G1 X173.595 Y21.013 E45.82331
G1 X173.769 Y21.741 E45.84821
G1 X173.864 Y22.483 E45.87309
G1 X173.883 Y22.995 E45.89013
G1 X174 Y196.878 E51.6735
G1 X173.961 Y197.625 E51.69838
G1 X173.842 Y198.364 E51.72328
G1 X173.644 Y199.085 E51.74815
G1 X173.371 Y199.782 E51.77304
G1 X173.026 Y200.445 E51.7979
G1 X172.611 Y201.068 E51.8228
G1 X171.95 Y201.833 E51.85642
G1 X171.833 Y201.95 E51.86193
G1 X171.276 Y202.45 E51.88682
G1 X170.67 Y202.887 E51.91167
G1 X170.02 Y203.258 E51.93657
G1 X169.334 Y203.557 E51.96146
G1 X168.62 Y203.781 E51.98634
G1 X167.887 Y203.928 E52.01121
G1 X166.883 Y204 E52.04469
G1 X53.117 Y204 E55.82856
G1 X52.37 Y203.96 E55.85344
G1 X51.632 Y203.841 E55.8783
G1 X50.91 Y203.643 E55.90321
G1 X50.214 Y203.37 E55.92807
G1 X49.551 Y203.023 E55.95296
G1 X48.928 Y202.608 E55.97786
G1 X48.167 Y201.95 E56.01132
G1 X48.05 Y201.833 E56.01682
G1 X47.55 Y201.276 E56.04172
G1 X47.113 Y200.67 E56.06657
G1 X46.742 Y200.02 E56.09146
G1 X46.443 Y199.334 E56.11635
G1 X46.219 Y198.62 E56.14124
G1 X46.072 Y197.887 E56.1661
G1 X46 Y196.883 E56.19958
G1 X46 Y23.117 E61.97906
G1 X46.04 Y22.37 E62.00394
G1 X46.159 Y21.632 E62.02881
G1 X46.357 Y20.91 E62.05371
G1 X46.63 Y20.214 E62.07857
G0 F6000 X47.03 Y20.303
G1 F1200 X47.375 Y19.664 E62.10273
G1 X47.789 Y19.067 E62.12689
G1 X48.333 Y18.45 E62.15425
G1 X48.45 Y18.333 E62.15975
G1 X48.991 Y17.849 E62.1839
G1 X49.582 Y17.426 E62.20807
G1 X50.216 Y17.072 E62.23222
G1 X50.885 Y16.789 E62.25638
G1 X51.581 Y16.581 E62.28054
G1 X52.296 Y16.451 E62.30471
G1 X53.117 Y16.4 E62.33207
G1 X166.883 Y16.4 E66.11594
G1 X167.608 Y16.44 E66.14009
G1 X168.325 Y16.559 E66.16427
G1 X169.024 Y16.757 E66.18843
G1 X169.697 Y17.03 E66.21259
G1 X170.336 Y17.375 E66.23674
G1 X170.933 Y17.789 E66.2609
G1 X171.481 Y18.265 E66.28505
G1 X171.974 Y18.799 E66.30922
G1 X172.404 Y19.384 E66.33337
G1 X172.768 Y20.013 E66.35754
G1 X173.061 Y20.678 E66.38171
G1 X173.279 Y21.371 E66.40587
G1 X173.419 Y22.083 E66.43
G1 X173.483 Y22.996 E66.46045
G1 X173.6 Y196.879 E72.24382
G1 X173.561 Y197.604 E72.26797
G1 X173.442 Y198.32 E72.29211
G1 X173.245 Y199.02 E72.31629
G1 X172.972 Y199.693 E72.34045
G1 X172.627 Y200.332 E72.3646
G1 X172.214 Y200.93 E72.38877
G1 X171.667 Y201.55 E72.41627
G1 X171.55 Y201.667 E72.42178
G1 X171.009 Y202.151 E72.44592
G1 X170.418 Y202.574 E72.47009
G1 X169.784 Y202.928 E72.49425
G1 X169.115 Y203.211 E72.51841
G1 X168.419 Y203.419 E72.54257
G1 X167.704 Y203.549 E72.56674
G1 X166.883 Y203.6 E72.5941
G1 X53.117 Y203.6 E76.37797
G1 X52.392 Y203.56 E76.40212
G1 X51.675 Y203.441 E76.42629
G1 X50.976 Y203.243 E76.45046
G1 X50.303 Y202.97 E76.47461
G1 X49.664 Y202.625 E76.49877
G1 X49.067 Y202.211 E76.52293
G1 X48.45 Y201.667 E76.55029
G1 X48.333 Y201.55 E76.55579
G1 X47.849 Y201.009 E76.57993
G1 X47.426 Y200.418 E76.60411
G1 X47.072 Y199.784 E76.62826
G1 X46.789 Y199.115 E76.65242
G1 X46.581 Y198.419 E76.67658
G1 X46.451 Y197.704 E76.70075
G1 X46.4 Y196.883 E76.72811
G1 X46.4 Y23.117 E82.50759
G1 X46.44 Y22.392 E82.53174
G1 X46.559 Y21.675 E82.55591
G1 X46.757 Y20.976 E82.58008
G1 X47.03 Y20.303 E82.60423
G0 F6000 X47.429 Y20.396
G1 F1200 X47.774 Y19.782 E82.62766
G1 X48.185 Y19.211 E82.65106
G1 X48.616 Y18.733 E82.67246
G1 X48.733 Y18.616 E82.67797
G1 X49.258 Y18.147 E82.70138
G1 X49.833 Y17.741 E82.72479
G1 X50.451 Y17.403 E82.74822
G1 X51.102 Y17.136 E82.77162
G1 X51.78 Y16.946 E82.79504
G1 X52.475 Y16.833 E82.81846
G1 X53.117 Y16.8 E82.83984
G1 X166.883 Y16.8 E86.62372
G1 X167.586 Y16.84 E86.64714
G1 X168.28 Y16.959 E86.67056
G1 X168.955 Y17.157 E86.69395
G1 X169.604 Y17.429 E86.71736
G1 X170.218 Y17.774 E86.74078
G1 X170.789 Y18.185 E86.76418
G1 X171.31 Y18.659 E86.78761
G1 X171.774 Y19.189 E86.81104
G1 X172.174 Y19.768 E86.83444
G1 X172.506 Y20.389 E86.85787
G1 X172.766 Y21.043 E86.88127
G1 X172.95 Y21.723 E86.9047
G1 X173.056 Y22.419 E86.92812
G1 X173.083 Y22.996 E86.94733
G1 X173.2 Y196.879 E92.7307
G1 X173.161 Y197.582 E92.75412
G1 X173.042 Y198.276 E92.77754
G1 X172.845 Y198.951 E92.80093
G1 X172.573 Y199.601 E92.82436
G1 X172.229 Y200.215 E92.84777
G1 X171.817 Y200.786 E92.87119
G1 X171.384 Y201.267 E92.89272
G1 X171.267 Y201.384 E92.89822
G1 X170.742 Y201.853 E92.92164
G1 X170.167 Y202.259 E92.94505
G1 X169.549 Y202.597 E92.96848
G1 X168.898 Y202.864 E92.99188
G1 X168.22 Y203.054 E93.0153
G1 X167.525 Y203.167 E93.03872
G1 X166.883 Y203.2 E93.0601
G1 X53.117 Y203.2 E96.84397
G1 X52.414 Y203.16 E96.86739
G1 X51.72 Y203.041 E96.89081
G1 X51.045 Y202.843 E96.91421
G1 X50.396 Y202.571 E96.93761
G1 X49.782 Y202.226 E96.96104
G1 X49.211 Y201.815 E96.98444
G1 X48.733 Y201.384 E97.00584
G1 X48.616 Y201.267 E97.01135
G1 X48.147 Y200.742 E97.03476
G1 X47.741 Y200.167 E97.05817
G1 X47.403 Y199.549 E97.0816
G1 X47.136 Y198.898 E97.105
G1 X46.946 Y198.22 E97.12842
G1 X46.833 Y197.525 E97.15184
G1 X46.8 Y196.883 E97.17322
G1 X46.8 Y23.117 E102.9527
G1 X46.84 Y22.414 E102.97612
G1 X46.959 Y21.72 E102.99954
G1 X47.157 Y21.045 E103.02294
G1 X47.429 Y20.396 E103.04634
G0 F6000 X47.556 Y21.115
G1 F1200 X47.828 Y20.491 E103.06898
G1 X48.172 Y19.903 E103.09164
G1 X48.582 Y19.359 E103.1143
G1 X48.899 Y19.016 E103.12983
G1 X49.016 Y18.899 E103.13534
G1 X49.525 Y18.446 E103.158
G1 X50.083 Y18.057 E103.18062
G1 X50.683 Y17.735 E103.20327
G1 X51.317 Y17.486 E103.22593
G1 X51.976 Y17.313 E103.24859
G1 X52.65 Y17.219 E103.27122
G1 X53.117 Y17.2 E103.28677
G1 X166.883 Y17.2 E107.07064
G1 X167.563 Y17.24 E107.0933
G1 X168.233 Y17.359 E107.11593
G1 X168.885 Y17.556 E107.13858
G1 X169.509 Y17.828 E107.16122
G1 X170.097 Y18.172 E107.18388
G1 X170.641 Y18.582 E107.20654
G1 X171.132 Y19.053 E107.22917
G1 X171.566 Y19.578 E107.25182
G1 X171.935 Y20.15 E107.27446
G1 X172.234 Y20.762 E107.29712
G1 X172.459 Y21.404 E107.31974
G1 X172.608 Y22.069 E107.34241
G1 X172.683 Y22.996 E107.37334
G1 X172.8 Y196.879 E113.15672
G1 X172.76 Y197.559 E113.17937
G1 X172.642 Y198.229 E113.202
G1 X172.445 Y198.881 E113.22465
G1 X172.173 Y199.505 E113.24729
G1 X171.83 Y200.094 E113.26996
G1 X171.421 Y200.638 E113.2926
G1 X171.101 Y200.984 E113.30828
G1 X170.984 Y201.101 E113.31378
G1 X170.475 Y201.554 E113.33644
G1 X169.917 Y201.943 E113.35907
G1 X169.317 Y202.265 E113.38171
G1 X168.683 Y202.514 E113.40437
G1 X168.024 Y202.687 E113.42703
G1 X167.35 Y202.781 E113.44966
G1 X166.883 Y202.8 E113.46521
G1 X53.117 Y202.8 E117.24908
G1 X52.437 Y202.76 E117.27174
G1 X51.767 Y202.641 E117.29437
G1 X51.115 Y202.444 E117.31703
G1 X50.491 Y202.172 E117.33967
G1 X49.903 Y201.828 E117.36232
G1 X49.359 Y201.418 E117.38498
G1 X49.016 Y201.101 E117.40051
G1 X48.899 Y200.984 E117.40602
G1 X48.446 Y200.475 E117.42868
G1 X48.057 Y199.917 E117.4513
G1 X47.735 Y199.317 E117.47395
G1 X47.486 Y198.683 E117.49661
G1 X47.313 Y198.024 E117.51927
G1 X47.219 Y197.35 E117.5419
G1 X47.2 Y196.883 E117.55745
G1 X47.2 Y23.117 E123.33693
G1 X47.24 Y22.437 E123.35959
G1 X47.359 Y21.767 E123.38222
G1 X47.556 Y21.115 E123.40487
G0 F6000 X47.956 Y21.188
G1 F1200 X48.228 Y20.59 E123.42672
G1 X48.57 Y20.029 E123.44858
G1 X49.182 Y19.299 E123.48026
G1 X49.299 Y19.182 E123.48576
G1 X49.791 Y18.746 E123.50763
G1 X50.332 Y18.374 E123.52946
G1 X50.914 Y18.07 E123.5513
G1 X51.529 Y17.839 E123.57315
G1 X52.168 Y17.684 E123.59502
G1 X53.117 Y17.6 E123.62671
G1 X166.883 Y17.6 E127.41058
G1 X167.539 Y17.64 E127.43244
G1 X168.185 Y17.759 E127.45429
G1 X168.812 Y17.956 E127.47615
G1 X169.41 Y18.228 E127.498
G1 X169.971 Y18.57 E127.51985
G1 X170.486 Y18.978 E127.5417
G1 X170.948 Y19.445 E127.56355
G1 X171.349 Y19.965 E127.58539
G1 X171.685 Y20.529 E127.60723
G1 X171.949 Y21.131 E127.62909
G1 X172.139 Y21.76 E127.65095
G1 X172.25 Y22.407 E127.67278
G1 X172.283 Y22.996 E127.6924
G1 X172.4 Y196.879 E133.47578
G1 X172.36 Y197.535 E133.49763
G1 X172.242 Y198.181 E133.51948
G1 X172.045 Y198.808 E133.54134
G1 X171.774 Y199.407 E133.5632
G1 X171.432 Y199.968 E133.58505
G1 X170.818 Y200.701 E133.61686
G1 X170.701 Y200.818 E133.62236
G1 X170.209 Y201.254 E133.64423
G1 X169.668 Y201.626 E133.66606
G1 X169.086 Y201.93 E133.6879
G1 X168.471 Y202.161 E133.70975
G1 X167.832 Y202.316 E133.73162
G1 X166.883 Y202.4 E133.76331
G1 X53.117 Y202.4 E137.54718
G1 X52.461 Y202.36 E137.56904
G1 X51.815 Y202.241 E137.59089
G1 X51.188 Y202.044 E137.61275
G1 X50.59 Y201.772 E137.6346
G1 X50.029 Y201.43 E137.65645
G1 X49.299 Y200.818 E137.68813
G1 X49.182 Y200.701 E137.69364
G1 X48.746 Y200.209 E137.7155
G1 X48.374 Y199.668 E137.73734
G1 X48.07 Y199.086 E137.75918
G1 X47.839 Y198.471 E137.78103
G1 X47.684 Y197.832 E137.8029
G1 X47.6 Y196.883 E137.83459
G1 X47.6 Y23.117 E143.61407
G1 X47.64 Y22.461 E143.63593
G1 X47.759 Y21.815 E143.65777
G1 X47.956 Y21.188 E143.67963
G0 F6000 X48.356 Y21.265
G1 F1200 X48.627 Y20.693 E143.70068
G1 X48.967 Y20.161 E143.72168
G1 X49.464 Y19.581 E143.74709
G1 X49.581 Y19.464 E143.75259
G1 X50.056 Y19.047 E143.77361
G1 X50.579 Y18.692 E143.79464
G1 X51.143 Y18.406 E143.81567
G1 X51.738 Y18.194 E143.83668
G1 X52.356 Y18.058 E143.85773
G1 X53.117 Y18 E143.88311
G1 X166.883 Y18 E147.66698
G1 X167.514 Y18.04 E147.68801
G1 X168.135 Y18.159 E147.70904
G1 X168.735 Y18.356 E147.73005
G1 X169.307 Y18.627 E147.7511
G1 X169.839 Y18.967 E147.7721
G1 X170.324 Y19.373 E147.79314
G1 X170.754 Y19.836 E147.81415
G1 X171.123 Y20.35 E147.8352
G1 X171.423 Y20.906 E147.85621
G1 X171.651 Y21.495 E147.87722
G1 X171.803 Y22.109 E147.89825
G1 X171.883 Y22.997 E147.92791
G1 X172 Y196.88 E153.71128
G1 X171.96 Y197.511 E153.73231
G1 X171.842 Y198.131 E153.7533
G1 X171.645 Y198.732 E153.77434
G1 X171.375 Y199.304 E153.79538
G1 X171.035 Y199.836 E153.81638
G1 X170.536 Y200.419 E153.8419
G1 X170.419 Y200.536 E153.8474
G1 X169.944 Y200.953 E153.86843
G1 X169.421 Y201.308 E153.88945
G1 X168.857 Y201.594 E153.91048
G1 X168.262 Y201.806 E153.93149
G1 X167.644 Y201.942 E153.95254
G1 X166.883 Y202 E153.97792
G1 X53.117 Y202 E157.76179
G1 X52.486 Y201.96 E157.78282
G1 X51.865 Y201.841 E157.80385
G1 X51.265 Y201.644 E157.82486
G1 X50.693 Y201.373 E157.84591
G1 X50.161 Y201.033 E157.86691
G1 X49.581 Y200.536 E157.89231
G1 X49.464 Y200.419 E157.89782
G1 X49.047 Y199.944 E157.91884
G1 X48.692 Y199.421 E157.93986
G1 X48.406 Y198.857 E157.9609
G1 X48.194 Y198.262 E157.9819
G1 X48.058 Y197.644 E158.00295
