;FLAVOR:Marlin
;TIME:9509
;Filament used: 6.73249m
;Layer height: 0.2
;MINX:48.321
;MINY:17.303
;MINZ:0.2
;MAXX:173.921
;MAXY:162.903
;MAXZ:1.4
;Generated with Cura_SteamEngine 4.5.0
M140 S60
M105
M190 S60
M104 S190
M105
M109 S190
M82 ;absolute extrusion mode
M201 X500.00 Y500.00 Z100.00 E5000.00 ;Setup machine max acceleration
M203 X500.00 Y500.00 Z10.00 E50.00 ;Setup machine max feedrate
M204 P500.00 R1000.00 T500.00 ;Setup Print/Retract/Travel acceleration
M205 X8.00 Y8.00 Z0.40 E5.00 ;Setup Jerk
M220 S100 ;Reset Feedrate
M221 S100 ;Reset Flowrate

G28 ;Home
M420 S1 Z2 ;Enable ABL using saved Mesh and Fade Height
G29     ;autobedlevel
G92 E0 ;Reset Extruder
G1 Z2.0 F3000 ;Move Z Axis up
G1 X10.1 Y20 Z0.28 F5000.0 ;Move to start position
G1 X10.1 Y200.0 Z0.28 F1500.0 E15 ;Draw the first line
G1 X10.4 Y200.0 Z0.28 F5000.0 ;Move to side a little
G1 X10.4 Y20 Z0.28 F1500.0 E30 ;Draw the second line
G92 E0 ;Reset Extruder
G92 E0
G92 E0
G1 F1500 E-6.5
;LAYER_COUNT:7
;LAYER:0
M107
G0 F6000 X48.952 Y22.146 Z0.2
;TYPE:SKIRT
G1 F1500 E0
G1 F1200 X49.3 Y21.437 E0.02627
G1 X49.718 Y20.766 E0.05256
G1 X50.201 Y20.142 E0.07881
G1 X50.606 Y19.705 E0.09862
G1 X50.723 Y19.588 E0.10413
G1 X51.309 Y19.058 E0.13041
G1 X51.945 Y18.591 E0.15665
G1 X52.625 Y18.19 E0.18291
G1 X53.343 Y17.86 E0.20919
G1 X54.09 Y17.605 E0.23544
G1 X54.859 Y17.426 E0.2617
G1 X55.643 Y17.326 E0.28799
G1 X56.238 Y17.303 E0.3078
G1 X166.004 Y17.303 E3.95863
G1 X166.793 Y17.343 E3.9849
G1 X167.573 Y17.462 E4.01115
G1 X168.338 Y17.66 E4.03743
G1 X169.078 Y17.934 E4.06367
G1 X169.787 Y18.282 E4.08994
G1 X170.458 Y18.7 E4.11624
G1 X171.082 Y19.183 E4.14248
G1 X171.655 Y19.726 E4.16874
G1 X172.17 Y20.325 E4.19501
G1 X172.621 Y20.973 E4.22127
G1 X173.005 Y21.664 E4.24756
G1 X173.317 Y22.389 E4.27382
G1 X173.554 Y23.142 E4.30007
G1 X173.713 Y23.916 E4.32635
G1 X173.804 Y25.096 E4.36572
G1 X173.921 Y154.979 E8.68564
G1 X173.882 Y155.768 E8.71192
G1 X173.763 Y156.548 E8.73816
G1 X173.566 Y157.313 E8.76444
G1 X173.292 Y158.054 E8.79071
G1 X172.945 Y158.763 E8.81697
G1 X172.528 Y159.434 E8.84324
G1 X172.046 Y160.059 E8.86949
G1 X171.636 Y160.501 E8.88955
G1 X171.519 Y160.618 E8.89505
G1 X170.933 Y161.148 E8.92133
G1 X170.297 Y161.615 E8.94757
G1 X169.617 Y162.016 E8.97383
G1 X168.899 Y162.346 E9.00011
G1 X168.152 Y162.601 E9.02636
G1 X167.383 Y162.78 E9.05263
G1 X166.599 Y162.88 E9.07891
G1 X166.004 Y162.903 E9.09872
G1 X56.238 Y162.903 E12.74955
G1 X55.449 Y162.863 E12.77583
G1 X54.669 Y162.744 E12.80207
G1 X53.904 Y162.546 E12.82835
G1 X53.164 Y162.272 E12.8546
G1 X52.455 Y161.924 E12.88087
G1 X51.784 Y161.506 E12.90716
G1 X51.16 Y161.023 E12.9334
G1 X50.723 Y160.618 E12.95322
G1 X50.606 Y160.501 E12.95872
G1 X50.076 Y159.915 E12.985
G1 X49.609 Y159.279 E13.01125
G1 X49.208 Y158.599 E13.0375
G1 X48.878 Y157.881 E13.06379
G1 X48.623 Y157.134 E13.09004
G1 X48.444 Y156.365 E13.1163
G1 X48.344 Y155.581 E13.14259
G1 X48.321 Y154.986 E13.16239
G1 X48.321 Y25.22 E17.47843
G1 X48.361 Y24.431 E17.5047
G1 X48.48 Y23.651 E17.53095
G1 X48.678 Y22.886 E17.55723
G1 X48.952 Y22.146 E17.58347
G0 F6000 X49.352 Y22.23
G1 F1200 X49.699 Y21.544 E17.60904
G1 X50.115 Y20.897 E17.63463
G1 X50.596 Y20.297 E17.6602
G1 X51.005 Y19.87 E17.67987
G1 X51.577 Y19.356 E17.70545
G1 X52.199 Y18.903 E17.73104
G1 X52.864 Y18.517 E17.75661
G1 X53.566 Y18.202 E17.78221
G1 X54.297 Y17.962 E17.8078
G1 X55.048 Y17.799 E17.83336
G1 X55.813 Y17.715 E17.85895
G1 X56.238 Y17.703 E17.87309
G1 X166.004 Y17.703 E21.52393
G1 X166.772 Y17.743 E21.5495
G1 X167.532 Y17.862 E21.57509
G1 X168.275 Y18.06 E21.60066
G1 X168.994 Y18.334 E21.62626
G1 X169.68 Y18.681 E21.65183
G1 X170.327 Y19.097 E21.67741
G1 X170.927 Y19.578 E21.70299
G1 X171.474 Y20.119 E21.72857
G1 X171.962 Y20.714 E21.75417
G1 X172.385 Y21.356 E21.77974
G1 X172.74 Y22.039 E21.80534
G1 X173.021 Y22.754 E21.83089
G1 X173.227 Y23.496 E21.85651
G1 X173.355 Y24.254 E21.88207
G1 X173.404 Y25.096 E21.91013
G1 X173.521 Y154.979 E26.23005
G1 X173.482 Y155.747 E26.25563
G1 X173.363 Y156.507 E26.28122
G1 X173.166 Y157.251 E26.30682
G1 X172.893 Y157.97 E26.3324
G1 X172.546 Y158.657 E26.35799
G1 X172.131 Y159.304 E26.38356
G1 X171.65 Y159.904 E26.40914
G1 X171.354 Y160.219 E26.42351
G1 X171.237 Y160.336 E26.42902
G1 X170.665 Y160.85 E26.45459
G1 X170.043 Y161.303 E26.48019
G1 X169.378 Y161.689 E26.50576
G1 X168.676 Y162.004 E26.53135
G1 X167.945 Y162.244 E26.55694
G1 X167.194 Y162.407 E26.5825
G1 X166.429 Y162.491 E26.6081
G1 X166.004 Y162.503 E26.62224
G1 X56.238 Y162.503 E30.27307
G1 X55.47 Y162.463 E30.29865
G1 X54.71 Y162.344 E30.32424
G1 X53.967 Y162.146 E30.34981
G1 X53.248 Y161.872 E30.3754
G1 X52.562 Y161.525 E30.40097
G1 X51.915 Y161.109 E30.42656
G1 X51.315 Y160.628 E30.45213
G1 X50.888 Y160.219 E30.4718
G1 X50.374 Y159.647 E30.49738
G1 X49.921 Y159.025 E30.52297
G1 X49.535 Y158.36 E30.54854
G1 X49.22 Y157.658 E30.57414
G1 X48.98 Y156.927 E30.59973
G1 X48.817 Y156.176 E30.62529
G1 X48.733 Y155.411 E30.65088
G1 X48.721 Y154.986 E30.66502
G1 X48.721 Y25.22 E34.98106
G1 X48.761 Y24.452 E35.00664
G1 X48.88 Y23.692 E35.03222
G1 X49.078 Y22.949 E35.0578
G1 X49.352 Y22.23 E35.08339
G0 F6000 X49.751 Y22.317
G1 F1200 X50.098 Y21.654 E35.10828
G1 X50.513 Y21.031 E35.13318
G1 X51.171 Y20.27 E35.16664
G1 X51.288 Y20.153 E35.17214
G1 X51.845 Y19.653 E35.19703
G1 X52.451 Y19.216 E35.22188
G1 X53.101 Y18.845 E35.24678
G1 X53.787 Y18.546 E35.27167
G1 X54.501 Y18.322 E35.29656
G1 X55.234 Y18.175 E35.32142
G1 X56.238 Y18.103 E35.3549
G1 X166.004 Y18.103 E39.00573
G1 X166.751 Y18.143 E39.03061
G1 X167.489 Y18.262 E39.05548
G1 X168.211 Y18.46 E39.08038
G1 X168.907 Y18.733 E39.10524
G1 X169.57 Y19.08 E39.13013
G1 X170.193 Y19.495 E39.15503
G1 X170.767 Y19.974 E39.17989
G1 X171.288 Y20.511 E39.20478
G1 X171.747 Y21.101 E39.22964
G1 X172.142 Y21.737 E39.25454
G1 X172.466 Y22.411 E39.27942
G1 X172.716 Y23.116 E39.30429
G1 X172.89 Y23.844 E39.32919
G1 X172.985 Y24.586 E39.35407
G1 X173.004 Y25.097 E39.37108
G1 X173.121 Y154.98 E43.69101
G1 X173.082 Y155.727 E43.71589
G1 X172.963 Y156.465 E43.74075
G1 X172.766 Y157.187 E43.76564
G1 X172.493 Y157.884 E43.79054
G1 X172.148 Y158.547 E43.8154
G1 X171.733 Y159.17 E43.84029
G1 X171.071 Y159.936 E43.87397
G1 X170.954 Y160.053 E43.87947
G1 X170.397 Y160.553 E43.90436
G1 X169.791 Y160.99 E43.92921
G1 X169.141 Y161.361 E43.95411
G1 X168.455 Y161.66 E43.979
G1 X167.741 Y161.884 E44.00389
G1 X167.008 Y162.031 E44.02875
G1 X166.004 Y162.103 E44.06223
G1 X56.238 Y162.103 E47.71306
G1 X55.491 Y162.063 E47.73794
G1 X54.753 Y161.944 E47.76281
G1 X54.031 Y161.746 E47.78771
G1 X53.335 Y161.473 E47.81257
G1 X52.672 Y161.126 E47.83746
G1 X52.049 Y160.711 E47.86236
G1 X51.288 Y160.053 E47.89582
G1 X51.171 Y159.936 E47.90132
G1 X50.671 Y159.379 E47.92622
G1 X50.234 Y158.773 E47.95107
G1 X49.863 Y158.123 E47.97596
G1 X49.564 Y157.437 E48.00085
G1 X49.34 Y156.723 E48.02574
G1 X49.193 Y155.99 E48.0506
G1 X49.121 Y154.986 E48.08408
G1 X49.121 Y25.22 E52.40012
G1 X49.161 Y24.473 E52.425
G1 X49.28 Y23.735 E52.44986
G1 X49.478 Y23.013 E52.47476
G1 X49.751 Y22.317 E52.49963
G0 F6000 X50.151 Y22.406
G1 F1200 X50.496 Y21.767 E52.52378
G1 X50.91 Y21.17 E52.54794
G1 X51.454 Y20.553 E52.5753
G1 X51.571 Y20.436 E52.58081
G1 X52.112 Y19.952 E52.60495
G1 X52.703 Y19.529 E52.62912
G1 X53.337 Y19.175 E52.65327
G1 X54.006 Y18.892 E52.67743
G1 X54.702 Y18.684 E52.7016
G1 X55.417 Y18.554 E52.72577
G1 X56.238 Y18.503 E52.75313
G1 X166.004 Y18.503 E56.40396
G1 X166.729 Y18.543 E56.42811
G1 X167.446 Y18.662 E56.45228
G1 X168.145 Y18.86 E56.47645
G1 X168.818 Y19.133 E56.5006
G1 X169.457 Y19.478 E56.52475
G1 X170.054 Y19.892 E56.54892
G1 X170.602 Y20.368 E56.57306
G1 X171.095 Y20.902 E56.59723
G1 X171.525 Y21.487 E56.62138
G1 X171.889 Y22.116 E56.64555
G1 X172.182 Y22.781 E56.66972
G1 X172.4 Y23.474 E56.69388
G1 X172.54 Y24.186 E56.71802
G1 X172.604 Y25.097 E56.74839
G1 X172.721 Y154.98 E61.06832
G1 X172.682 Y155.705 E61.09247
G1 X172.563 Y156.422 E61.11664
G1 X172.366 Y157.121 E61.1408
G1 X172.094 Y157.794 E61.16494
G1 X171.749 Y158.434 E61.18912
G1 X171.336 Y159.031 E61.21327
G1 X170.788 Y159.653 E61.24084
G1 X170.671 Y159.77 E61.24634
G1 X170.13 Y160.254 E61.27049
G1 X169.539 Y160.677 E61.29466
G1 X168.905 Y161.031 E61.31881
G1 X168.236 Y161.314 E61.34297
G1 X167.54 Y161.522 E61.36713
G1 X166.825 Y161.652 E61.3913
G1 X166.004 Y161.703 E61.41866
G1 X56.238 Y161.703 E65.06949
G1 X55.513 Y161.663 E65.09364
G1 X54.796 Y161.544 E65.11782
G1 X54.097 Y161.346 E65.14198
G1 X53.424 Y161.073 E65.16614
G1 X52.785 Y160.728 E65.19029
G1 X52.188 Y160.314 E65.21445
G1 X51.571 Y159.77 E65.24181
G1 X51.454 Y159.653 E65.24732
G1 X50.97 Y159.112 E65.27146
G1 X50.547 Y158.521 E65.29563
G1 X50.193 Y157.887 E65.31978
G1 X49.91 Y157.218 E65.34394
G1 X49.702 Y156.522 E65.3681
G1 X49.572 Y155.807 E65.39227
G1 X49.521 Y154.986 E65.41963
G1 X49.521 Y25.22 E69.73567
G1 X49.561 Y24.495 E69.75982
G1 X49.68 Y23.778 E69.78399
G1 X49.878 Y23.079 E69.80816
G1 X50.151 Y22.406 E69.83231
G0 F6000 X50.55 Y22.499
G1 F1200 X50.895 Y21.885 E69.85574
G1 X51.306 Y21.314 E69.87914
G1 X51.737 Y20.836 E69.90054
G1 X51.854 Y20.719 E69.90605
G1 X52.379 Y20.25 E69.92946
G1 X52.954 Y19.844 E69.95287
G1 X53.572 Y19.506 E69.9763
G1 X54.223 Y19.239 E69.9997
G1 X54.901 Y19.049 E70.02312
G1 X55.596 Y18.936 E70.04654
G1 X56.238 Y18.903 E70.06792
G1 X166.004 Y18.903 E73.71875
G1 X166.707 Y18.943 E73.74217
G1 X167.401 Y19.062 E73.76559
G1 X168.076 Y19.26 E73.78899
G1 X168.725 Y19.532 E73.8124
G1 X169.339 Y19.877 E73.83582
G1 X169.91 Y20.288 E73.85922
G1 X170.431 Y20.762 E73.88265
G1 X170.895 Y21.292 E73.90608
G1 X171.295 Y21.871 E73.92948
G1 X171.627 Y22.492 E73.9529
G1 X171.887 Y23.146 E73.97631
G1 X172.071 Y23.826 E73.99974
G1 X172.177 Y24.522 E74.02316
G1 X172.204 Y25.097 E74.0423
G1 X172.321 Y154.98 E78.36223
G1 X172.282 Y155.683 E78.38565
G1 X172.163 Y156.377 E78.40907
G1 X171.966 Y157.053 E78.43249
G1 X171.694 Y157.702 E78.45589
G1 X171.35 Y158.317 E78.47933
G1 X170.939 Y158.888 E78.50273
G1 X170.505 Y159.37 E78.5243
G1 X170.388 Y159.487 E78.5298
G1 X169.863 Y159.956 E78.55322
G1 X169.288 Y160.362 E78.57663
G1 X168.67 Y160.7 E78.60006
G1 X168.019 Y160.967 E78.62346
G1 X167.341 Y161.157 E78.64688
G1 X166.646 Y161.27 E78.6703
G1 X166.004 Y161.303 E78.69168
G1 X56.238 Y161.303 E82.34251
G1 X55.535 Y161.263 E82.36593
G1 X54.841 Y161.144 E82.38935
G1 X54.166 Y160.946 E82.41275
G1 X53.517 Y160.674 E82.43615
G1 X52.903 Y160.329 E82.45958
G1 X52.332 Y159.918 E82.48298
G1 X51.854 Y159.487 E82.50439
G1 X51.737 Y159.37 E82.50989
G1 X51.268 Y158.845 E82.5333
G1 X50.862 Y158.27 E82.55671
G1 X50.524 Y157.652 E82.58014
G1 X50.257 Y157.001 E82.60355
G1 X50.067 Y156.323 E82.62696
G1 X49.954 Y155.628 E82.65038
G1 X49.921 Y154.986 E82.67176
G1 X49.921 Y25.22 E86.9878
G1 X49.961 Y24.517 E87.01122
G1 X50.08 Y23.823 E87.03464
G1 X50.278 Y23.148 E87.05804
G1 X50.55 Y22.499 E87.08144
G0 F6000 X50.677 Y23.218
G1 F1200 X50.949 Y22.594 E87.10408
G1 X51.293 Y22.006 E87.12674
G1 X51.703 Y21.462 E87.1494
G1 X52.02 Y21.119 E87.16493
G1 X52.137 Y21.002 E87.17043
G1 X52.646 Y20.549 E87.1931
G1 X53.204 Y20.16 E87.21572
G1 X53.804 Y19.838 E87.23837
G1 X54.438 Y19.589 E87.26102
G1 X55.097 Y19.416 E87.28368
G1 X55.771 Y19.322 E87.30632
G1 X56.238 Y19.303 E87.32186
G1 X166.004 Y19.303 E90.9727
G1 X166.684 Y19.343 E90.99535
G1 X167.354 Y19.462 E91.01798
G1 X168.006 Y19.659 E91.04064
G1 X168.63 Y19.931 E91.06328
G1 X169.218 Y20.275 E91.08594
G1 X169.762 Y20.685 E91.10859
G1 X170.253 Y21.156 E91.13122
G1 X170.687 Y21.681 E91.15388
G1 X171.056 Y22.253 E91.17652
G1 X171.355 Y22.865 E91.19917
G1 X171.58 Y23.507 E91.2218
G1 X171.729 Y24.172 E91.24447
G1 X171.804 Y25.098 E91.27537
G1 X171.921 Y154.981 E95.59529
G1 X171.882 Y155.661 E95.61795
G1 X171.763 Y156.331 E95.64058
G1 X171.566 Y156.983 E95.66323
G1 X171.295 Y157.607 E95.68586
G1 X170.952 Y158.196 E95.70853
G1 X170.543 Y158.74 E95.73117
G1 X170.222 Y159.087 E95.74689
G1 X170.105 Y159.204 E95.75239
G1 X169.596 Y159.657 E95.77506
G1 X169.038 Y160.046 E95.79768
G1 X168.438 Y160.368 E95.82033
G1 X167.804 Y160.617 E95.84298
G1 X167.145 Y160.79 E95.86565
G1 X166.471 Y160.884 E95.88828
G1 X166.004 Y160.903 E95.90383
G1 X56.238 Y160.903 E99.55466
G1 X55.558 Y160.863 E99.57731
G1 X54.888 Y160.744 E99.59995
G1 X54.236 Y160.547 E99.6226
G1 X53.612 Y160.275 E99.64524
G1 X53.024 Y159.931 E99.6679
G1 X52.48 Y159.521 E99.69056
G1 X52.137 Y159.204 E99.70609
G1 X52.02 Y159.087 E99.71159
G1 X51.567 Y158.578 E99.73426
G1 X51.178 Y158.02 E99.75688
G1 X50.856 Y157.42 E99.77953
G1 X50.607 Y156.786 E99.80218
G1 X50.434 Y156.127 E99.82484
G1 X50.34 Y155.453 E99.84748
G1 X50.321 Y154.986 E99.86302
G1 X50.321 Y25.22 E104.17906
G1 X50.361 Y24.54 E104.20171
G1 X50.48 Y23.87 E104.22435
G1 X50.677 Y23.218 E104.247
G0 F6000 X51.077 Y23.291
G1 F1200 X51.349 Y22.693 E104.26885
G1 X51.691 Y22.132 E104.2907
G1 X52.303 Y21.402 E104.32239
G1 X52.42 Y21.285 E104.32789
G1 X52.912 Y20.849 E104.34976
G1 X53.453 Y20.477 E104.37159
G1 X54.035 Y20.173 E104.39343
G1 X54.65 Y19.942 E104.41528
G1 X55.289 Y19.787 E104.43715
G1 X56.238 Y19.703 E104.46884
G1 X166.004 Y19.703 E108.11967
G1 X166.66 Y19.743 E108.14153
G1 X167.306 Y19.862 E108.16338
G1 X167.933 Y20.059 E108.18524
G1 X168.531 Y20.331 E108.20709
G1 X169.092 Y20.673 E108.22894
G1 X169.607 Y21.081 E108.25079
G1 X170.069 Y21.548 E108.27264
G1 X170.47 Y22.068 E108.29448
G1 X170.806 Y22.632 E108.31632
G1 X171.07 Y23.234 E108.33818
G1 X171.26 Y23.863 E108.36004
G1 X171.371 Y24.51 E108.38187
G1 X171.404 Y25.098 E108.40146
G1 X171.521 Y154.981 E112.72139
G1 X171.482 Y155.637 E112.74324
G1 X171.363 Y156.283 E112.76509
G1 X171.167 Y156.91 E112.78694
G1 X170.896 Y157.508 E112.80878
G1 X170.554 Y158.07 E112.83066
G1 X169.939 Y158.804 E112.86251
G1 X169.822 Y158.921 E112.86801
G1 X169.33 Y159.357 E112.88987
G1 X168.789 Y159.729 E112.91171
G1 X168.207 Y160.033 E112.93355
G1 X167.592 Y160.264 E112.9554
G1 X166.953 Y160.419 E112.97727
G1 X166.004 Y160.503 E113.00896
G1 X56.238 Y160.503 E116.65979
G1 X55.582 Y160.463 E116.68165
G1 X54.936 Y160.344 E116.7035
G1 X54.309 Y160.147 E116.72536
G1 X53.711 Y159.875 E116.74721
G1 X53.15 Y159.533 E116.76906
G1 X52.42 Y158.921 E116.80074
G1 X52.303 Y158.804 E116.80625
G1 X51.867 Y158.312 E116.82811
G1 X51.495 Y157.771 E116.84995
G1 X51.191 Y157.189 E116.87179
G1 X50.96 Y156.574 E116.89364
G1 X50.805 Y155.935 E116.91551
G1 X50.721 Y154.986 E116.94719
G1 X50.721 Y25.22 E121.26323
G1 X50.761 Y24.564 E121.28509
G1 X50.88 Y23.918 E121.30694
G1 X51.077 Y23.291 E121.32879
G0 F6000 X51.477 Y23.368
G1 F1200 X51.748 Y22.796 E121.34985
G1 X52.088 Y22.264 E121.37085
G1 X52.585 Y21.684 E121.39625
G1 X52.702 Y21.567 E121.40175
G1 X53.177 Y21.15 E121.42278
G1 X53.7 Y20.795 E121.4438
G1 X54.264 Y20.509 E121.46483
G1 X54.859 Y20.297 E121.48584
G1 X55.477 Y20.161 E121.50689
G1 X56.238 Y20.103 E121.53227
G1 X166.004 Y20.103 E125.1831
G1 X166.635 Y20.143 E125.20413
G1 X167.256 Y20.262 E125.22516
G1 X167.856 Y20.459 E125.24617
G1 X168.428 Y20.73 E125.26722
G1 X168.96 Y21.07 E125.28822
G1 X169.445 Y21.476 E125.30926
G1 X169.875 Y21.939 E125.33027
G1 X170.244 Y22.453 E125.35132
G1 X170.544 Y23.009 E125.37233
G1 X170.772 Y23.598 E125.39334
G1 X170.924 Y24.212 E125.41438
G1 X171.004 Y25.098 E125.44396
G1 X171.121 Y154.981 E129.76389
G1 X171.082 Y155.612 E129.78492
G1 X170.963 Y156.233 E129.80595
G1 X170.767 Y156.834 E129.82698
G1 X170.497 Y157.406 E129.84801
G1 X170.156 Y157.938 E129.86903
G1 X169.657 Y158.522 E129.89458
G1 X169.54 Y158.639 E129.90008
G1 X169.065 Y159.056 E129.92111
G1 X168.542 Y159.411 E129.94213
G1 X167.978 Y159.697 E129.96316
G1 X167.383 Y159.909 E129.98417
G1 X166.765 Y160.045 E130.00522
G1 X166.004 Y160.103 E130.0306
G1 X56.238 Y160.103 E133.68143
G1 X55.607 Y160.063 E133.70246
G1 X54.986 Y159.944 E133.72349
G1 X54.386 Y159.747 E133.7445
G1 X53.814 Y159.476 E133.76555
G1 X53.282 Y159.136 E133.78655
G1 X52.702 Y158.639 E133.81195
G1 X52.585 Y158.522 E133.81746
G1 X52.168 Y158.047 E133.83848
G1 X51.813 Y157.524 E133.8595
G1 X51.527 Y156.96 E133.88054
