;FLAVOR:Marlin
;TIME:8890
;Filament used: 5.92063m
;Layer height: 0.2
;MINX:87.708
;MINY:17.383
;MINZ:0.2
;MAXX:132.688
;MAXY:164.788
;MAXZ:13.4
;Generated with Cura_SteamEngine 4.5.0
M140 S60
M105
M190 S60
M104 S190
M105
M109 S190
M82 ;absolute extrusion mode
M201 X500.00 Y500.00 Z100.00 E5000.00 ;Setup machine max acceleration
M203 X500.00 Y500.00 Z10.00 E50.00 ;Setup machine max feedrate
M204 P500.00 R1000.00 T500.00 ;Setup Print/Retract/Travel acceleration
M205 X8.00 Y8.00 Z0.40 E5.00 ;Setup Jerk
M220 S100 ;Reset Feedrate
M221 S100 ;Reset Flowrate

G28 ;Home
M420 S1 Z2 ;Enable ABL using saved Mesh and Fade Height
G29     ;autobedlevel
G92 E0 ;Reset Extruder
G1 Z2.0 F3000 ;Move Z Axis up
G1 X10.1 Y20 Z0.28 F5000.0 ;Move to start position
G1 X10.1 Y200.0 Z0.28 F1500.0 E15 ;Draw the first line
G1 X10.4 Y200.0 Z0.28 F5000.0 ;Move to side a little
G1 X10.4 Y20 Z0.28 F1500.0 E30 ;Draw the second line
G92 E0 ;Reset Extruder
G92 E0
G92 E0
G1 F1500 E-6.5
;LAYER_COUNT:67
;LAYER:0
M107
G0 F6000 X88.468 Y29.776 Z0.2
;TYPE:SKIRT
G1 F1500 E0
G1 F1200 X88.75 Y29.017 E0.02693
G1 X88.856 Y28.772 E0.03581
G1 X89.206 Y28.064 E0.06208
G1 X89.626 Y27.395 E0.08835
G1 X90.111 Y26.772 E0.11461
G1 X90.657 Y26.201 E0.14089
G1 X91.479 Y25.524 E0.17631
G1 X91.693 Y25.371 E0.18506
G1 X92.357 Y24.945 E0.21129
G1 X93.062 Y24.588 E0.23758
G1 X93.799 Y24.304 E0.26385
G1 X94.288 Y24.171 E0.2807
G1 X94.308 Y24.041 E0.28508
G1 X94.507 Y23.277 E0.31134
G1 X94.798 Y22.498 E0.33899
G1 X94.908 Y22.246 E0.34814
G1 X95.261 Y21.539 E0.37442
G1 X95.682 Y20.871 E0.40068
G1 X96.169 Y20.25 E0.42693
G1 X96.717 Y19.681 E0.45321
G1 X97.503 Y19.033 E0.48709
G1 X97.713 Y18.882 E0.49569
G1 X98.377 Y18.454 E0.52197
G1 X99.081 Y18.096 E0.54824
G1 X99.817 Y17.81 E0.5745
G1 X100.936 Y17.529 E0.61287
G1 X101.115 Y17.498 E0.61891
G1 X101.899 Y17.403 E0.64518
G1 X102.432 Y17.384 E0.66292
G1 X102.973 Y17.383 E0.68091
G1 X118.416 Y17.387 E1.19455
G1 X119.205 Y17.427 E1.22083
G1 X119.985 Y17.547 E1.24707
G1 X120.75 Y17.745 E1.27336
G1 X121.531 Y18.037 E1.30109
G1 X121.781 Y18.146 E1.31016
G1 X122.488 Y18.498 E1.33643
G1 X123.156 Y18.919 E1.36269
G1 X123.778 Y19.406 E1.38896
G1 X124.347 Y19.954 E1.41524
G1 X124.997 Y20.742 E1.44921
G1 X125.148 Y20.952 E1.45782
G1 X125.576 Y21.616 E1.48409
G1 X125.934 Y22.32 E1.51036
G1 X126.22 Y23.056 E1.53662
G1 X126.43 Y23.817 E1.56288
G1 X126.483 Y24.162 E1.57449
G1 X127.085 Y24.336 E1.59533
G1 X127.818 Y24.63 E1.6216
G1 X128.517 Y24.997 E1.64786
G1 X128.894 Y25.235 E1.66269
G1 X129.11 Y25.38 E1.67134
G1 X129.743 Y25.853 E1.69762
G1 X130.324 Y26.387 E1.72387
G1 X130.849 Y26.977 E1.75014
G1 X131.311 Y27.618 E1.77642
G1 X131.746 Y28.38 E1.8056
G1 X131.859 Y28.607 E1.81403
G1 X132.174 Y29.331 E1.84029
G1 X132.415 Y30.083 E1.86656
G1 X132.579 Y30.855 E1.89281
G1 X132.663 Y31.641 E1.9191
G1 X132.676 Y32.073 E1.93347
G1 X132.688 Y41.049 E2.23202
G1 X132.672 Y41.375 E2.24287
G1 X132.688 Y41.793 E2.25679
G1 X132.688 Y50.62 E2.55037
G1 X132.615 Y51.687 E2.58595
G1 X132.586 Y51.897 E2.593
G1 X132.438 Y52.673 E2.61927
G1 X132.213 Y53.43 E2.64554
G1 X131.912 Y54.16 E2.6718
G1 X131.368 Y55.128 E2.70873
G1 X131.228 Y55.34 E2.71718
G1 X130.76 Y55.976 E2.74345
G1 X130.23 Y56.562 E2.76973
G1 X129.644 Y57.091 E2.79598
G1 X129.007 Y57.558 E2.82225
G1 X128.231 Y58.006 E2.85206
G1 X127.999 Y58.123 E2.8607
G1 X127.277 Y58.443 E2.88696
G1 X126.526 Y58.688 E2.91324
G1 X125.755 Y58.855 E2.93948
G1 X124.97 Y58.944 E2.96575
G1 X124.862 Y58.947 E2.96935
G1 X125.176 Y59.433 E2.98859
G1 X125.536 Y60.136 E3.01486
G1 X125.822 Y60.872 E3.04112
G1 X126.032 Y61.633 E3.06738
G1 X126.087 Y61.985 E3.07923
G1 X126.689 Y62.159 E3.10007
G1 X127.422 Y62.453 E3.12634
G1 X128.121 Y62.82 E3.1526
G1 X128.498 Y63.058 E3.16743
G1 X128.714 Y63.203 E3.17608
G1 X129.347 Y63.676 E3.20236
G1 X129.928 Y64.21 E3.22861
G1 X130.453 Y64.8 E3.25488
G1 X130.915 Y65.441 E3.28116
G1 X131.35 Y66.203 E3.31034
G1 X131.463 Y66.43 E3.31877
G1 X131.778 Y67.154 E3.34503
G1 X132.019 Y67.906 E3.3713
G1 X132.183 Y68.678 E3.39755
G1 X132.267 Y69.464 E3.42384
G1 X132.28 Y69.896 E3.43821
G1 X132.292 Y78.872 E3.73676
G1 X132.276 Y79.198 E3.74761
G1 X132.292 Y79.616 E3.76153
G1 X132.292 Y88.443 E4.05511
G1 X132.218 Y89.515 E4.09085
G1 X132.189 Y89.724 E4.09787
G1 X132.041 Y90.5 E4.12415
G1 X131.815 Y91.256 E4.15039
G1 X131.514 Y91.987 E4.17668
G1 X130.972 Y92.951 E4.21347
G1 X130.83 Y93.166 E4.22204
G1 X130.362 Y93.802 E4.2483
G1 X129.832 Y94.387 E4.27456
G1 X129.245 Y94.916 E4.30084
G1 X128.608 Y95.383 E4.32711
G1 X127.809 Y95.844 E4.35779
G1 X127.579 Y95.959 E4.36634
G1 X126.914 Y96.249 E4.39047
G1 X127.422 Y96.453 E4.40868
G1 X128.121 Y96.82 E4.43494
G1 X128.498 Y97.058 E4.44977
G1 X128.714 Y97.203 E4.45842
G1 X129.347 Y97.676 E4.4847
G1 X129.928 Y98.21 E4.51095
G1 X130.453 Y98.8 E4.53721
G1 X130.915 Y99.441 E4.56349
G1 X131.35 Y100.203 E4.59268
G1 X131.463 Y100.43 E4.60111
G1 X131.778 Y101.154 E4.62737
G1 X132.019 Y101.906 E4.65364
G1 X132.183 Y102.678 E4.67989
G1 X132.267 Y103.464 E4.70618
G1 X132.28 Y103.896 E4.72055
G1 X132.292 Y112.872 E5.0191
G1 X132.276 Y113.198 E5.02995
G1 X132.292 Y113.616 E5.04387
G1 X132.292 Y122.443 E5.33745
G1 X132.218 Y123.515 E5.37319
G1 X132.189 Y123.724 E5.38021
G1 X132.041 Y124.5 E5.40649
G1 X131.815 Y125.256 E5.43273
G1 X131.514 Y125.987 E5.45902
G1 X130.995 Y126.915 E5.49439
G1 X130.856 Y127.128 E5.50285
G1 X130.392 Y127.766 E5.52909
G1 X129.865 Y128.355 E5.55537
G1 X129.281 Y128.887 E5.58165
G1 X128.647 Y129.357 E5.6079
G1 X127.824 Y129.836 E5.63957
G1 X127.591 Y129.953 E5.64824
G1 X126.916 Y130.25 E5.67277
G1 X127.422 Y130.453 E5.6909
G1 X128.121 Y130.82 E5.71716
G1 X128.498 Y131.058 E5.73199
G1 X128.714 Y131.203 E5.74064
G1 X129.347 Y131.676 E5.76692
G1 X129.928 Y132.21 E5.79317
G1 X130.453 Y132.8 E5.81944
G1 X130.915 Y133.441 E5.84572
G1 X131.35 Y134.203 E5.8749
G1 X131.463 Y134.43 E5.88334
G1 X131.778 Y135.154 E5.9096
G1 X132.019 Y135.906 E5.93586
G1 X132.183 Y136.678 E5.96211
G1 X132.267 Y137.464 E5.9884
G1 X132.28 Y137.896 E6.00278
G1 X132.292 Y146.872 E6.30132
G1 X132.276 Y147.198 E6.31218
G1 X132.292 Y147.616 E6.32609
G1 X132.292 Y156.443 E6.61968
G1 X132.218 Y157.515 E6.65542
G1 X132.189 Y157.724 E6.66243
G1 X132.041 Y158.5 E6.68871
G1 X131.815 Y159.256 E6.71495
G1 X131.514 Y159.987 E6.74125
G1 X130.995 Y160.915 E6.77661
G1 X130.856 Y161.128 E6.78507
G1 X130.392 Y161.766 E6.81131
G1 X129.865 Y162.355 E6.8376
G1 X129.281 Y162.887 E6.86387
G1 X128.647 Y163.357 E6.89012
G1 X127.824 Y163.836 E6.92179
G1 X127.591 Y163.953 E6.93046
G1 X126.868 Y164.271 E6.95673
G1 X126.117 Y164.514 E6.98299
G1 X125.345 Y164.68 E7.00925
G1 X124.56 Y164.768 E7.03552
G1 X124.093 Y164.782 E7.05106
G1 X95.943 Y164.788 E7.98734
G1 X95.154 Y164.748 E8.01361
G1 X94.373 Y164.629 E8.03989
G1 X93.609 Y164.431 E8.06614
G1 X92.821 Y164.137 E8.09411
G1 X92.569 Y164.027 E8.10326
G1 X91.862 Y163.674 E8.12954
G1 X91.194 Y163.253 E8.1558
G1 X90.573 Y162.766 E8.18205
G1 X90.004 Y162.218 E8.20833
G1 X89.338 Y161.406 E8.24326
G1 X89.189 Y161.197 E8.25179
G1 X88.764 Y160.532 E8.27804
G1 X88.408 Y159.827 E8.30431
G1 X88.125 Y159.089 E8.3306
G1 X87.864 Y158.057 E8.366
G1 X87.832 Y157.88 E8.37199
G1 X87.731 Y157.096 E8.39828
G1 X87.708 Y156.488 E8.41851
G1 X87.712 Y147.612 E8.71373
G1 X87.726 Y147.341 E8.72276
G1 X87.708 Y146.878 E8.73817
G1 X87.713 Y137.933 E9.03568
G1 X87.753 Y137.144 E9.06196
G1 X87.873 Y136.363 E9.08824
G1 X88.072 Y135.599 E9.1145
G1 X88.354 Y134.84 E9.14143
G1 X88.46 Y134.595 E9.1503
G1 X88.81 Y133.887 E9.17657
G1 X89.23 Y133.218 E9.20285
G1 X89.715 Y132.595 E9.22911
G1 X90.261 Y132.024 E9.25538
G1 X91.083 Y131.347 E9.2908
G1 X91.297 Y131.194 E9.29955
G1 X91.961 Y130.768 E9.32579
G1 X92.666 Y130.411 E9.35207
G1 X93.104 Y130.242 E9.36769
G1 X92.821 Y130.137 E9.37773
G1 X92.569 Y130.027 E9.38687
G1 X91.862 Y129.674 E9.41316
G1 X91.194 Y129.253 E9.43942
G1 X90.573 Y128.766 E9.46567
G1 X90.004 Y128.218 E9.49194
G1 X89.338 Y127.406 E9.52687
G1 X89.189 Y127.197 E9.53541
G1 X88.764 Y126.532 E9.56166
G1 X88.408 Y125.827 E9.58793
G1 X88.125 Y125.089 E9.61421
G1 X87.864 Y124.057 E9.64962
G1 X87.832 Y123.88 E9.6556
G1 X87.731 Y123.096 E9.68189
G1 X87.708 Y122.488 E9.70213
G1 X87.712 Y113.612 E9.99735
G1 X87.726 Y113.341 E10.00637
G1 X87.708 Y112.878 E10.02178
G1 X87.713 Y103.933 E10.3193
G1 X87.753 Y103.144 E10.34557
G1 X87.873 Y102.363 E10.37185
G1 X88.072 Y101.599 E10.39811
G1 X88.354 Y100.84 E10.42504
G1 X88.46 Y100.595 E10.43392
G1 X88.81 Y99.887 E10.46019
G1 X89.23 Y99.218 E10.48646
G1 X89.715 Y98.595 E10.51272
G1 X90.261 Y98.024 E10.539
G1 X91.083 Y97.347 E10.57442
G1 X91.297 Y97.194 E10.58317
G1 X91.961 Y96.768 E10.60941
G1 X92.666 Y96.411 E10.63569
G1 X93.104 Y96.242 E10.6513
G1 X92.807 Y96.131 E10.66185
G1 X92.554 Y96.02 E10.67104
G1 X91.848 Y95.666 E10.69731
G1 X91.181 Y95.243 E10.72358
G1 X90.561 Y94.755 E10.74982
G1 X89.993 Y94.206 E10.77609
G1 X89.333 Y93.399 E10.81077
G1 X89.185 Y93.191 E10.81926
G1 X88.76 Y92.525 E10.84553
G1 X88.405 Y91.82 E10.87179
G1 X88.123 Y91.082 E10.89806
G1 X87.864 Y90.057 E10.93323
G1 X87.832 Y89.88 E10.93921
G1 X87.731 Y89.096 E10.9655
G1 X87.708 Y88.488 E10.98574
G1 X87.712 Y79.612 E11.28096
G1 X87.726 Y79.341 E11.28998
G1 X87.708 Y78.878 E11.30539
G1 X87.713 Y69.933 E11.6029
G1 X87.753 Y69.144 E11.62918
G1 X87.873 Y68.363 E11.65546
G1 X88.072 Y67.599 E11.68172
G1 X88.354 Y66.84 E11.70865
G1 X88.46 Y66.595 E11.71753
G1 X88.81 Y65.887 E11.7438
G1 X89.23 Y65.218 E11.77007
G1 X89.715 Y64.595 E11.79633
G1 X90.261 Y64.024 E11.82261
G1 X91.083 Y63.347 E11.85803
G1 X91.297 Y63.194 E11.86677
G1 X91.961 Y62.768 E11.89301
G1 X92.666 Y62.411 E11.9193
G1 X93.403 Y62.127 E11.94557
G1 X93.892 Y61.994 E11.96242
G1 X93.912 Y61.864 E11.9668
G1 X94.111 Y61.1 E11.99306
G1 X94.402 Y60.321 E12.02071
G1 X94.512 Y60.069 E12.02986
G1 X94.865 Y59.362 E12.05614
G1 X95.176 Y58.868 E12.07556
G1 X94.769 Y58.806 E12.08925
G1 X94.005 Y58.608 E12.1155
G1 X93.18 Y58.297 E12.14483
G1 X92.927 Y58.185 E12.15403
G1 X92.222 Y57.83 E12.18028
G1 X91.556 Y57.404 E12.20658
G1 X90.937 Y56.914 E12.23283
G1 X90.371 Y56.364 E12.25908
G1 X89.739 Y55.59 E12.29232
G1 X89.591 Y55.383 E12.30078
G1 X89.165 Y54.718 E12.32705
G1 X88.808 Y54.013 E12.35333
G1 X88.524 Y53.276 E12.3796
G1 X88.26 Y52.234 E12.41535
G1 X88.228 Y52.057 E12.42134
G1 X88.127 Y51.273 E12.44763
G1 X88.104 Y50.665 E12.46787
G1 X88.108 Y41.789 E12.76308
G1 X88.122 Y41.518 E12.77211
G1 X88.104 Y41.055 E12.78752
G1 X88.109 Y32.11 E13.08503
G1 X88.149 Y31.321 E13.11131
G1 X88.269 Y30.54 E13.13759
G1 X88.468 Y29.776 E13.16385
G0 F6000 X88.867 Y29.839
G1 F1200 X89.117 Y29.176 E13.18741
G1 X89.223 Y28.931 E13.19629
G1 X89.565 Y28.242 E13.22188
G1 X89.976 Y27.592 E13.24745
G1 X90.453 Y26.988 E13.27305
G1 X90.99 Y26.437 E13.29864
G1 X91.711 Y25.849 E13.32959
G1 X91.925 Y25.696 E13.33834
G1 X92.573 Y25.282 E13.36391
G1 X93.261 Y24.937 E13.38951
G1 X93.981 Y24.666 E13.4151
G1 X94.643 Y24.492 E13.43786
G1 X94.708 Y24.083 E13.45164
G1 X94.907 Y23.34 E13.47722
G1 X95.165 Y22.658 E13.50147
G1 X95.275 Y22.406 E13.51062
G1 X95.619 Y21.718 E13.5362
G1 X96.032 Y21.069 E13.56179
G1 X96.511 Y20.467 E13.58738
G1 X97.049 Y19.918 E13.61294
G1 X97.737 Y19.358 E13.64245
G1 X97.947 Y19.207 E13.65105
G1 X98.594 Y18.791 E13.67663
G1 X99.281 Y18.444 E13.70223
G1 X99.999 Y18.171 E13.72778
G1 X101.004 Y17.924 E13.7622
G1 X101.183 Y17.893 E13.76825
G1 X101.947 Y17.801 E13.79384
G1 X102.432 Y17.784 E13.80998
G1 X102.973 Y17.783 E13.82797
G1 X118.416 Y17.787 E14.34161
G1 X119.184 Y17.827 E14.36719
G1 X119.944 Y17.947 E14.39278
G1 X120.687 Y18.145 E14.41835
G1 X121.372 Y18.404 E14.44271
G1 X121.622 Y18.513 E14.45178
G1 X122.31 Y18.856 E14.47735
G1 X122.958 Y19.27 E14.50293
G1 X123.561 Y19.748 E14.52852
G1 X124.11 Y20.286 E14.55409
G1 X124.672 Y20.976 E14.58369
G1 X124.823 Y21.186 E14.59229
G1 X125.239 Y21.833 E14.61787
G1 X125.586 Y22.52 E14.64347
G1 X125.859 Y23.238 E14.66902
G1 X126.056 Y23.982 E14.69462
G1 X126.132 Y24.488 E14.71164
G1 X126.255 Y24.511 E14.7158
G1 X126.993 Y24.727 E14.74137
G1 X127.705 Y25.019 E14.76697
G1 X128.671 Y25.567 E14.80391
G1 X128.887 Y25.712 E14.81256
G1 X129.503 Y26.173 E14.83815
G1 X130.067 Y26.696 E14.86373
G1 X130.574 Y27.274 E14.88931
G1 X131.018 Y27.902 E14.91489
G1 X131.388 Y28.558 E14.93994
G1 X131.501 Y28.785 E14.94837
G1 X131.807 Y29.491 E14.97396
G1 X132.039 Y30.224 E14.99953
G1 X132.193 Y30.978 E15.02513
G1 X132.276 Y32.073 E15.06165
G1 X132.288 Y41.049 E15.3602
G1 X132.273 Y41.342 E15.36996
G1 X132.288 Y41.793 E15.38496
G1 X132.288 Y50.62 E15.67855
G1 X132.218 Y51.632 E15.71229
G1 X132.189 Y51.842 E15.71934
G1 X132.045 Y52.598 E15.74494
G1 X131.822 Y53.334 E15.77052
G1 X131.525 Y54.043 E15.79608
G1 X131.034 Y54.908 E15.82917
G1 X130.894 Y55.12 E15.83762
G1 X130.437 Y55.739 E15.86321
G1 X129.919 Y56.307 E15.88878
G1 X129.344 Y56.818 E15.91436
G1 X128.72 Y57.267 E15.93993
G1 X128.051 Y57.649 E15.96555
G1 X127.819 Y57.766 E15.97419
G1 X127.115 Y58.077 E15.99979
G1 X126.383 Y58.312 E16.02536
G1 X125.63 Y58.47 E16.05095
G1 X124.489 Y58.559 E16.08902
G1 X124.079 Y58.559 E16.10266
G1 X124.271 Y58.793 E16.11272
G1 X124.423 Y59.004 E16.12137
G1 X124.84 Y59.65 E16.14695
G1 X125.187 Y60.337 E16.17254
G1 X125.461 Y61.055 E16.19811
G1 X125.659 Y61.799 E16.22371
G1 X125.736 Y62.311 E16.24093
G1 X125.859 Y62.334 E16.24509
G1 X126.597 Y62.55 E16.27067
G1 X127.309 Y62.842 E16.29627
G1 X128.275 Y63.39 E16.3332
G1 X128.491 Y63.535 E16.34186
G1 X129.107 Y63.996 E16.36745
G1 X129.671 Y64.519 E16.39303
G1 X130.178 Y65.097 E16.4186
G1 X130.622 Y65.725 E16.44418
G1 X130.992 Y66.381 E16.46923
G1 X131.105 Y66.608 E16.47767
G1 X131.411 Y67.314 E16.50326
G1 X131.643 Y68.047 E16.52883
G1 X131.797 Y68.801 E16.55443
G1 X131.88 Y69.896 E16.59095
G1 X131.892 Y78.872 E16.88949
G1 X131.877 Y79.165 E16.89925
G1 X131.892 Y79.616 E16.91426
G1 X131.892 Y88.443 E17.20785
G1 X131.822 Y89.46 E17.24175
G1 X131.793 Y89.669 E17.24877
G1 X131.648 Y90.424 E17.27434
G1 X131.425 Y91.161 E17.29995
G1 X131.127 Y91.87 E17.32553
G1 X130.638 Y92.73 E17.35844
G1 X130.496 Y92.945 E17.36701
G1 X130.039 Y93.564 E17.3926
G1 X129.521 Y94.132 E17.41817
G1 X128.946 Y94.644 E17.44377
G1 X128.321 Y95.092 E17.46935
G1 X127.63 Y95.486 E17.49581
G1 X127.4 Y95.601 E17.50436
G1 X126.695 Y95.909 E17.52995
G1 X125.962 Y96.141 E17.55552
G1 X125.718 Y96.192 E17.56381
G1 X125.736 Y96.311 E17.56781
G1 X125.859 Y96.334 E17.57197
G1 X126.597 Y96.55 E17.59755
G1 X127.309 Y96.842 E17.62315
G1 X128.275 Y97.39 E17.66008
G1 X128.491 Y97.535 E17.66874
G1 X129.107 Y97.996 E17.69433
G1 X129.671 Y98.519 E17.71991
G1 X130.178 Y99.097 E17.74548
G1 X130.622 Y99.725 E17.77106
G1 X130.992 Y100.381 E17.79611
G1 X131.105 Y100.608 E17.80455
G1 X131.411 Y101.314 E17.83014
G1 X131.643 Y102.047 E17.85571
G1 X131.797 Y102.801 E17.88131
G1 X131.88 Y103.896 E17.91783
G1 X131.892 Y112.872 E18.21637
G1 X131.877 Y113.165 E18.22613
G1 X131.892 Y113.616 E18.24114
G1 X131.892 Y122.443 E18.53473
G1 X131.822 Y123.46 E18.56863
G1 X131.793 Y123.669 E18.57565
G1 X131.648 Y124.424 E18.60122
G1 X131.425 Y125.161 E18.62683
G1 X131.127 Y125.87 E18.65241
G1 X130.66 Y126.696 E18.68397
G1 X130.521 Y126.909 E18.69243
G1 X130.068 Y127.531 E18.71802
G1 X129.553 Y128.102 E18.7436
G1 X128.981 Y128.616 E18.76918
G1 X128.359 Y129.068 E18.79475
G1 X127.645 Y129.478 E18.82213
G1 X127.412 Y129.595 E18.83081
G1 X126.707 Y129.904 E18.85641
G1 X125.975 Y130.138 E18.88197
G1 X125.718 Y130.192 E18.8907
G1 X125.736 Y130.311 E18.89471
G1 X125.859 Y130.334 E18.89887
G1 X126.597 Y130.55 E18.92444
G1 X127.309 Y130.842 E18.95004
G1 X128.275 Y131.39 E18.98698
G1 X128.491 Y131.535 E18.99563
G1 X129.107 Y131.996 E19.02122
G1 X129.671 Y132.519 E19.0468
G1 X130.178 Y133.097 E19.07238
G1 X130.622 Y133.725 E19.09796
G1 X130.992 Y134.381 E19.12301
G1 X131.105 Y134.608 E19.13144
G1 X131.411 Y135.314 E19.15703
G1 X131.643 Y136.047 E19.1826
G1 X131.797 Y136.801 E19.2082
G1 X131.88 Y137.896 E19.24472
G1 X131.892 Y146.872 E19.54327
G1 X131.877 Y147.165 E19.55303
G1 X131.892 Y147.616 E19.56803
G1 X131.892 Y156.443 E19.86162
G1 X131.822 Y157.46 E19.89553
