;FLAVOR:Marlin
;TIME:1770
;Filament used: 0.858436m
;Layer height: 0.2
;MINX:90.643
;MINY:20.239
;MINZ:0.2
;MAXX:133.994
;MAXY:132.772
;MAXZ:4.4
;Generated with Cura_SteamEngine 4.5.0
M140 S60
M105
M190 S60
M104 S190
M105
M109 S190
M82 ;absolute extrusion mode
M201 X500.00 Y500.00 Z100.00 E5000.00 ;Setup machine max acceleration
M203 X500.00 Y500.00 Z10.00 E50.00 ;Setup machine max feedrate
M204 P500.00 R1000.00 T500.00 ;Setup Print/Retract/Travel acceleration
M205 X8.00 Y8.00 Z0.40 E5.00 ;Setup Jerk
M220 S100 ;Reset Feedrate
M221 S100 ;Reset Flowrate

G28 ;Home
M420 S1 Z2 ;Enable ABL using saved Mesh and Fade Height
G29     ;autobedlevel
G92 E0 ;Reset Extruder
G1 Z2.0 F3000 ;Move Z Axis up
G1 X10.1 Y20 Z0.28 F5000.0 ;Move to start position
G1 X10.1 Y200.0 Z0.28 F1500.0 E15 ;Draw the first line
G1 X10.4 Y200.0 Z0.28 F5000.0 ;Move to side a little
G1 X10.4 Y20 Z0.28 F1500.0 E30 ;Draw the second line
G92 E0 ;Reset Extruder
G92 E0
G92 E0
G1 F1500 E-6.5
;LAYER_COUNT:24
;LAYER:0
M107
G0 F6000 X94.751 Y34.291 Z0.2
;TYPE:SKIRT
G1 F1500 E0
G1 F1200 X95.025 Y33.551 E0.02625
G1 X95.373 Y32.842 E0.05251
G1 X95.791 Y32.171 E0.07881
G1 X96.274 Y31.547 E0.10505
G1 X96.679 Y31.11 E0.12487
G1 X96.796 Y30.993 E0.13037
G1 X97.382 Y30.463 E0.15665
G1 X98.018 Y29.996 E0.1829
G1 X98.508 Y29.707 E0.20182
G1 X98.757 Y29.207 E0.2204
G1 X98.81 Y29.114 E0.22396
G1 X99.235 Y28.449 E0.25021
G1 X99.726 Y27.83 E0.27648
G1 X100.276 Y27.263 E0.30276
G1 X100.881 Y26.756 E0.32901
G1 X101.688 Y26.221 E0.36121
G1 X110.241 Y21.284 E0.68968
G1 X110.944 Y20.924 E0.71595
G1 X111.679 Y20.637 E0.74219
G1 X112.44 Y20.426 E0.76846
G1 X113.219 Y20.294 E0.79474
G1 X114.14 Y20.239 E0.82542
G1 X114.248 Y20.239 E0.82902
G1 X115.037 Y20.279 E0.85529
G1 X115.817 Y20.398 E0.88153
G1 X116.582 Y20.596 E0.90782
G1 X117.322 Y20.87 E0.93406
G1 X118.155 Y21.288 E0.96506
G1 X126.701 Y26.22 E1.29324
G1 X127.364 Y26.649 E1.31951
G1 X127.98 Y27.143 E1.34577
G1 X128.543 Y27.696 E1.37202
G1 X129.048 Y28.304 E1.3983
G1 X129.579 Y29.114 E1.43052
G1 X129.632 Y29.207 E1.43408
G1 X129.881 Y29.7 E1.45245
G1 X130.531 Y30.105 E1.47792
G1 X131.155 Y30.588 E1.50417
G1 X131.592 Y30.993 E1.52398
G1 X131.709 Y31.11 E1.52949
G1 X132.239 Y31.696 E1.55577
G1 X132.706 Y32.332 E1.58201
G1 X133.107 Y33.012 E1.60827
G1 X133.437 Y33.73 E1.63455
G1 X133.692 Y34.477 E1.6608
G1 X133.871 Y35.246 E1.68706
G1 X133.971 Y36.03 E1.71335
G1 X133.994 Y36.625 E1.73315
G1 X133.994 Y39.391 E1.82515
G1 X133.954 Y40.18 E1.85143
G1 X133.835 Y40.96 E1.87767
G1 X133.637 Y41.725 E1.90395
G1 X133.363 Y42.465 E1.9302
G1 X133.015 Y43.174 E1.95647
G1 X132.597 Y43.845 E1.98276
G1 X132.114 Y44.469 E2.00901
G1 X131.709 Y44.906 E2.02882
G1 X131.592 Y45.023 E2.03433
G1 X131.006 Y45.553 E2.06061
G1 X130.37 Y46.02 E2.08685
G1 X129.881 Y46.308 E2.10572
G1 X129.632 Y46.809 E2.12433
G1 X129.579 Y46.902 E2.12789
G1 X129.154 Y47.567 E2.15414
G1 X128.663 Y48.186 E2.18042
G1 X128.113 Y48.753 E2.20669
G1 X127.508 Y49.26 E2.23295
G1 X126.701 Y49.796 E2.26517
G1 X118.147 Y54.733 E2.59366
G1 X117.444 Y55.092 E2.61992
G1 X116.708 Y55.379 E2.64619
G1 X115.947 Y55.59 E2.67246
G1 X115.169 Y55.722 E2.6987
G1 X114.248 Y55.777 E2.72939
G1 X114.14 Y55.777 E2.73298
G1 X113.351 Y55.737 E2.75926
G1 X112.571 Y55.618 E2.7855
G1 X111.806 Y55.42 E2.81178
G1 X111.066 Y55.146 E2.83803
G1 X110.241 Y54.732 E2.86873
G1 X101.688 Y49.795 E3.19719
G1 X101.025 Y49.366 E3.22346
G1 X100.408 Y48.873 E3.24973
G1 X99.845 Y48.319 E3.276
G1 X99.341 Y47.712 E3.30224
G1 X98.81 Y46.902 E3.33445
G1 X98.757 Y46.809 E3.33801
G1 X98.508 Y46.317 E3.35635
G1 X97.857 Y45.911 E3.38187
G1 X97.233 Y45.428 E3.40812
G1 X96.796 Y45.023 E3.42793
G1 X96.679 Y44.906 E3.43344
G1 X96.149 Y44.32 E3.45972
G1 X95.682 Y43.684 E3.48596
G1 X95.281 Y43.004 E3.51222
G1 X94.951 Y42.286 E3.5385
G1 X94.696 Y41.539 E3.56475
G1 X94.517 Y40.77 E3.59101
G1 X94.417 Y39.986 E3.6173
G1 X94.394 Y39.391 E3.63711
G1 X94.394 Y36.625 E3.7291
G1 X94.434 Y35.836 E3.75538
G1 X94.553 Y35.056 E3.78162
G1 X94.751 Y34.291 E3.8079
G0 F6000 X95.151 Y34.354
G1 F1200 X95.425 Y33.635 E3.8335
G1 X95.772 Y32.949 E3.85907
G1 X96.188 Y32.302 E3.88465
G1 X96.669 Y31.702 E3.91023
G1 X97.078 Y31.275 E3.92989
G1 X97.65 Y30.761 E3.95547
G1 X98.272 Y30.308 E3.98106
G1 X98.806 Y29.998 E4.0016
G1 X99.105 Y29.405 E4.02369
G1 X99.158 Y29.312 E4.02725
G1 X99.573 Y28.664 E4.05284
G1 X100.053 Y28.063 E4.07842
G1 X100.593 Y27.516 E4.10399
G1 X101.186 Y27.027 E4.12955
G1 X101.888 Y26.567 E4.15747
G1 X110.441 Y21.63 E4.48593
G1 X111.126 Y21.281 E4.5115
G1 X111.844 Y21.004 E4.5371
G1 X112.586 Y20.804 E4.56266
G1 X113.346 Y20.682 E4.58826
G1 X114.14 Y20.639 E4.61471
G1 X114.248 Y20.639 E4.6183
G1 X115.016 Y20.679 E4.64388
G1 X115.776 Y20.798 E4.66946
G1 X116.519 Y20.996 E4.69504
G1 X117.238 Y21.27 E4.72063
G1 X117.955 Y21.634 E4.74737
G1 X118.19 Y21.77 E4.7564
G1 X126.501 Y26.567 E5.07557
G1 X127.146 Y26.985 E5.10113
G1 X127.745 Y27.469 E5.12675
G1 X128.289 Y28.011 E5.15229
G1 X128.775 Y28.608 E5.17789
G1 X129.231 Y29.312 E5.20579
G1 X129.284 Y29.405 E5.20935
G1 X129.584 Y30 E5.23151
G1 X129.753 Y30.086 E5.23782
G1 X130.4 Y30.502 E5.2634
G1 X131 Y30.983 E5.28898
G1 X131.427 Y31.392 E5.30865
G1 X131.941 Y31.964 E5.33422
G1 X132.394 Y32.586 E5.35982
G1 X132.78 Y33.251 E5.38539
G1 X133.095 Y33.953 E5.41098
G1 X133.335 Y34.684 E5.43657
G1 X133.498 Y35.435 E5.46213
G1 X133.582 Y36.2 E5.48773
G1 X133.594 Y36.625 E5.50187
G1 X133.594 Y39.391 E5.59387
G1 X133.554 Y40.159 E5.61945
G1 X133.435 Y40.919 E5.64503
G1 X133.237 Y41.662 E5.67061
G1 X132.963 Y42.381 E5.6962
G1 X132.616 Y43.067 E5.72177
G1 X132.2 Y43.714 E5.74735
G1 X131.719 Y44.314 E5.77293
G1 X131.31 Y44.741 E5.7926
G1 X130.738 Y45.255 E5.81817
G1 X130.116 Y45.708 E5.84377
G1 X129.584 Y46.017 E5.86423
G1 X129.284 Y46.611 E5.88636
G1 X129.231 Y46.704 E5.88992
G1 X128.816 Y47.352 E5.91552
G1 X128.336 Y47.953 E5.9411
G1 X127.796 Y48.5 E5.96666
G1 X127.203 Y48.989 E5.99223
G1 X126.501 Y49.449 E6.02014
G1 X117.947 Y54.386 E6.34863
G1 X117.262 Y54.735 E6.3742
G1 X116.544 Y55.012 E6.3998
G1 X115.801 Y55.212 E6.42539
G1 X115.042 Y55.334 E6.45096
G1 X114.248 Y55.377 E6.47741
G1 X114.14 Y55.377 E6.481
G1 X113.372 Y55.337 E6.50658
G1 X112.612 Y55.218 E6.53216
G1 X111.869 Y55.02 E6.55774
G1 X111.15 Y54.746 E6.58333
G1 X110.441 Y54.386 E6.60978
G1 X101.888 Y49.449 E6.93824
G1 X101.242 Y49.03 E6.96385
G1 X100.644 Y48.547 E6.98942
G1 X100.099 Y48.004 E7.01501
G1 X99.613 Y47.408 E7.04059
G1 X99.158 Y46.704 E7.06847
G1 X99.105 Y46.611 E7.07203
G1 X98.805 Y46.016 E7.09419
G1 X98.635 Y45.93 E7.10053
G1 X97.988 Y45.514 E7.12611
G1 X97.388 Y45.033 E7.15169
G1 X96.961 Y44.624 E7.17135
G1 X96.447 Y44.052 E7.19693
G1 X95.994 Y43.43 E7.22252
G1 X95.608 Y42.765 E7.2481
G1 X95.293 Y42.063 E7.27369
G1 X95.053 Y41.332 E7.29928
G1 X94.89 Y40.581 E7.32484
G1 X94.806 Y39.816 E7.35043
G1 X94.794 Y39.391 E7.36458
G1 X94.794 Y36.625 E7.45657
G1 X94.834 Y35.857 E7.48215
G1 X94.953 Y35.097 E7.50774
G1 X95.151 Y34.354 E7.53331
G0 F6000 X95.551 Y34.418
G1 F1200 X95.824 Y33.722 E7.55818
G1 X96.171 Y33.059 E7.58307
G1 X96.586 Y32.436 E7.60796
G1 X97.244 Y31.675 E7.64143
G1 X97.361 Y31.558 E7.64693
G1 X97.918 Y31.058 E7.67182
G1 X98.524 Y30.621 E7.69667
G1 X99.119 Y30.282 E7.71945
G1 X99.164 Y30.166 E7.72359
G1 X99.505 Y29.51 E7.74818
G1 X99.91 Y28.881 E7.77306
G1 X100.379 Y28.298 E7.79795
G1 X100.908 Y27.769 E7.82283
G1 X101.491 Y27.3 E7.84772
G1 X102.088 Y26.913 E7.87138
G1 X110.641 Y21.976 E8.19984
G1 X111.308 Y21.638 E8.22471
G1 X112.007 Y21.372 E8.24959
G1 X112.73 Y21.182 E8.27445
G1 X113.47 Y21.071 E8.29934
G1 X114.14 Y21.039 E8.32165
G1 X114.248 Y21.039 E8.32524
G1 X114.995 Y21.079 E8.35012
G1 X115.733 Y21.198 E8.37499
G1 X116.455 Y21.396 E8.39989
G1 X117.151 Y21.669 E8.42475
G1 X117.754 Y21.98 E8.44732
G1 X117.982 Y22.112 E8.45608
G1 X126.301 Y26.913 E8.77554
G1 X126.928 Y27.321 E8.80042
G1 X127.508 Y27.794 E8.82532
G1 X128.034 Y28.326 E8.8502
G1 X128.5 Y28.91 E8.87505
G1 X128.884 Y29.51 E8.89874
G1 X128.937 Y29.603 E8.9023
G1 X129.272 Y30.272 E8.92719
G1 X129.643 Y30.485 E8.94142
G1 X130.266 Y30.9 E8.96631
G1 X131.027 Y31.558 E8.99977
G1 X131.144 Y31.675 E9.00528
G1 X131.644 Y32.232 E9.03017
G1 X132.081 Y32.838 E9.05502
G1 X132.452 Y33.488 E9.07992
G1 X132.751 Y34.174 E9.10481
G1 X132.975 Y34.888 E9.12969
G1 X133.122 Y35.621 E9.15456
G1 X133.194 Y36.625 E9.18804
G1 X133.194 Y39.391 E9.28004
G1 X133.154 Y40.138 E9.30492
G1 X133.035 Y40.876 E9.32978
G1 X132.837 Y41.598 E9.35468
G1 X132.564 Y42.294 E9.37955
G1 X132.217 Y42.957 E9.40444
G1 X131.802 Y43.58 E9.42933
G1 X131.144 Y44.341 E9.46279
G1 X131.027 Y44.458 E9.4683
G1 X130.47 Y44.958 E9.49319
G1 X129.864 Y45.395 E9.51804
G1 X129.271 Y45.734 E9.54076
G1 X129.225 Y45.85 E9.54491
G1 X128.884 Y46.506 E9.5695
G1 X128.479 Y47.135 E9.59438
G1 X128.01 Y47.718 E9.61927
G1 X127.481 Y48.247 E9.64415
G1 X126.898 Y48.716 E9.66904
G1 X126.301 Y49.103 E9.6927
G1 X117.747 Y54.04 E10.02119
G1 X117.08 Y54.378 E10.04607
G1 X116.381 Y54.644 E10.07094
G1 X115.657 Y54.834 E10.09584
G1 X114.917 Y54.945 E10.12072
G1 X114.248 Y54.977 E10.143
G1 X114.14 Y54.977 E10.14659
G1 X113.393 Y54.937 E10.17147
G1 X112.655 Y54.818 E10.19634
G1 X111.933 Y54.62 E10.22124
G1 X111.237 Y54.347 E10.2461
G1 X110.641 Y54.04 E10.2684
G1 X102.088 Y49.103 E10.59687
G1 X101.461 Y48.694 E10.62176
G1 X100.881 Y48.222 E10.64664
G1 X100.355 Y47.69 E10.67152
G1 X99.888 Y47.105 E10.69642
G1 X99.505 Y46.506 E10.72006
G1 X99.452 Y46.413 E10.72362
G1 X99.117 Y45.744 E10.74851
G1 X98.745 Y45.531 E10.76277
G1 X98.122 Y45.116 E10.78766
G1 X97.361 Y44.458 E10.82112
G1 X97.244 Y44.341 E10.82663
G1 X96.744 Y43.784 E10.85152
G1 X96.307 Y43.178 E10.87637
G1 X95.936 Y42.528 E10.90126
G1 X95.637 Y41.842 E10.92615
G1 X95.413 Y41.128 E10.95104
G1 X95.266 Y40.395 E10.97591
G1 X95.194 Y39.391 E11.00939
G1 X95.194 Y36.625 E11.10138
G1 X95.234 Y35.878 E11.12627
G1 X95.353 Y35.14 E11.15113
G1 X95.551 Y34.418 E11.17603
G0 F6000 X95.951 Y34.484
G1 F1200 X96.224 Y33.811 E11.20018
G1 X96.569 Y33.172 E11.22434
G1 X96.983 Y32.575 E11.2485
G1 X97.527 Y31.958 E11.27586
G1 X97.644 Y31.841 E11.28136
G1 X98.185 Y31.357 E11.30551
G1 X98.776 Y30.934 E11.32968
G1 X99.41 Y30.58 E11.35383
G1 X99.564 Y30.255 E11.36579
G1 X99.853 Y29.708 E11.38637
G1 X100.247 Y29.098 E11.41052
G1 X100.705 Y28.534 E11.43469
G1 X101.223 Y28.025 E11.45884
G1 X101.793 Y27.575 E11.483
G1 X102.288 Y27.26 E11.50251
G1 X110.841 Y22.323 E11.83097
G1 X111.489 Y21.995 E11.85513
G1 X112.169 Y21.74 E11.87929
G1 X112.873 Y21.562 E11.90344
G1 X113.592 Y21.462 E11.92758
G1 X114.248 Y21.439 E11.94941
G1 X114.973 Y21.479 E11.97356
G1 X115.69 Y21.598 E11.99774
G1 X116.389 Y21.796 E12.0219
G1 X117.062 Y22.069 E12.04606
G1 X117.554 Y22.327 E12.06453
G1 X117.782 Y22.459 E12.0733
G1 X126.101 Y27.26 E12.39276
G1 X126.709 Y27.657 E12.41691
G1 X127.27 Y28.118 E12.44106
G1 X127.777 Y28.639 E12.46524
G1 X128.223 Y29.212 E12.48939
G1 X128.589 Y29.801 E12.51246
G1 X128.914 Y30.451 E12.53663
G1 X128.96 Y30.575 E12.54103
G1 X129.53 Y30.883 E12.56257
G1 X130.127 Y31.297 E12.58674
G1 X130.744 Y31.841 E12.6141
G1 X130.861 Y31.958 E12.6196
G1 X131.345 Y32.499 E12.64374
G1 X131.768 Y33.09 E12.66792
G1 X132.122 Y33.724 E12.69207
G1 X132.405 Y34.393 E12.71623
G1 X132.613 Y35.089 E12.74039
G1 X132.743 Y35.804 E12.76456
G1 X132.794 Y36.625 E12.79192
G1 X132.794 Y39.391 E12.88392
G1 X132.754 Y40.116 E12.90807
G1 X132.635 Y40.833 E12.93224
G1 X132.437 Y41.532 E12.9564
G1 X132.164 Y42.205 E12.98056
G1 X131.819 Y42.844 E13.00471
G1 X131.405 Y43.441 E13.02888
G1 X130.861 Y44.058 E13.05623
G1 X130.744 Y44.175 E13.06174
G1 X130.203 Y44.659 E13.08588
G1 X129.612 Y45.082 E13.11005
G1 X128.978 Y45.436 E13.13421
G1 X128.825 Y45.761 E13.14615
G1 X128.536 Y46.308 E13.16673
G1 X128.142 Y46.918 E13.19088
G1 X127.684 Y47.482 E13.21505
G1 X127.166 Y47.991 E13.2392
G1 X126.596 Y48.441 E13.26336
G1 X126.101 Y48.756 E13.28287
G1 X117.547 Y53.693 E13.61136
G1 X116.899 Y54.021 E13.63552
G1 X116.219 Y54.276 E13.65967
G1 X115.515 Y54.454 E13.68383
G1 X114.795 Y54.554 E13.708
G1 X114.14 Y54.577 E13.7298
G1 X113.415 Y54.537 E13.75395
G1 X112.698 Y54.418 E13.77813
G1 X111.999 Y54.22 E13.80229
G1 X111.326 Y53.947 E13.82645
G1 X110.841 Y53.693 E13.84466
G1 X102.288 Y48.756 E14.17312
G1 X101.679 Y48.359 E14.1973
G1 X101.119 Y47.897 E14.22145
G1 X100.612 Y47.377 E14.2456
G1 X100.165 Y46.804 E14.26977
G1 X99.8 Y46.215 E14.29282
G1 X99.475 Y45.565 E14.31699
G1 X99.43 Y45.442 E14.32135
G1 X98.858 Y45.133 E14.34297
G1 X98.261 Y44.719 E14.36713
G1 X97.644 Y44.175 E14.39449
G1 X97.527 Y44.058 E14.39999
G1 X97.043 Y43.517 E14.42414
G1 X96.62 Y42.926 E14.44831
G1 X96.266 Y42.292 E14.47246
G1 X95.983 Y41.623 E14.49662
G1 X95.775 Y40.927 E14.52078
G1 X95.645 Y40.212 E14.54495
G1 X95.594 Y39.391 E14.57231
G1 X95.594 Y36.625 E14.66431
G1 X95.634 Y35.9 E14.68846
G1 X95.753 Y35.183 E14.71263
G1 X95.951 Y34.484 E14.7368
G0 F6000 X96.351 Y34.553
G1 F1200 X96.623 Y33.904 E14.7602
G1 X96.968 Y33.29 E14.78363
G1 X97.379 Y32.719 E14.80703
G1 X97.81 Y32.241 E14.82843
G1 X97.927 Y32.124 E14.83394
G1 X98.452 Y31.655 E14.85735
G1 X99.027 Y31.249 E14.88076
G1 X99.645 Y30.911 E14.90419
G1 X99.744 Y30.87 E14.90776
G1 X99.963 Y30.348 E14.92658
G1 X100.2 Y29.906 E14.94326
G1 X100.583 Y29.315 E14.96669
G1 X101.03 Y28.772 E14.99008
G1 X101.536 Y28.282 E15.01351
G1 X102.095 Y27.853 E15.03694
G1 X102.488 Y27.606 E15.05238
G1 X111.041 Y22.669 E15.38085
G1 X111.669 Y22.353 E15.40423
G1 X112.33 Y22.109 E15.42767
G1 X113.014 Y21.942 E15.45108
G1 X113.712 Y21.854 E15.47448
G1 X114.248 Y21.839 E15.49232
G1 X114.951 Y21.879 E15.51574
G1 X115.645 Y21.998 E15.53916
G1 X116.32 Y22.196 E15.56255
G1 X116.969 Y22.468 E15.58596
G1 X117.354 Y22.673 E15.60046
G1 X117.582 Y22.805 E15.60923
G1 X125.901 Y27.606 E15.92869
G1 X126.49 Y27.992 E15.95211
G1 X127.031 Y28.442 E15.97552
G1 X127.518 Y28.951 E15.99895
G1 X127.944 Y29.511 E16.02235
G1 X128.242 Y29.999 E16.04137
G1 X128.555 Y30.63 E16.06479
G1 X128.643 Y30.872 E16.07336
G1 X128.798 Y30.937 E16.07895
G1 X129.412 Y31.282 E16.10237
G1 X129.983 Y31.693 E16.12577
G1 X130.461 Y32.124 E16.14718
G1 X130.578 Y32.241 E16.15268
G1 X131.047 Y32.766 E16.1761
G1 X131.453 Y33.341 E16.19951
G1 X131.791 Y33.959 E16.22294
G1 X132.058 Y34.61 E16.24634
G1 X132.248 Y35.288 E16.26976
G1 X132.361 Y35.983 E16.29318
G1 X132.394 Y36.625 E16.31456
G1 X132.394 Y39.391 E16.40656
G1 X132.354 Y40.094 E16.42998
G1 X132.235 Y40.788 E16.4534
G1 X132.037 Y41.463 E16.47679
G1 X131.765 Y42.112 E16.5002
G1 X131.42 Y42.726 E16.52362
G1 X131.009 Y43.297 E16.54702
G1 X130.578 Y43.775 E16.56843
G1 X130.461 Y43.892 E16.57393
G1 X129.936 Y44.361 E16.59735
G1 X129.361 Y44.767 E16.62076
G1 X128.743 Y45.105 E16.64419
G1 X128.645 Y45.145 E16.64771
G1 X128.426 Y45.668 E16.66657
G1 X128.189 Y46.11 E16.68325
G1 X127.806 Y46.701 E16.70667
G1 X127.359 Y47.244 E16.73006
G1 X126.853 Y47.734 E16.75349
G1 X126.294 Y48.163 E16.77693
G1 X125.901 Y48.41 E16.79237
G1 X117.347 Y53.347 E17.12086
G1 X116.719 Y53.664 E17.14426
G1 X116.058 Y53.907 E17.16768
G1 X115.374 Y54.074 E17.1911
G1 X114.676 Y54.162 E17.2145
G1 X114.14 Y54.177 E17.23233
G1 X113.437 Y54.137 E17.25575
G1 X112.743 Y54.018 E17.27917
G1 X112.068 Y53.82 E17.30257
G1 X111.419 Y53.548 E17.32597
G1 X111.041 Y53.347 E17.34021
G1 X102.488 Y48.41 E17.66868
G1 X101.899 Y48.024 E17.6921
G1 X101.358 Y47.573 E17.71552
G1 X100.871 Y47.065 E17.73893
G1 X100.445 Y46.504 E17.76236
G1 X100.147 Y46.017 E17.78135
G1 X99.834 Y45.386 E17.80478
G1 X99.746 Y45.145 E17.81331
G1 X99.59 Y45.079 E17.81894
G1 X98.976 Y44.734 E17.84237
G1 X98.405 Y44.323 E17.86577
G1 X97.927 Y43.892 E17.88717
G1 X97.81 Y43.775 E17.89268
G1 X97.341 Y43.25 E17.91609
G1 X96.935 Y42.675 E17.9395
G1 X96.597 Y42.057 E17.96293
G1 X96.33 Y41.406 E17.98633
G1 X96.14 Y40.728 E18.00975
G1 X96.027 Y40.033 E18.03317
G1 X95.994 Y39.391 E18.05455
G1 X95.994 Y36.625 E18.14655
G1 X96.034 Y35.922 E18.16997
G1 X96.153 Y35.228 E18.19339
G1 X96.351 Y34.553 E18.21679
G0 F6000 X96.75 Y34.623
G1 F1200 X97.022 Y33.999 E18.23943
G1 X97.366 Y33.411 E18.26209
G1 X97.776 Y32.867 E18.28474
