;FLAVOR:Marlin
;TIME:1903
;Filament used: 0.931903m
;Layer height: 0.2
;MINX:97.6
;MINY:17.334
;MINZ:0.2
;MAXX:137.561
;MAXY:115.803
;MAXZ:10.2
;Generated with Cura_SteamEngine 4.5.0
M140 S60
M105
M190 S60
M104 S190
M105
M109 S190
M82 ;absolute extrusion mode
M201 X500.00 Y500.00 Z100.00 E5000.00 ;Setup machine max acceleration
M203 X500.00 Y500.00 Z10.00 E50.00 ;Setup machine max feedrate
M204 P500.00 R1000.00 T500.00 ;Setup Print/Retract/Travel acceleration
M205 X8.00 Y8.00 Z0.40 E5.00 ;Setup Jerk
M220 S100 ;Reset Feedrate
M221 S100 ;Reset Flowrate

G28 ;Home
M420 S1 Z2 ;Enable ABL using saved Mesh and Fade Height
G29     ;autobedlevel
G92 E0 ;Reset Extruder
G1 Z2.0 F3000 ;Move Z Axis up
G1 X10.1 Y20 Z0.28 F5000.0 ;Move to start position
G1 X10.1 Y200.0 Z0.28 F1500.0 E15 ;Draw the first line
G1 X10.4 Y200.0 Z0.28 F5000.0 ;Move to side a little
G1 X10.4 Y20 Z0.28 F1500.0 E30 ;Draw the second line
G92 E0 ;Reset Extruder
G92 E0
G92 E0
G1 F1500 E-6.5
;LAYER_COUNT:51
;LAYER:0
M107
G0 F6000 X98.397 Y27.075 Z0.2
;TYPE:SKIRT
G1 F1500 E0
G1 F1200 X98.717 Y26.175 E0.03177
G1 X99.002 Y25.506 E0.05596
G1 X99.348 Y24.796 E0.08223
G1 X99.764 Y24.125 E0.10848
G1 X100.135 Y23.642 E0.12874
G1 X100.177 Y23.542 E0.13235
G1 X100.553 Y22.848 E0.1586
G1 X100.94 Y22.272 E0.18168
G1 X101.133 Y22.011 E0.19248
G1 X101.634 Y21.401 E0.21873
G1 X102.195 Y20.844 E0.24503
G1 X102.861 Y20.31 E0.27342
G1 X103.027 Y20.191 E0.28021
G1 X103.444 Y19.911 E0.29692
G1 X104.311 Y19.37 E0.33091
G1 X104.469 Y19.26 E0.33731
G1 X105.139 Y18.841 E0.36359
G1 X105.847 Y18.492 E0.38985
G1 X106.459 Y18.258 E0.41164
G1 X106.832 Y18.133 E0.42472
G1 X107.592 Y17.921 E0.45097
G1 X108.268 Y17.799 E0.47381
G1 X108.906 Y17.713 E0.49523
G1 X109.693 Y17.647 E0.52149
G1 X110.483 Y17.661 E0.54777
G1 X111.627 Y17.826 E0.58622
G1 X113.197 Y18.172 E0.63969
G1 X113.958 Y18.381 E0.66594
G1 X114.695 Y18.665 E0.69221
G1 X115.454 Y19.071 E0.72084
G1 X116.054 Y19.348 E0.74282
G1 X116.733 Y19.751 E0.76908
G1 X116.973 Y19.932 E0.77908
G1 X117.06 Y19.869 E0.78265
G1 X117.466 Y19.597 E0.7989
G1 X118.342 Y19.048 E0.83329
G1 X118.553 Y18.904 E0.84178
G1 X119.227 Y18.492 E0.86806
G1 X119.938 Y18.15 E0.8943
G1 X120.478 Y17.946 E0.9135
G1 X120.839 Y17.825 E0.92616
G1 X121.6 Y17.613 E0.95244
G1 X122.291 Y17.489 E0.97579
G1 X122.976 Y17.398 E0.99877
G1 X123.763 Y17.334 E1.02503
G1 X124.552 Y17.349 E1.05128
G1 X125.336 Y17.445 E1.07755
G1 X125.726 Y17.523 E1.09078
G1 X126.821 Y17.771 E1.12812
G1 X127.581 Y17.984 E1.15437
G1 X128.135 Y18.193 E1.17406
G1 X129.512 Y18.775 E1.22379
G1 X130.223 Y19.119 E1.25006
G1 X130.895 Y19.533 E1.27631
G1 X131.61 Y20.089 E1.30643
G1 X132.782 Y21.114 E1.35822
G1 X133.349 Y21.663 E1.38447
G1 X133.858 Y22.267 E1.41074
G1 X134.185 Y22.75 E1.43014
G1 X134.639 Y23.372 E1.45575
G1 X135.038 Y24.053 E1.48201
G1 X135.366 Y24.771 E1.50826
G1 X135.659 Y25.66 E1.53939
G1 X135.787 Y26.145 E1.55608
G1 X135.873 Y26.505 E1.56839
G1 X135.954 Y26.884 E1.58128
G1 X136.097 Y27.837 E1.61333
G1 X136.135 Y28.273 E1.62788
G1 X136.151 Y29.406 E1.66557
G1 X136.07 Y30.79 E1.71168
G1 X135.984 Y31.575 E1.73795
G1 X135.819 Y32.347 E1.76421
G1 X135.577 Y33.099 E1.79048
G1 X135.26 Y33.822 E1.81674
G1 X134.871 Y34.509 E1.843
G1 X134.186 Y35.432 E1.88123
G1 X133.633 Y36.072 E1.90936
G1 X133.306 Y36.546 E1.92851
G1 X132.825 Y37.172 E1.95477
G1 X132.003 Y38.003 E1.99364
G1 X131.858 Y38.129 E2.00003
G1 X131.237 Y38.616 E2.02628
G1 X130.569 Y39.038 E2.05256
G1 X129.967 Y39.343 E2.07501
G1 X128.786 Y39.876 E2.1181
G1 X128.154 Y40.143 E2.14092
G1 X127.412 Y40.413 E2.16718
G1 X126.647 Y40.607 E2.19343
G1 X126.252 Y40.675 E2.20676
G1 X125.673 Y40.76 E2.22623
G1 X124.887 Y40.835 E2.25249
G1 X124.097 Y40.83 E2.27877
G1 X123.312 Y40.746 E2.30502
G1 X122.828 Y40.653 E2.32142
G1 X121.984 Y40.463 E2.35019
G1 X121.835 Y40.436 E2.35523
G1 X120.934 Y40.216 E2.38607
G1 X120.597 Y40.117 E2.39776
G1 X119.695 Y39.802 E2.42953
G1 X119.421 Y39.687 E2.43942
G1 X118.936 Y39.464 E2.45717
G1 X118.576 Y39.283 E2.47057
G1 X118.073 Y39.006 E2.48967
G1 X117.569 Y38.694 E2.50939
G1 X117.009 Y39.091 E2.53222
G1 X116.022 Y39.624 E2.56953
G1 X114.761 Y40.187 E2.61546
G1 X114.078 Y40.468 E2.64002
G1 X113.333 Y40.731 E2.6663
G1 X112.353 Y40.955 E2.69974
G1 X111.746 Y41.053 E2.72019
G1 X110.961 Y41.14 E2.74646
G1 X110.172 Y41.146 E2.7727
G1 X109.385 Y41.073 E2.79899
G1 X108.762 Y40.956 E2.82007
G1 X107.962 Y40.773 E2.84737
G1 X107.791 Y40.741 E2.85315
G1 X106.962 Y40.539 E2.88153
G1 X106.55 Y40.417 E2.89582
G1 X105.737 Y40.134 E2.92445
G1 X105.46 Y40.02 E2.93442
G1 X104.926 Y39.776 E2.95394
G1 X104.556 Y39.59 E2.96772
G1 X103.701 Y39.09 E3.00066
G1 X103.462 Y38.929 E3.01025
G1 X102.669 Y38.407 E3.04182
G1 X102.032 Y37.94 E3.06809
G1 X101.446 Y37.411 E3.09435
G1 X100.917 Y36.825 E3.12061
G1 X100.632 Y36.454 E3.13617
G1 X100.012 Y35.594 E3.17143
G1 X99.412 Y34.618 E3.20954
G1 X99.16 Y34.131 E3.22777
G1 X98.77 Y33.248 E3.25988
G1 X98.657 Y32.942 E3.27073
G1 X98.369 Y31.972 E3.30438
G1 X98.31 Y31.713 E3.31322
G1 X98.173 Y30.927 E3.33975
G1 X98.14 Y30.657 E3.3488
G1 X98.091 Y30.084 E3.36793
G1 X98.081 Y29.875 E3.37489
G1 X98.095 Y28.897 E3.40742
G1 X98.116 Y28.627 E3.41643
G1 X98.217 Y27.844 E3.44269
G1 X98.397 Y27.075 E3.46895
G0 F6000 X98.793 Y27.147
G1 F1200 X99.085 Y26.332 E3.49775
G1 X99.37 Y25.663 E3.52193
G1 X99.708 Y24.972 E3.54752
G1 X100.116 Y24.32 E3.5731
G1 X100.475 Y23.859 E3.59253
G1 X100.768 Y23.271 E3.61439
G1 X101.262 Y22.51 E3.64456
G1 X101.455 Y22.249 E3.65536
G1 X101.944 Y21.655 E3.68095
G1 X102.492 Y21.116 E3.70651
G1 X103.094 Y20.635 E3.73214
G1 X103.26 Y20.516 E3.73894
G1 X103.655 Y20.251 E3.75476
G1 X104.53 Y19.705 E3.78906
G1 X104.698 Y19.588 E3.79587
G1 X105.351 Y19.181 E3.82146
G1 X106.042 Y18.844 E3.84703
G1 X106.586 Y18.638 E3.86638
G1 X106.959 Y18.513 E3.87946
G1 X107.7 Y18.306 E3.90505
G1 X108.321 Y18.195 E3.92603
G1 X108.959 Y18.109 E3.94745
G1 X109.726 Y18.046 E3.97304
G1 X110.495 Y18.063 E3.99863
G1 X111.541 Y18.216 E4.03379
G1 X113.111 Y18.562 E4.08726
G1 X113.852 Y18.767 E4.11283
G1 X114.568 Y19.047 E4.1384
G1 X115.281 Y19.431 E4.16533
G1 X115.885 Y19.712 E4.18749
G1 X116.546 Y20.106 E4.21309
G1 X116.975 Y20.432 E4.23101
G1 X117.095 Y20.336 E4.23612
G1 X117.293 Y20.194 E4.24422
G1 X117.678 Y19.936 E4.25964
G1 X118.564 Y19.381 E4.29441
G1 X118.779 Y19.234 E4.30307
G1 X119.436 Y18.834 E4.32865
G1 X120.13 Y18.503 E4.35423
G1 X120.605 Y18.326 E4.37109
G1 X120.966 Y18.205 E4.38375
G1 X121.707 Y17.998 E4.40934
G1 X122.343 Y17.885 E4.43083
G1 X123.028 Y17.794 E4.45381
G1 X123.795 Y17.733 E4.4794
G1 X124.564 Y17.751 E4.50498
G1 X125.638 Y17.913 E4.54111
G1 X126.733 Y18.161 E4.57845
G1 X127.473 Y18.369 E4.60402
G1 X127.979 Y18.562 E4.62203
G1 X129.356 Y19.144 E4.67175
G1 X130.048 Y19.48 E4.69734
G1 X130.701 Y19.886 E4.72291
G1 X131.347 Y20.39 E4.75016
G1 X132.519 Y21.415 E4.80195
G1 X133.07 Y21.951 E4.82752
G1 X133.564 Y22.541 E4.85311
G1 X133.871 Y22.999 E4.87145
G1 X134.315 Y23.608 E4.89652
G1 X134.701 Y24.273 E4.92209
G1 X135.016 Y24.975 E4.94768
G1 X135.272 Y25.762 E4.97521
G1 X135.4 Y26.247 E4.99189
G1 X135.482 Y26.588 E5.00356
G1 X135.563 Y26.967 E5.01645
G1 X135.698 Y27.871 E5.04685
G1 X135.736 Y28.307 E5.0614
G1 X135.751 Y29.382 E5.09716
G1 X135.67 Y30.766 E5.14327
G1 X135.586 Y31.531 E5.16887
G1 X135.422 Y32.282 E5.19444
G1 X135.181 Y33.013 E5.22004
G1 X134.866 Y33.714 E5.2456
G1 X134.479 Y34.379 E5.27119
G1 X133.883 Y35.171 E5.30416
G1 X133.317 Y35.826 E5.33295
G1 X132.977 Y36.319 E5.35287
G1 X132.508 Y36.928 E5.37843
G1 X131.741 Y37.701 E5.41465
G1 X131.596 Y37.827 E5.42104
G1 X130.99 Y38.3 E5.44661
G1 X130.338 Y38.709 E5.47221
G1 X129.802 Y38.979 E5.49217
G1 X128.631 Y39.508 E5.53491
G1 X127.999 Y39.775 E5.55773
G1 X127.276 Y40.037 E5.5833
G1 X126.194 Y40.28 E5.62019
G1 X125.615 Y40.365 E5.63965
G1 X124.849 Y40.437 E5.66524
G1 X124.08 Y40.429 E5.69082
G1 X123.316 Y40.341 E5.7164
G1 X122.915 Y40.262 E5.72999
G1 X122.092 Y40.077 E5.75805
G1 X121.906 Y40.043 E5.76434
G1 X121.052 Y39.834 E5.79358
G1 X120.881 Y39.781 E5.79953
G1 X120.706 Y39.732 E5.80558
G1 X119.85 Y39.433 E5.83574
G1 X119.576 Y39.318 E5.84562
G1 X119.116 Y39.106 E5.86247
G1 X118.756 Y38.925 E5.87587
G1 X118.278 Y38.663 E5.894
G1 X117.893 Y38.427 E5.90902
G1 X117.557 Y38.207 E5.92237
G1 X117.358 Y38.357 E5.93066
G1 X116.727 Y38.796 E5.95623
G1 X115.857 Y39.259 E5.98901
G1 X114.609 Y39.817 E6.03448
G1 X113.926 Y40.098 E6.05904
G1 X113.2 Y40.354 E6.08465
G1 X112.289 Y40.56 E6.11571
G1 X111.682 Y40.658 E6.13616
G1 X110.918 Y40.741 E6.16172
G1 X110.149 Y40.745 E6.1873
G1 X109.383 Y40.668 E6.2129
G1 X108.852 Y40.566 E6.23089
G1 X108.056 Y40.384 E6.25805
G1 X107.864 Y40.348 E6.26454
G1 X107.077 Y40.156 E6.29149
G1 X106.661 Y40.033 E6.30592
G1 X105.89 Y39.764 E6.33308
G1 X105.613 Y39.65 E6.34304
G1 X105.105 Y39.419 E6.3616
G1 X104.735 Y39.233 E6.37537
G1 X103.925 Y38.758 E6.4066
G1 X103.75 Y38.64 E6.41362
G1 X102.889 Y38.073 E6.44791
G1 X102.27 Y37.617 E6.47348
G1 X101.701 Y37.1 E6.49905
G1 X100.956 Y36.221 E6.53738
G1 X100.336 Y35.361 E6.57264
G1 X99.767 Y34.434 E6.60882
G1 X99.515 Y33.947 E6.62706
G1 X99.145 Y33.109 E6.65752
G1 X99.032 Y32.803 E6.66837
G1 X98.759 Y31.884 E6.70026
G1 X98.7 Y31.625 E6.70909
G1 X98.57 Y30.879 E6.73428
G1 X98.537 Y30.609 E6.74333
G1 X98.49 Y30.065 E6.76149
G1 X98.48 Y29.856 E6.76845
G1 X98.494 Y28.928 E6.79932
G1 X98.515 Y28.658 E6.80832
G1 X98.615 Y27.895 E6.83392
G1 X98.793 Y27.147 E6.85949
G0 F6000 X99.188 Y27.221
G1 F1200 X99.453 Y26.489 E6.88538
G1 X99.738 Y25.82 E6.90957
G1 X100.068 Y25.148 E6.93447
G1 X100.467 Y24.515 E6.95936
G1 X100.832 Y24.054 E6.97891
G1 X101.004 Y23.675 E6.99276
G1 X101.584 Y22.748 E7.02913
G1 X101.777 Y22.487 E7.03992
G1 X102.253 Y21.91 E7.0648
G1 X102.788 Y21.387 E7.08969
G1 X103.327 Y20.96 E7.11256
G1 X103.493 Y20.841 E7.11935
G1 X103.867 Y20.59 E7.13433
G1 X104.763 Y20.031 E7.16946
G1 X104.928 Y19.916 E7.17615
G1 X105.563 Y19.521 E7.20102
G1 X106.237 Y19.196 E7.22591
G1 X106.713 Y19.017 E7.24282
G1 X107.086 Y18.892 E7.2559
G1 X107.807 Y18.692 E7.28079
G1 X108.375 Y18.592 E7.29997
G1 X109.013 Y18.506 E7.32139
G1 X109.759 Y18.446 E7.34628
G1 X110.506 Y18.465 E7.37113
G1 X111.455 Y18.607 E7.40305
G1 X113.025 Y18.953 E7.45652
G1 X113.745 Y19.153 E7.48137
G1 X114.441 Y19.428 E7.50626
G1 X115.121 Y19.797 E7.53199
G1 X115.717 Y20.075 E7.55387
G1 X116.357 Y20.461 E7.57873
G1 X116.981 Y20.938 E7.60485
G1 X117.328 Y20.661 E7.61962
G1 X117.526 Y20.519 E7.62772
G1 X117.89 Y20.275 E7.6423
G1 X118.786 Y19.714 E7.67746
G1 X119.005 Y19.564 E7.68629
G1 X119.644 Y19.176 E7.71115
G1 X120.321 Y18.857 E7.73604
G1 X120.732 Y18.705 E7.75062
G1 X121.093 Y18.584 E7.76328
G1 X121.814 Y18.384 E7.78817
G1 X122.396 Y18.282 E7.80782
G1 X123.081 Y18.191 E7.8308
G1 X123.827 Y18.132 E7.85569
G1 X124.575 Y18.153 E7.88058
G1 X125.549 Y18.303 E7.91336
G1 X126.644 Y18.551 E7.9507
G1 X127.364 Y18.755 E7.97559
G1 X127.823 Y18.93 E7.99193
G1 X129.2 Y19.512 E8.04165
G1 X129.873 Y19.84 E8.06655
G1 X130.506 Y20.237 E8.0914
G1 X131.083 Y20.691 E8.11582
G1 X132.255 Y21.716 E8.16761
G1 X132.791 Y22.238 E8.19249
G1 X133.268 Y22.814 E8.21737
G1 X133.55 Y23.235 E8.23422
G1 X133.992 Y23.843 E8.25922
G1 X134.364 Y24.492 E8.2841
G1 X134.666 Y25.177 E8.309
G1 X134.885 Y25.864 E8.33298
G1 X135.013 Y26.349 E8.34967
G1 X135.09 Y26.672 E8.36071
G1 X135.171 Y27.051 E8.3736
G1 X135.3 Y27.906 E8.40236
G1 X135.338 Y28.342 E8.41692
G1 X135.352 Y29.359 E8.45075
G1 X135.271 Y30.743 E8.49686
G1 X135.187 Y31.486 E8.52173
G1 X135.025 Y32.217 E8.54663
G1 X134.786 Y32.925 E8.57148
G1 X134.472 Y33.604 E8.59636
G1 X134.088 Y34.246 E8.62125
G1 X133.581 Y34.909 E8.64901
G1 X132.998 Y35.584 E8.67867
G1 X132.648 Y36.091 E8.69916
G1 X132.191 Y36.683 E8.72404
G1 X131.478 Y37.399 E8.75764
G1 X131.333 Y37.525 E8.76403
G1 X130.743 Y37.985 E8.78892
G1 X130.108 Y38.379 E8.81377
G1 X129.636 Y38.615 E8.83132
G1 X128.475 Y39.139 E8.87369
G1 X127.843 Y39.406 E8.89651
G1 X127.139 Y39.66 E8.9214
G1 X126.136 Y39.884 E8.95558
G1 X125.557 Y39.969 E8.97505
G1 X124.812 Y40.038 E8.99993
G1 X124.064 Y40.027 E9.02481
G1 X123.003 Y39.872 E9.06048
G1 X122.155 Y39.681 E9.08939
G1 X121.978 Y39.649 E9.09537
G1 X121.17 Y39.452 E9.12303
G1 X120.814 Y39.347 E9.13538
G1 X120.005 Y39.065 E9.16387
G1 X119.731 Y38.95 E9.17375
G1 X119.296 Y38.749 E9.18969
G1 X118.936 Y38.568 E9.20309
G1 X118.484 Y38.32 E9.22024
G1 X118.11 Y38.091 E9.23483
G1 X117.781 Y37.877 E9.24788
G1 X117.514 Y37.695 E9.25863
G1 X117.064 Y38.078 E9.27828
G1 X116.445 Y38.499 E9.30318
G1 X115.693 Y38.895 E9.33145
G1 X114.456 Y39.448 E9.37652
G1 X113.773 Y39.729 E9.40108
G1 X113.067 Y39.976 E9.42596
G1 X112.226 Y40.166 E9.45463
G1 X111.619 Y40.264 E9.47509
G1 X110.875 Y40.343 E9.49997
G1 X110.127 Y40.343 E9.52485
G1 X109.383 Y40.263 E9.54974
G1 X108.941 Y40.176 E9.56472
G1 X108.14 Y39.993 E9.59205
G1 X107.938 Y39.955 E9.59888
G1 X107.193 Y39.773 E9.62439
G1 X106.772 Y39.648 E9.639
G1 X106.042 Y39.394 E9.66471
G1 X105.765 Y39.28 E9.67467
G1 X105.285 Y39.061 E9.69222
G1 X104.915 Y38.875 E9.70599
G1 X104.148 Y38.427 E9.73553
G1 X103.909 Y38.266 E9.74512
G1 X103.109 Y37.739 E9.77698
G1 X102.507 Y37.295 E9.80186
G1 X101.956 Y36.789 E9.82674
G1 X101.281 Y35.987 E9.86161
G1 X100.661 Y35.127 E9.89687
G1 X100.122 Y34.25 E9.93111
G1 X99.87 Y33.763 E9.94934
G1 X99.52 Y32.971 E9.97814
G1 X99.407 Y32.665 E9.98899
G1 X99.149 Y31.795 E10.01917
G1 X99.09 Y31.536 E10.02801
G1 X98.967 Y30.83 E10.05185
G1 X98.934 Y30.56 E10.06089
G1 X98.89 Y30.046 E10.07805
G1 X98.88 Y29.837 E10.08501
G1 X98.893 Y28.959 E10.11422
G1 X98.914 Y28.689 E10.12322
G1 X99.012 Y27.948 E10.14808
G1 X99.188 Y27.221 E10.17296
G0 F6000 X99.584 Y27.295
G1 F1200 X99.821 Y26.645 E10.19597
G1 X100.106 Y25.976 E10.22016
G1 X100.427 Y25.325 E10.2443
G1 X100.818 Y24.712 E10.26848
G1 X101.171 Y24.274 E10.28719
G1 X101.26 Y24.058 E10.29496
G1 X101.61 Y23.421 E10.31914
G1 X101.905 Y22.986 E10.33662
G1 X102.098 Y22.725 E10.34742
G1 X102.562 Y22.165 E10.3716
G1 X103.084 Y21.66 E10.39576
G1 X103.56 Y21.285 E10.41592
G1 X103.726 Y21.166 E10.42271
G1 X104.079 Y20.93 E10.43683
G1 X104.973 Y20.372 E10.47188
G1 X105.157 Y20.244 E10.47934
G1 X105.774 Y19.861 E10.50349
G1 X106.43 Y19.549 E10.52765
G1 X106.84 Y19.396 E10.54221
G1 X107.213 Y19.271 E10.55529
G1 X107.913 Y19.078 E10.57944
G1 X108.428 Y18.988 E10.59683
G1 X109.066 Y18.902 E10.61824
G1 X109.79 Y18.845 E10.6424
G1 X110.516 Y18.868 E10.66656
G1 X111.368 Y18.998 E10.69522
G1 X112.938 Y19.344 E10.74869
G1 X113.638 Y19.539 E10.77286
G1 X114.312 Y19.81 E10.79702
G1 X114.964 Y20.166 E10.82173
G1 X115.547 Y20.438 E10.84313
G1 X116.167 Y20.816 E10.86728
G1 X116.725 Y21.246 E10.89071
G1 X116.979 Y21.464 E10.90184
G1 X117.067 Y21.378 E10.90594
G1 X117.562 Y20.986 E10.92694
G1 X117.76 Y20.844 E10.93504
G1 X118.103 Y20.614 E10.94878
G1 X119.016 Y20.042 E10.98461
G1 X119.231 Y19.895 E10.99327
G1 X119.852 Y19.518 E11.01744
G1 X120.511 Y19.212 E11.0416
G1 X120.859 Y19.084 E11.05394
G1 X121.22 Y18.963 E11.0666
G1 X121.921 Y18.771 E11.09077
G1 X122.449 Y18.678 E11.1086
G1 X123.134 Y18.587 E11.13159
G1 X123.858 Y18.532 E11.15574
G1 X124.584 Y18.556 E11.1799
G1 X125.461 Y18.693 E11.20942
G1 X126.556 Y18.941 E11.24676
G1 X127.254 Y19.14 E11.2709
G1 X127.667 Y19.299 E11.28562
G1 X129.044 Y19.881 E11.33534
G1 X129.697 Y20.2 E11.35952
G1 X130.31 Y20.589 E11.38366
G1 X130.82 Y20.992 E11.40528
G1 X131.992 Y22.017 E11.45707
G1 X132.512 Y22.524 E11.48122
G1 X132.972 Y23.086 E11.50538
G1 X133.234 Y23.482 E11.52117
G1 X133.667 Y24.079 E11.5457
G1 X134.026 Y24.71 E11.56985
G1 X134.313 Y25.377 E11.594
G1 X134.498 Y25.966 E11.61453
G1 X134.626 Y26.451 E11.63122
G1 X134.699 Y26.756 E11.64165
G1 X134.78 Y27.135 E11.65454
G1 X134.901 Y27.941 E11.68165
G1 X134.939 Y28.377 E11.6962
G1 X134.953 Y29.336 E11.7281
G1 X134.872 Y30.72 E11.77421
G1 X134.789 Y31.441 E11.79835
G1 X134.628 Y32.15 E11.82253
G1 X134.39 Y32.836 E11.84668
G1 X134.079 Y33.492 E11.87083
G1 X133.696 Y34.11 E11.89501
G1 X133.278 Y34.648 E11.91767
G1 X132.683 Y35.337 E11.94795
G1 X132.319 Y35.864 E11.96925
G1 X131.874 Y36.438 E11.99341
G1 X131.216 Y37.097 E12.02438
