;FLAVOR:Marlin
;TIME:4879
;Filament used: 4.0313m
;Layer height: 0.2
;MINX:93.713
;MINY:25.921
;MINZ:0.2
;MAXX:129.248
;MAXY:102.722
;MAXZ:16.4
;Generated with Cura_SteamEngine 4.5.0
M140 S60
M105
M190 S60
M104 S190
M105
M109 S190
M82 ;absolute extrusion mode
M201 X500.00 Y500.00 Z100.00 E5000.00 ;Setup machine max acceleration
M203 X500.00 Y500.00 Z10.00 E50.00 ;Setup machine max feedrate
M204 P500.00 R1000.00 T500.00 ;Setup Print/Retract/Travel acceleration
M205 X8.00 Y8.00 Z0.40 E5.00 ;Setup Jerk
M220 S100 ;Reset Feedrate
M221 S100 ;Reset Flowrate

G28 ;Home
M420 S1 Z2 ;Enable ABL using saved Mesh and Fade Height
G29     ;autobedlevel
G92 E0 ;Reset Extruder
G1 Z2.0 F3000 ;Move Z Axis up
G1 X10.1 Y20 Z0.28 F5000.0 ;Move to start position
G1 X10.1 Y200.0 Z0.28 F1500.0 E15 ;Draw the first line
G1 X10.4 Y200.0 Z0.28 F5000.0 ;Move to side a little
G1 X10.4 Y20 Z0.28 F1500.0 E30 ;Draw the second line
G92 E0 ;Reset Extruder
G92 E0
G92 E0
G1 F1500 E-6.5
;LAYER_COUNT:82
;LAYER:0
M107
G0 F6000 X94.344 Y34.807 Z0.2
;TYPE:SKIRT
G1 F1500 E0
G1 F1200 X94.692 Y34.098 E0.02627
G1 X95.197 Y33.304 E0.05757
G1 X98.18 Y29.187 E0.22666
G1 X98.675 Y28.572 E0.25292
G1 X99.23 Y28.01 E0.27919
G1 X99.838 Y27.507 E0.30544
G1 X100.495 Y27.068 E0.33172
G1 X101.06 Y26.761 E0.35311
G1 X101.782 Y26.441 E0.37937
G1 X102.532 Y26.195 E0.40563
G1 X103.304 Y26.026 E0.43191
G1 X104.088 Y25.937 E0.45815
G1 X104.581 Y25.921 E0.47456
G1 X118.647 Y25.921 E0.9424
G1 X119.436 Y25.961 E0.96867
G1 X120.216 Y26.08 E0.99492
G1 X120.981 Y26.278 E1.0212
G1 X121.721 Y26.552 E1.04744
G1 X122.43 Y26.9 E1.07371
G1 X123.101 Y27.318 E1.10001
G1 X123.725 Y27.801 E1.12625
G1 X124.298 Y28.344 E1.15251
G1 X124.813 Y28.943 E1.17878
G1 X125.095 Y29.331 E1.19473
G1 X127.868 Y33.404 E1.35862
G1 X128.278 Y34.079 E1.38489
G1 X128.619 Y34.791 E1.41114
G1 X128.886 Y35.535 E1.43743
G1 X129.109 Y36.484 E1.46986
G1 X129.14 Y36.666 E1.476
G1 X129.233 Y37.45 E1.50226
G1 X129.248 Y38.176 E1.52641
G1 X127.877 Y91.649 E3.30551
G1 X127.817 Y92.436 E3.33176
G1 X127.678 Y93.214 E3.35805
G1 X127.46 Y93.973 E3.38432
G1 X127.167 Y94.706 E3.41057
G1 X126.802 Y95.406 E3.43683
G1 X126.195 Y96.291 E3.47252
G1 X123.476 Y99.725 E3.6182
G1 X122.955 Y100.318 E3.64446
G1 X122.377 Y100.856 E3.67072
G1 X121.747 Y101.333 E3.697
G1 X121.073 Y101.743 E3.72324
G1 X120.629 Y101.966 E3.73977
G1 X119.9 Y102.269 E3.76603
G1 X119.144 Y102.496 E3.79228
G1 X118.368 Y102.646 E3.81857
G1 X117.279 Y102.722 E3.85488
G1 X105 Y102.722 E4.26328
G1 X104.211 Y102.682 E4.28955
G1 X103.431 Y102.563 E4.3158
G1 X102.666 Y102.365 E4.34208
G1 X101.616 Y101.95 E4.37963
G1 X101.535 Y101.911 E4.38262
G1 X100.842 Y101.533 E4.40888
G1 X100.191 Y101.086 E4.43514
G1 X99.588 Y100.576 E4.46141
G1 X98.926 Y99.876 E4.49345
G1 X95.561 Y95.837 E4.6683
G1 X95.087 Y95.205 E4.69458
G1 X94.679 Y94.529 E4.72084
G1 X94.342 Y93.815 E4.7471
G1 X94.119 Y93.202 E4.7688
G1 X94.08 Y93.079 E4.77309
G1 X93.88 Y92.315 E4.79936
G1 X93.758 Y91.534 E4.82565
G1 X93.715 Y90.721 E4.85273
G1 X93.713 Y37.881 E6.61019
G1 X93.753 Y37.093 E6.63643
G1 X93.872 Y36.312 E6.66271
G1 X94.07 Y35.548 E6.68896
G1 X94.344 Y34.807 E6.71524
G0 F6000 X94.744 Y34.891
G1 F1200 X95.091 Y34.205 E6.74081
G1 X95.521 Y33.539 E6.76717
G1 X98.504 Y29.422 E6.93627
G1 X98.987 Y28.824 E6.96184
G1 X99.529 Y28.278 E6.98743
G1 X100.125 Y27.793 E7.01298
G1 X100.769 Y27.371 E7.03859
G1 X101.241 Y27.118 E7.0564
G1 X101.944 Y26.807 E7.08197
G1 X102.676 Y26.57 E7.10756
G1 X103.428 Y26.411 E7.13313
G1 X104.193 Y26.331 E7.15871
G1 X104.581 Y26.321 E7.17162
G1 X118.647 Y26.321 E7.63946
G1 X119.415 Y26.361 E7.66503
G1 X120.175 Y26.48 E7.69062
G1 X120.918 Y26.678 E7.71619
G1 X121.637 Y26.952 E7.74179
G1 X122.323 Y27.299 E7.76736
G1 X122.97 Y27.715 E7.79294
G1 X123.57 Y28.196 E7.81852
G1 X124.117 Y28.737 E7.8441
G1 X124.764 Y29.556 E7.87882
G1 X127.537 Y33.629 E8.0427
G1 X127.936 Y34.287 E8.0683
G1 X128.265 Y34.982 E8.09387
G1 X128.52 Y35.708 E8.11947
G1 X128.715 Y36.551 E8.14824
G1 X128.746 Y36.733 E8.15439
G1 X128.836 Y37.497 E8.17997
G1 X128.849 Y38.166 E8.20223
G1 X127.478 Y91.639 E9.98133
G1 X127.418 Y92.406 E10.00692
G1 X127.279 Y93.162 E10.03249
G1 X127.062 Y93.9 E10.05807
G1 X126.77 Y94.612 E10.08367
G1 X126.406 Y95.289 E10.10923
G1 X125.882 Y96.043 E10.13977
G1 X123.163 Y99.477 E10.28545
G1 X122.654 Y100.054 E10.31104
G1 X122.089 Y100.576 E10.33663
G1 X121.473 Y101.036 E10.3622
G1 X120.539 Y101.566 E10.39792
G1 X120.457 Y101.605 E10.40094
G1 X119.747 Y101.898 E10.42648
G1 X119.009 Y102.117 E10.45209
G1 X118.253 Y102.258 E10.47767
G1 X117.279 Y102.322 E10.51013
G1 X105 Y102.322 E10.91853
G1 X104.232 Y102.282 E10.94411
G1 X103.472 Y102.163 E10.9697
G1 X102.729 Y101.965 E10.99527
G1 X101.79 Y101.589 E11.02891
G1 X101.709 Y101.55 E11.0319
G1 X101.034 Y101.181 E11.05749
G1 X100.401 Y100.744 E11.08307
G1 X99.817 Y100.243 E11.10867
G1 X99.234 Y99.62 E11.13704
G1 X95.869 Y95.581 E11.31189
G1 X95.408 Y94.965 E11.33749
G1 X95.013 Y94.305 E11.36307
G1 X94.689 Y93.607 E11.38866
G1 X94.461 Y92.958 E11.41154
G1 X94.267 Y92.213 E11.43715
G1 X94.151 Y91.453 E11.46272
G1 X94.115 Y90.721 E11.48709
G1 X94.113 Y37.881 E13.24456
G1 X94.153 Y37.113 E13.27014
G1 X94.272 Y36.353 E13.29572
G1 X94.47 Y35.61 E13.3213
G1 X94.744 Y34.891 E13.34689
G0 F6000 X95.143 Y34.978
G1 F1200 X95.49 Y34.315 E13.37178
G1 X95.845 Y33.774 E13.3933
G1 X98.828 Y29.657 E13.5624
G1 X99.298 Y29.075 E13.58728
G1 X99.828 Y28.548 E13.61214
G1 X100.412 Y28.079 E13.63705
G1 X101.336 Y27.518 E13.673
G1 X101.421 Y27.475 E13.67617
G1 X102.106 Y27.173 E13.70107
G1 X102.819 Y26.946 E13.72596
G1 X103.552 Y26.797 E13.75084
G1 X104.581 Y26.721 E13.78515
G1 X118.647 Y26.721 E14.25299
G1 X119.394 Y26.761 E14.27787
G1 X120.132 Y26.88 E14.30274
G1 X120.854 Y27.078 E14.32764
G1 X121.55 Y27.351 E14.3525
G1 X122.213 Y27.698 E14.37739
G1 X122.836 Y28.113 E14.40229
G1 X123.41 Y28.592 E14.42715
G1 X123.931 Y29.129 E14.45204
G1 X124.433 Y29.782 E14.47943
G1 X127.206 Y33.855 E14.64332
G1 X127.594 Y34.495 E14.66821
G1 X127.91 Y35.172 E14.69306
G1 X128.153 Y35.88 E14.71796
G1 X128.321 Y36.619 E14.74316
G1 X128.352 Y36.801 E14.7493
G1 X128.438 Y37.544 E14.77418
G1 X128.449 Y38.155 E14.79451
G1 X127.078 Y91.628 E16.57361
G1 X127.019 Y92.374 E16.5985
G1 X126.88 Y93.109 E16.62338
G1 X126.664 Y93.825 E16.64825
G1 X126.373 Y94.515 E16.67316
G1 X126.01 Y95.169 E16.69804
G1 X125.568 Y95.794 E16.7235
G1 X122.849 Y99.228 E16.86918
G1 X122.354 Y99.789 E16.89407
G1 X121.802 Y100.294 E16.91895
G1 X121.199 Y100.737 E16.94384
G1 X120.368 Y101.204 E16.97554
G1 X120.286 Y101.243 E16.97856
G1 X119.594 Y101.528 E17.00345
G1 X118.876 Y101.737 E17.02833
G1 X118.139 Y101.869 E17.05323
G1 X117.279 Y101.922 E17.08189
G1 X105 Y101.922 E17.49029
G1 X104.253 Y101.882 E17.51517
G1 X103.515 Y101.763 E17.54003
G1 X102.793 Y101.565 E17.56493
G1 X101.963 Y101.229 E17.59471
G1 X101.882 Y101.19 E17.5977
G1 X101.227 Y100.83 E17.62256
G1 X100.613 Y100.402 E17.64746
G1 X100.049 Y99.911 E17.67233
G1 X99.541 Y99.364 E17.69716
G1 X96.176 Y95.325 E17.87201
G1 X95.728 Y94.725 E17.89691
G1 X95.348 Y94.081 E17.92178
G1 X95.038 Y93.401 E17.94664
G1 X94.842 Y92.837 E17.9665
G1 X94.655 Y92.113 E17.99137
G1 X94.545 Y91.373 E18.01625
G1 X94.515 Y90.721 E18.03796
G1 X94.513 Y37.881 E19.79543
G1 X94.553 Y37.134 E19.82031
G1 X94.672 Y36.396 E19.84517
G1 X94.87 Y35.674 E19.87007
G1 X95.143 Y34.978 E19.89494
G0 F6000 X95.543 Y35.067
G1 F1200 X95.888 Y34.428 E19.91909
G1 X96.168 Y34.009 E19.93585
G1 X99.151 Y29.892 E20.10495
G1 X99.609 Y29.328 E20.12911
G1 X100.126 Y28.818 E20.15327
G1 X100.696 Y28.367 E20.17744
G1 X101.517 Y27.875 E20.20928
G1 X101.602 Y27.832 E20.21244
G1 X102.267 Y27.54 E20.2366
G1 X102.96 Y27.323 E20.26075
G1 X103.673 Y27.184 E20.28491
G1 X104.581 Y27.121 E20.31519
G1 X118.647 Y27.121 E20.78302
G1 X119.372 Y27.161 E20.80718
G1 X120.089 Y27.28 E20.83135
G1 X120.788 Y27.478 E20.85551
G1 X121.461 Y27.751 E20.87967
G1 X122.1 Y28.096 E20.90382
G1 X122.697 Y28.51 E20.92798
G1 X123.245 Y28.986 E20.95213
G1 X123.738 Y29.52 E20.9763
G1 X124.103 Y30.007 E20.99654
G1 X126.876 Y34.08 E21.16043
G1 X127.251 Y34.702 E21.18458
G1 X127.555 Y35.361 E21.20872
G1 X127.785 Y36.05 E21.23288
G1 X127.926 Y36.686 E21.25455
G1 X127.957 Y36.868 E21.26069
G1 X128.04 Y37.589 E21.28483
G1 X128.049 Y38.145 E21.30332
G1 X126.678 Y91.618 E23.08243
G1 X126.619 Y92.342 E23.10659
G1 X126.482 Y93.055 E23.13073
G1 X126.266 Y93.749 E23.15491
G1 X125.976 Y94.415 E23.17907
G1 X125.614 Y95.045 E23.20324
G1 X125.254 Y95.546 E23.22375
G1 X122.535 Y98.98 E23.36944
G1 X122.054 Y99.524 E23.39359
G1 X121.515 Y100.011 E23.41775
G1 X120.927 Y100.437 E23.4419
G1 X120.196 Y100.843 E23.46971
G1 X120.114 Y100.882 E23.47273
G1 X119.442 Y101.158 E23.49689
G1 X118.743 Y101.358 E23.52108
G1 X118.027 Y101.479 E23.54523
G1 X117.279 Y101.522 E23.57015
G1 X105 Y101.522 E23.97855
G1 X104.275 Y101.482 E24.0027
G1 X103.558 Y101.363 E24.02687
G1 X102.859 Y101.165 E24.05104
G1 X102.137 Y100.869 E24.07699
G1 X102.056 Y100.83 E24.07998
G1 X101.42 Y100.479 E24.10414
G1 X100.826 Y100.061 E24.1283
G1 X100.282 Y99.579 E24.15247
G1 X99.848 Y99.108 E24.17378
G1 X96.483 Y95.069 E24.34863
G1 X96.05 Y94.486 E24.37278
G1 X95.683 Y93.859 E24.39694
G1 X95.387 Y93.195 E24.42112
G1 X95.224 Y92.716 E24.43795
G1 X95.043 Y92.012 E24.46213
G1 X94.94 Y91.293 E24.48629
G1 X94.915 Y90.721 E24.50533
G1 X94.913 Y37.881 E26.2628
G1 X94.953 Y37.156 E26.28695
G1 X95.072 Y36.44 E26.31109
G1 X95.27 Y35.74 E26.33528
G1 X95.543 Y35.067 E26.35944
G0 F6000 X95.942 Y35.16
G1 F1200 X96.287 Y34.546 E26.38286
G1 X96.492 Y34.243 E26.39503
G1 X99.475 Y30.126 E26.56413
G1 X99.92 Y29.581 E26.58753
G1 X100.424 Y29.089 E26.61096
G1 X100.98 Y28.657 E26.63437
G1 X101.697 Y28.232 E26.6621
G1 X101.782 Y28.189 E26.66526
G1 X102.427 Y27.907 E26.68868
G1 X103.1 Y27.7 E26.7121
G1 X103.793 Y27.571 E26.73554
G1 X104.581 Y27.521 E26.7618
G1 X118.647 Y27.521 E27.22964
G1 X119.35 Y27.561 E27.25306
G1 X120.044 Y27.68 E27.27648
G1 X120.719 Y27.878 E27.29988
G1 X121.368 Y28.15 E27.32328
G1 X121.982 Y28.495 E27.34671
G1 X122.553 Y28.906 E27.37011
G1 X123.074 Y29.38 E27.39353
G1 X123.538 Y29.91 E27.41696
G1 X123.772 Y30.232 E27.4302
G1 X126.545 Y34.305 E27.59409
G1 X126.907 Y34.908 E27.61748
G1 X127.199 Y35.549 E27.64091
G1 X127.417 Y36.219 E27.66434
G1 X127.532 Y36.753 E27.68251
G1 X127.563 Y36.935 E27.68865
G1 X127.642 Y37.635 E27.71208
G1 X127.649 Y38.135 E27.72871
G1 X126.278 Y91.608 E29.50781
G1 X126.22 Y92.31 E29.53124
G1 X126.083 Y93 E29.55464
G1 X125.868 Y93.671 E29.57807
G1 X125.579 Y94.312 E29.60146
G1 X125.219 Y94.917 E29.62488
G1 X124.941 Y95.298 E29.64056
G1 X122.222 Y98.732 E29.78625
G1 X121.754 Y99.258 E29.80966
G1 X121.23 Y99.728 E29.83308
G1 X120.656 Y100.135 E29.85648
G1 X120.024 Y100.482 E29.88046
G1 X119.942 Y100.521 E29.88348
G1 X119.29 Y100.787 E29.9069
G1 X118.612 Y100.977 E29.93032
G1 X117.917 Y101.089 E29.95373
G1 X117.279 Y101.122 E29.97498
G1 X105 Y101.122 E30.38338
G1 X104.297 Y101.082 E30.4068
G1 X103.603 Y100.963 E30.43022
G1 X102.928 Y100.765 E30.45362
G1 X102.229 Y100.469 E30.47887
G1 X101.613 Y100.128 E30.50228
G1 X101.04 Y99.72 E30.52568
G1 X100.517 Y99.249 E30.54909
G1 X100.156 Y98.852 E30.56694
G1 X96.791 Y94.813 E30.74179
G1 X96.371 Y94.247 E30.76523
G1 X96.019 Y93.638 E30.78862
G1 X95.644 Y92.718 E30.82167
G1 X95.605 Y92.595 E30.82596
G1 X95.431 Y91.913 E30.84937
G1 X95.335 Y91.215 E30.8728
G1 X95.315 Y90.721 E30.88925
G1 X95.313 Y37.881 E32.64671
G1 X95.353 Y37.178 E32.67013
G1 X95.472 Y36.485 E32.69352
G1 X95.67 Y35.809 E32.71695
G1 X95.942 Y35.16 E32.74035
G0 F6000 X96.069 Y35.879
G1 F1200 X96.341 Y35.255 E32.76299
G1 X96.816 Y34.478 E32.79328
G1 X99.799 Y30.361 E32.96238
G1 X100.23 Y29.834 E32.98502
G1 X100.72 Y29.361 E33.00768
G1 X101.262 Y28.949 E33.03032
G1 X101.878 Y28.589 E33.05405
G1 X101.963 Y28.546 E33.05722
G1 X102.587 Y28.274 E33.07986
G1 X103.239 Y28.078 E33.1025
G1 X103.91 Y27.96 E33.12516
G1 X104.581 Y27.921 E33.14752
G1 X118.647 Y27.921 E33.61536
G1 X119.327 Y27.961 E33.63801
G1 X119.997 Y28.08 E33.66064
G1 X120.649 Y28.277 E33.6833
G1 X121.273 Y28.549 E33.70594
G1 X121.861 Y28.893 E33.7286
G1 X122.405 Y29.303 E33.75125
G1 X122.896 Y29.774 E33.77388
G1 X123.441 Y30.457 E33.80295
G1 X126.214 Y34.53 E33.96683
G1 X126.564 Y35.114 E33.98948
G1 X126.842 Y35.736 E34.01214
G1 X127.046 Y36.385 E34.03476
G1 X127.138 Y36.82 E34.04955
G1 X127.169 Y37.002 E34.05569
G1 X127.243 Y37.679 E34.07834
G1 X127.249 Y38.125 E34.09318
G1 X125.878 Y91.598 E35.87228
G1 X125.821 Y92.276 E35.89491
G1 X125.684 Y92.943 E35.91756
G1 X125.471 Y93.59 E35.94021
G1 X125.183 Y94.207 E35.96286
G1 X124.627 Y95.049 E35.99642
G1 X121.908 Y98.483 E36.1421
G1 X121.455 Y98.991 E36.16474
G1 X120.945 Y99.443 E36.18741
G1 X120.386 Y99.832 E36.21006
G1 X119.77 Y100.16 E36.23327
G1 X119.139 Y100.416 E36.25592
G1 X118.483 Y100.596 E36.27854
G1 X117.809 Y100.698 E36.30122
G1 X117.279 Y100.722 E36.31886
G1 X105 Y100.722 E36.72726
G1 X104.32 Y100.682 E36.74992
G1 X103.65 Y100.563 E36.77255
G1 X102.998 Y100.366 E36.79521
G1 X102.403 Y100.109 E36.81676
G1 X101.808 Y99.778 E36.83941
G1 X101.256 Y99.38 E36.86204
G1 X100.754 Y98.919 E36.88471
G1 X100.463 Y98.596 E36.89917
G1 X97.098 Y94.557 E37.07402
G1 X96.693 Y94.009 E37.09669
G1 X96.356 Y93.417 E37.11934
G1 X96.025 Y92.597 E37.14876
G1 X95.986 Y92.474 E37.15305
G1 X95.819 Y91.814 E37.17569
G1 X95.73 Y91.139 E37.19834
G1 X95.715 Y90.721 E37.21225
G1 X95.713 Y37.881 E38.96971
G1 X95.753 Y37.202 E38.99234
G1 X95.872 Y36.531 E39.015
G1 X96.069 Y35.879 E39.03766
G0 F6000 X96.469 Y35.953
G1 F1200 X96.741 Y35.354 E39.05954
G1 X97.14 Y34.713 E39.08465
G1 X100.123 Y30.596 E39.25375
G1 X100.54 Y30.088 E39.27561
G1 X101.016 Y29.635 E39.29746
G1 X101.543 Y29.243 E39.31931
G1 X102.058 Y28.945 E39.3391
G1 X102.143 Y28.902 E39.34227
G1 X102.747 Y28.642 E39.36414
G1 X103.377 Y28.457 E39.38598
G1 X104.025 Y28.35 E39.40782
G1 X104.581 Y28.321 E39.42634
G1 X118.647 Y28.321 E39.89417
G1 X119.303 Y28.361 E39.91603
G1 X119.949 Y28.48 E39.93788
G1 X120.576 Y28.677 E39.95974
G1 X121.174 Y28.949 E39.98159
G1 X121.735 Y29.291 E40.00344
G1 X122.25 Y29.699 E40.0253
G1 X122.712 Y30.166 E40.04715
G1 X123.111 Y30.682 E40.06884
G1 X125.884 Y34.755 E40.23272
G1 X126.22 Y35.32 E40.25459
G1 X126.485 Y35.921 E40.27643
G1 X126.675 Y36.55 E40.29829
G1 X126.743 Y36.887 E40.30972
G1 X126.774 Y37.069 E40.31586
G1 X126.845 Y37.722 E40.33771
G1 X126.849 Y38.114 E40.35075
G1 X125.478 Y91.587 E42.12985
G1 X125.421 Y92.242 E42.15172
G1 X125.286 Y92.885 E42.17357
G1 X125.073 Y93.506 E42.19541
G1 X124.786 Y94.097 E42.21726
G1 X124.314 Y94.801 E42.24545
G1 X121.595 Y98.235 E42.39114
G1 X121.156 Y98.724 E42.41299
G1 X120.662 Y99.157 E42.43484
G1 X120.118 Y99.526 E42.4567
G1 X119.598 Y99.799 E42.47624
G1 X118.989 Y100.044 E42.49807
G1 X118.354 Y100.214 E42.51993
G1 X117.704 Y100.305 E42.54176
G1 X117.279 Y100.322 E42.55591
G1 X105 Y100.322 E42.96431
G1 X104.344 Y100.282 E42.98617
G1 X103.698 Y100.163 E43.00802
G1 X103.071 Y99.966 E43.02988
G1 X102.576 Y99.748 E43.04787
G1 X102.003 Y99.428 E43.0697
G1 X101.473 Y99.04 E43.09154
G1 X100.993 Y98.591 E43.1134
G1 X100.77 Y98.339 E43.1246
G1 X97.405 Y94.3 E43.29945
G1 X97.016 Y93.771 E43.32129
G1 X96.694 Y93.198 E43.34315
G1 X96.407 Y92.476 E43.36899
G1 X96.368 Y92.353 E43.37328
G1 X96.207 Y91.716 E43.39513
G1 X96.126 Y91.064 E43.41699
G1 X96.115 Y90.721 E43.4284
G1 X96.113 Y37.881 E45.18587
G1 X96.153 Y37.225 E45.20773
G1 X96.272 Y36.579 E45.22957
G1 X96.469 Y35.953 E45.2514
G0 F6000 X96.869 Y36.029
G1 F1200 X97.14 Y35.458 E45.27242
G1 X97.464 Y34.947 E45.29255
G1 X100.447 Y30.83 E45.46164
G1 X100.85 Y30.343 E45.48267
G1 X101.31 Y29.91 E45.50368
G1 X101.822 Y29.539 E45.52471
G1 X102.324 Y29.259 E45.54383
G1 X102.905 Y29.01 E45.56485
G1 X103.513 Y28.836 E45.58589
G1 X104.138 Y28.741 E45.60691
G1 X104.581 Y28.721 E45.62166
G1 X118.647 Y28.721 E46.0895
G1 X119.278 Y28.761 E46.11053
G1 X119.899 Y28.88 E46.13156
G1 X120.499 Y29.077 E46.15256
G1 X121.071 Y29.348 E46.17361
G1 X121.603 Y29.688 E46.19461
G1 X122.088 Y30.094 E46.21565
G1 X122.518 Y30.557 E46.23667
