;FLAVOR:Marlin
;TIME:3172
;Filament used: 1.49502m
;Layer height: 0.2
;MINX:89.694
;MINY:14.424
;MINZ:0.2
;MAXX:133.608
;MAXY:169.896
;MAXZ:4.8
;Generated with Cura_SteamEngine 4.5.0
M140 S60
M105
M190 S60
M104 S190
M105
M109 S190
M82 ;absolute extrusion mode
M201 X500.00 Y500.00 Z100.00 E5000.00 ;Setup machine max acceleration
M203 X500.00 Y500.00 Z10.00 E50.00 ;Setup machine max feedrate
M204 P500.00 R1000.00 T500.00 ;Setup Print/Retract/Travel acceleration
M205 X8.00 Y8.00 Z0.40 E5.00 ;Setup Jerk
M220 S100 ;Reset Feedrate
M221 S100 ;Reset Flowrate

G28 ;Home
M420 S1 Z2 ;Enable ABL using saved Mesh and Fade Height
G29     ;autobedlevel
G92 E0 ;Reset Extruder
G1 Z2.0 F3000 ;Move Z Axis up
G1 X10.1 Y20 Z0.28 F5000.0 ;Move to start position
G1 X10.1 Y200.0 Z0.28 F1500.0 E15 ;Draw the first line
G1 X10.4 Y200.0 Z0.28 F5000.0 ;Move to side a little
G1 X10.4 Y20 Z0.28 F1500.0 E30 ;Draw the second line
G92 E0 ;Reset Extruder
G92 E0
G92 E0
G1 F1500 E-6.5
;LAYER_COUNT:27
;LAYER:0
M107
G0 F6000 X93.762 Y29.281 Z0.2
;TYPE:SKIRT
G1 F1500 E0
G1 F1200 X93.957 Y28.703 E0.02029
G1 X94.045 Y28.472 E0.02851
G1 X94.286 Y27.907 E0.04894
G1 X94.396 Y27.675 E0.05748
G1 X94.769 Y26.982 E0.08366
G1 X94.902 Y26.762 E0.09221
G1 X95.228 Y26.266 E0.11195
G1 X95.375 Y26.06 E0.12037
G1 X95.785 Y25.535 E0.14252
G1 X95.951 Y25.34 E0.15104
G1 X96.405 Y24.85 E0.17326
G1 X96.585 Y24.672 E0.18168
G1 X97.067 Y24.234 E0.20334
G1 X97.25 Y24.081 E0.21127
G1 X97.778 Y23.676 E0.2334
G1 X98.129 Y23.433 E0.2476
G1 X98.417 Y23.24 E0.25913
G1 X98.591 Y23.115 E0.26626
G1 X98.745 Y22.994 E0.27277
G1 X98.864 Y22.893 E0.27796
G1 X99.01 Y22.758 E0.28458
G1 X99.168 Y22.6 E0.29201
G1 X99.267 Y22.493 E0.29686
G1 X99.403 Y22.333 E0.30384
G1 X99.509 Y22.198 E0.30955
G1 X99.628 Y22.033 E0.31632
G1 X99.717 Y21.901 E0.32161
G1 X99.82 Y21.731 E0.32822
G1 X99.927 Y21.539 E0.33553
G1 X100.227 Y20.958 E0.35728
G1 X100.514 Y20.45 E0.37669
G1 X100.655 Y20.221 E0.38563
G1 X101.037 Y19.658 E0.40826
G1 X101.202 Y19.436 E0.41746
G1 X101.533 Y19.02 E0.43514
G1 X101.698 Y18.827 E0.44359
G1 X102.139 Y18.353 E0.46512
G1 X102.342 Y18.152 E0.47462
G1 X102.779 Y17.751 E0.49435
G1 X102.972 Y17.587 E0.50277
G1 X103.457 Y17.207 E0.52327
G1 X103.68 Y17.046 E0.53242
G1 X104.166 Y16.722 E0.55184
G1 X104.399 Y16.579 E0.56094
G1 X104.943 Y16.274 E0.58168
G1 X105.177 Y16.155 E0.59041
G1 X105.66 Y15.93 E0.60813
G1 X105.921 Y15.819 E0.61757
G1 X106.42 Y15.627 E0.63535
G1 X106.899 Y15.461 E0.65221
G1 X107.232 Y15.354 E0.66384
G1 X107.747 Y15.201 E0.68171
G1 X108.031 Y15.122 E0.69152
G1 X108.538 Y14.992 E0.70893
G1 X108.863 Y14.916 E0.72003
G1 X109.379 Y14.807 E0.73757
G1 X109.706 Y14.746 E0.74863
G1 X110.227 Y14.659 E0.7662
G1 X110.539 Y14.613 E0.77669
G1 X111.056 Y14.548 E0.79402
G1 X111.387 Y14.513 E0.80509
G1 X111.908 Y14.47 E0.82248
G1 X112.273 Y14.449 E0.83464
G1 X113.07 Y14.425 E0.86116
G1 X113.587 Y14.424 E0.87835
G1 X113.936 Y14.431 E0.88996
G1 X114.824 Y14.477 E0.91954
G1 X115.345 Y14.523 E0.93693
G1 X115.674 Y14.559 E0.94794
G1 X116.192 Y14.627 E0.96532
G1 X116.492 Y14.673 E0.97541
G1 X117.018 Y14.763 E0.99316
G1 X117.357 Y14.828 E1.00464
G1 X117.873 Y14.94 E1.0222
G1 X118.217 Y15.023 E1.03397
G1 X118.719 Y15.156 E1.05125
G1 X118.995 Y15.235 E1.0608
G1 X119.497 Y15.388 E1.07825
G1 X119.829 Y15.497 E1.08987
G1 X120.334 Y15.676 E1.10769
G1 X120.63 Y15.788 E1.11822
G1 X121.119 Y15.984 E1.13574
G1 X121.431 Y16.117 E1.14702
G1 X121.902 Y16.33 E1.16422
G1 X122.194 Y16.469 E1.17497
G1 X122.673 Y16.71 E1.19281
G1 X122.965 Y16.865 E1.2038
G1 X123.426 Y17.122 E1.22136
G1 X123.712 Y17.289 E1.23237
G1 X124.153 Y17.56 E1.24959
G1 X124.423 Y17.734 E1.26027
G1 X124.857 Y18.026 E1.27767
G1 X125.129 Y18.218 E1.28874
G1 X125.562 Y18.537 E1.30663
G1 X125.807 Y18.725 E1.3169
G1 X126.211 Y19.048 E1.33411
G1 X126.497 Y19.288 E1.34652
G1 X126.893 Y19.637 E1.36408
G1 X127.117 Y19.842 E1.37418
G1 X127.499 Y20.206 E1.39173
G1 X127.721 Y20.426 E1.40212
G1 X128.092 Y20.809 E1.41986
G1 X128.332 Y21.069 E1.43163
G1 X128.676 Y21.458 E1.4489
G1 X128.875 Y21.692 E1.45912
G1 X129.213 Y22.106 E1.47689
G1 X129.425 Y22.378 E1.48836
G1 X129.735 Y22.794 E1.50562
G1 X129.934 Y23.074 E1.51704
G1 X130.39 Y23.754 E1.54427
G1 X130.674 Y24.208 E1.56208
G1 X130.861 Y24.524 E1.5743
G1 X131.115 Y24.976 E1.59154
G1 X131.249 Y25.226 E1.60098
G1 X131.489 Y25.692 E1.61841
G1 X131.644 Y26.009 E1.63015
G1 X131.868 Y26.497 E1.64801
G1 X132 Y26.802 E1.65906
G1 X132.196 Y27.282 E1.6763
G1 X132.315 Y27.592 E1.68735
G1 X132.493 Y28.087 E1.70484
G1 X132.598 Y28.399 E1.71579
G1 X132.758 Y28.911 E1.73363
G1 X132.844 Y29.207 E1.74389
G1 X132.981 Y29.715 E1.76139
G1 X133.062 Y30.046 E1.77272
G1 X133.175 Y30.552 E1.78996
G1 X133.243 Y30.888 E1.80137
G1 X133.335 Y31.406 E1.81886
G1 X133.381 Y31.7 E1.82876
G1 X133.453 Y32.22 E1.84622
G1 X133.495 Y32.582 E1.85834
G1 X133.543 Y33.109 E1.87594
G1 X133.564 Y33.401 E1.88568
G1 X133.592 Y33.925 E1.90313
G1 X133.603 Y34.267 E1.91452
G1 X133.608 Y34.795 E1.93208
G1 X133.604 Y35.103 E1.94232
G1 X133.588 Y35.636 E1.96006
G1 X133.57 Y35.988 E1.97178
G1 X133.531 Y36.506 E1.98906
G1 X133.497 Y36.853 E2.00065
G1 X133.433 Y37.384 E2.01844
G1 X133.391 Y37.682 E2.02845
G1 X133.309 Y38.195 E2.04573
G1 X133.253 Y38.505 E2.05621
G1 X133.149 Y39.021 E2.07372
G1 X133.069 Y39.375 E2.08579
G1 X132.94 Y39.89 E2.10345
G1 X132.857 Y40.195 E2.11396
G1 X132.71 Y40.695 E2.13129
G1 X132.613 Y41.001 E2.14197
G1 X132.443 Y41.502 E2.15957
G1 X132.332 Y41.808 E2.17039
G1 X132.143 Y42.297 E2.18783
G1 X132.005 Y42.632 E2.19988
G1 X131.673 Y43.373 E2.22689
G1 X131.444 Y43.845 E2.24434
G1 X131.274 Y44.174 E2.25665
G1 X131.021 Y44.638 E2.27423
G1 X130.867 Y44.908 E2.28457
G1 X130.593 Y45.366 E2.30232
G1 X130.426 Y45.633 E2.31279
G1 X130.142 Y46.067 E2.33005
G1 X129.951 Y46.345 E2.34126
G1 X129.638 Y46.781 E2.35911
G1 X129.434 Y47.053 E2.37042
G1 X129.114 Y47.46 E2.38764
G1 X128.904 Y47.715 E2.39863
G1 X128.556 Y48.121 E2.41642
G1 X128.349 Y48.354 E2.42678
G1 X127.996 Y48.734 E2.44403
G1 X127.76 Y48.977 E2.4553
G1 X127.378 Y49.354 E2.47315
G1 X127.144 Y49.576 E2.48388
G1 X126.762 Y49.923 E2.50104
G1 X126.497 Y50.152 E2.51269
G1 X126.086 Y50.493 E2.53045
G1 X125.846 Y50.685 E2.54068
G1 X125.433 Y51.001 E2.55797
G1 X125.16 Y51.2 E2.56921
G1 X124.722 Y51.506 E2.58698
G1 X124.474 Y51.673 E2.59692
G1 X124.037 Y51.954 E2.6142
G1 X123.709 Y52.153 E2.62696
G1 X123.018 Y52.546 E2.6534
G1 X122.547 Y52.796 E2.67114
G1 X122.229 Y52.955 E2.68297
G1 X121.754 Y53.18 E2.70045
G1 X121.434 Y53.323 E2.7121
G1 X120.948 Y53.527 E2.72964
G1 X120.541 Y53.685 E2.74416
G1 X120.664 Y53.738 E2.74861
G1 X121.391 Y54.074 E2.77525
G1 X121.869 Y54.313 E2.79302
G1 X122.174 Y54.474 E2.80449
G1 X122.634 Y54.73 E2.822
G1 X122.94 Y54.91 E2.83381
G1 X123.382 Y55.183 E2.85109
G1 X123.63 Y55.343 E2.86091
G1 X124.065 Y55.635 E2.87833
G1 X124.351 Y55.836 E2.88996
G1 X124.783 Y56.155 E2.90782
G1 X125.021 Y56.338 E2.91781
G1 X125.425 Y56.661 E2.93501
G1 X125.702 Y56.893 E2.94703
G1 X126.105 Y57.247 E2.96487
G1 X126.335 Y57.458 E2.97525
G1 X126.71 Y57.815 E2.99247
G1 X126.941 Y58.044 E3.00329
G1 X127.313 Y58.429 E3.02109
G1 X127.548 Y58.683 E3.0326
G1 X127.891 Y59.071 E3.04983
G1 X128.089 Y59.304 E3.06
G1 X128.427 Y59.718 E3.07777
G1 X128.639 Y59.99 E3.08924
G1 X128.949 Y60.406 E3.1065
G1 X129.148 Y60.686 E3.11792
G1 X129.604 Y61.366 E3.14516
G1 X129.888 Y61.82 E3.16297
G1 X130.075 Y62.136 E3.17518
G1 X130.329 Y62.588 E3.19242
G1 X130.463 Y62.838 E3.20186
G1 X130.703 Y63.304 E3.21929
G1 X130.854 Y63.613 E3.23073
G1 X131.075 Y64.093 E3.24831
G1 X131.205 Y64.392 E3.25915
G1 X131.405 Y64.879 E3.27666
G1 X131.532 Y65.207 E3.28836
G1 X131.71 Y65.703 E3.30589
G1 X131.815 Y66.018 E3.31693
G1 X131.972 Y66.522 E3.33449
G1 X132.056 Y66.811 E3.3445
G1 X132.193 Y67.319 E3.362
G1 X132.27 Y67.63 E3.37265
G1 X132.386 Y68.143 E3.39015
G1 X132.459 Y68.504 E3.4024
G1 X132.551 Y69.024 E3.41996
G1 X132.598 Y69.328 E3.43019
G1 X132.669 Y69.848 E3.44765
G1 X132.709 Y70.194 E3.45923
G1 X132.757 Y70.72 E3.4768
G1 X132.778 Y71.013 E3.48657
G1 X132.806 Y71.537 E3.50402
G1 X132.817 Y71.879 E3.51541
G1 X132.822 Y72.407 E3.53297
G1 X132.819 Y72.7 E3.54271
G1 X132.804 Y73.233 E3.56045
G1 X132.784 Y73.615 E3.57317
G1 X132.744 Y74.133 E3.59045
G1 X132.711 Y74.465 E3.60155
G1 X132.608 Y75.28 E3.62887
G1 X132.527 Y75.793 E3.64614
G1 X132.462 Y76.146 E3.65808
G1 X132.356 Y76.662 E3.6756
G1 X132.286 Y76.973 E3.68621
G1 X132.158 Y77.488 E3.70386
G1 X132.071 Y77.807 E3.71485
G1 X131.924 Y78.307 E3.73219
G1 X131.828 Y78.613 E3.74285
G1 X131.656 Y79.12 E3.76066
G1 X131.543 Y79.43 E3.77163
G1 X131.356 Y79.913 E3.78886
G1 X131.219 Y80.244 E3.80078
G1 X131.006 Y80.727 E3.81833
G1 X130.886 Y80.986 E3.82783
G1 X130.653 Y81.466 E3.84557
G1 X130.485 Y81.792 E3.85777
G1 X130.236 Y82.249 E3.87508
G1 X130.077 Y82.528 E3.88576
G1 X129.803 Y82.985 E3.90348
G1 X129.64 Y83.245 E3.91369
G1 X129.356 Y83.679 E3.93094
G1 X129.165 Y83.957 E3.94216
G1 X128.852 Y84.393 E3.96001
G1 X128.648 Y84.665 E3.97132
G1 X128.328 Y85.072 E3.98854
G1 X128.124 Y85.32 E3.99922
G1 X127.776 Y85.727 E4.01703
G1 X127.57 Y85.959 E4.02735
G1 X127.218 Y86.339 E4.04458
G1 X126.967 Y86.598 E4.05657
G1 X126.591 Y86.968 E4.07412
G1 X126.362 Y87.184 E4.08459
G1 X125.973 Y87.537 E4.10206
G1 X125.72 Y87.757 E4.11321
G1 X125.309 Y88.099 E4.131
G1 X125.058 Y88.299 E4.14167
G1 X124.646 Y88.614 E4.15892
G1 X124.368 Y88.817 E4.17037
G1 X123.929 Y89.123 E4.18817
G1 X123.695 Y89.28 E4.19754
G1 X123.259 Y89.561 E4.21479
G1 X122.943 Y89.754 E4.22711
G1 X122.489 Y90.017 E4.24456
G1 X122.208 Y90.172 E4.25523
G1 X121.74 Y90.418 E4.27282
G1 X121.459 Y90.559 E4.28327
G1 X120.975 Y90.789 E4.3011
G1 X120.651 Y90.934 E4.3129
G1 X120.166 Y91.138 E4.3304
G1 X119.869 Y91.256 E4.34103
G1 X119.384 Y91.437 E4.35825
G1 X119.084 Y91.542 E4.36882
G1 X118.665 Y91.679 E4.38348
G1 X118.866 Y91.775 E4.39089
G1 X119.346 Y92.015 E4.40874
G1 X119.656 Y92.179 E4.42041
G1 X120.117 Y92.436 E4.43796
G1 X120.403 Y92.603 E4.44898
G1 X120.844 Y92.874 E4.46619
G1 X121.114 Y93.048 E4.47688
G1 X121.548 Y93.34 E4.49427
G1 X121.82 Y93.532 E4.50535
G1 X122.253 Y93.851 E4.52324
G1 X122.498 Y94.039 E4.53351
G1 X122.902 Y94.362 E4.55071
G1 X123.188 Y94.602 E4.56313
G1 X123.584 Y94.951 E4.58068
G1 X123.808 Y95.156 E4.59078
G1 X124.19 Y95.52 E4.60833
G1 X124.412 Y95.74 E4.61873
G1 X124.783 Y96.123 E4.63646
G1 X125.023 Y96.383 E4.64823
G1 X125.367 Y96.772 E4.6655
G1 X125.567 Y97.007 E4.67577
G1 X125.9 Y97.415 E4.69328
G1 X126.108 Y97.681 E4.70451
G1 X126.423 Y98.103 E4.72203
G1 X126.618 Y98.378 E4.73324
G1 X126.915 Y98.814 E4.75079
G1 X127.095 Y99.089 E4.76172
G1 X127.377 Y99.543 E4.7795
G1 X127.541 Y99.82 E4.7902
G1 X127.796 Y100.271 E4.80743
G1 X127.943 Y100.545 E4.81778
G1 X128.183 Y101.012 E4.83524
G1 X128.335 Y101.323 E4.84675
G1 X128.559 Y101.811 E4.86461
G1 X128.691 Y102.116 E4.87567
G1 X128.887 Y102.596 E4.89291
G1 X129.006 Y102.906 E4.90396
G1 X129.184 Y103.401 E4.92145
G1 X129.289 Y103.713 E4.9324
G1 X129.449 Y104.225 E4.95024
G1 X129.533 Y104.515 E4.96028
G1 X129.668 Y105.014 E4.97748
G1 X129.752 Y105.351 E4.98903
G1 X129.867 Y105.866 E5.00658
G1 X129.934 Y106.202 E5.01797
G1 X130.026 Y106.72 E5.03547
G1 X130.075 Y107.031 E5.04594
G1 X130.146 Y107.552 E5.06343
G1 X130.183 Y107.88 E5.07441
G1 X130.232 Y108.405 E5.09195
G1 X130.255 Y108.715 E5.10229
G1 X130.283 Y109.24 E5.11977
G1 X130.294 Y109.596 E5.13162
G1 X130.298 Y110.124 E5.14918
G1 X130.295 Y110.402 E5.15843
G1 X130.28 Y110.935 E5.17616
G1 X130.26 Y111.315 E5.18882
G1 X130.22 Y111.834 E5.20613
G1 X130.189 Y112.154 E5.21683
G1 X130.126 Y112.685 E5.23461
G1 X130.082 Y112.999 E5.24516
G1 X130 Y113.511 E5.2624
G1 X129.944 Y113.819 E5.27282
G1 X129.84 Y114.335 E5.29032
G1 X129.76 Y114.689 E5.30239
G1 X129.632 Y115.2 E5.31992
G1 X129.543 Y115.525 E5.33112
G1 X129.306 Y116.306 E5.35827
G1 X129.141 Y116.796 E5.37547
G1 X129.022 Y117.125 E5.3871
G1 X128.831 Y117.618 E5.40469
G1 X128.692 Y117.953 E5.41675
G1 X128.362 Y118.688 E5.44355
G1 X128.129 Y119.168 E5.46129
G1 X127.964 Y119.489 E5.4733
G1 X127.716 Y119.945 E5.49056
G1 X127.551 Y120.233 E5.5016
G1 X127.276 Y120.691 E5.51937
G1 X127.123 Y120.936 E5.52898
G1 X126.84 Y121.37 E5.54621
G1 X126.642 Y121.659 E5.55786
G1 X126.329 Y122.095 E5.57571
G1 X126.125 Y122.367 E5.58702
G1 X125.805 Y122.774 E5.60424
G1 X125.588 Y123.038 E5.61561
G1 X125.239 Y123.444 E5.63341
G1 X125.039 Y123.668 E5.6434
G1 X124.686 Y124.048 E5.66065
G1 X124.45 Y124.291 E5.67192
G1 X124.068 Y124.668 E5.68977
G1 X123.834 Y124.89 E5.7005
G1 X123.452 Y125.237 E5.71766
G1 X123.196 Y125.459 E5.72893
G1 X122.785 Y125.801 E5.74672
G1 X122.534 Y126.001 E5.75739
G1 X122.122 Y126.316 E5.77464
G1 X121.851 Y126.514 E5.7858
G1 X121.413 Y126.82 E5.80357
G1 X121.172 Y126.982 E5.81323
G1 X120.736 Y127.263 E5.83049
G1 X120.407 Y127.464 E5.84331
G1 X119.951 Y127.727 E5.86082
G1 X119.695 Y127.868 E5.87054
G1 X119.229 Y128.114 E5.88806
G1 X118.935 Y128.261 E5.899
G1 X118.453 Y128.49 E5.91675
G1 X118.132 Y128.634 E5.92845
G1 X117.645 Y128.839 E5.94602
G1 X117.346 Y128.958 E5.95672
G1 X116.861 Y129.139 E5.97394
G1 X116.561 Y129.244 E5.98451
G1 X116.06 Y129.408 E6.00205
G1 X115.714 Y129.512 E6.01406
G1 X115.201 Y129.654 E6.03177
G1 X114.918 Y129.727 E6.04149
G1 X114.403 Y129.849 E6.05909
G1 X114.545 Y129.887 E6.06398
G1 X114.885 Y129.968 E6.07561
G1 X115.387 Y130.1 E6.09287
G1 X115.677 Y130.183 E6.1029
G1 X116.179 Y130.336 E6.12036
G1 X116.511 Y130.445 E6.13198
G1 X117.016 Y130.624 E6.1498
G1 X117.312 Y130.736 E6.16033
G1 X117.801 Y130.932 E6.17785
G1 X118.113 Y131.065 E6.18913
G1 X118.584 Y131.278 E6.20632
G1 X118.876 Y131.417 E6.21708
G1 X119.355 Y131.658 E6.23491
G1 X119.641 Y131.81 E6.24569
G1 X120.103 Y132.067 E6.26327
G1 X120.401 Y132.242 E6.27476
G1 X120.841 Y132.513 E6.29195
G1 X121.105 Y132.682 E6.30238
G1 X121.539 Y132.974 E6.31977
G1 X121.811 Y133.166 E6.33085
G1 X122.244 Y133.485 E6.34874
G1 X122.507 Y133.687 E6.35977
G1 X122.911 Y134.012 E6.37701
G1 X123.161 Y134.223 E6.38789
G1 X123.564 Y134.576 E6.40571
G1 X123.803 Y134.794 E6.41647
G1 X124.178 Y135.151 E6.43369
G1 X124.41 Y135.38 E6.44453
G1 X124.781 Y135.764 E6.46229
G1 X125.014 Y136.017 E6.47373
G1 X125.358 Y136.406 E6.491
G1 X125.557 Y136.64 E6.50122
G1 X125.895 Y137.054 E6.519
G1 X126.107 Y137.326 E6.53047
G1 X126.417 Y137.742 E6.54772
G1 X126.616 Y138.022 E6.55915
G1 X127.072 Y138.702 E6.58638
G1 X127.356 Y139.156 E6.60419
G1 X127.543 Y139.472 E6.6164
G1 X127.797 Y139.924 E6.63365
G1 X127.931 Y140.174 E6.64308
G1 X128.171 Y140.64 E6.66051
G1 X128.322 Y140.949 E6.67195
G1 X128.543 Y141.429 E6.68953
G1 X128.673 Y141.728 E6.70037
G1 X128.873 Y142.215 E6.71788
G1 X129.004 Y142.556 E6.73003
G1 X129.181 Y143.052 E6.74755
G1 X129.28 Y143.347 E6.7579
G1 X129.44 Y143.859 E6.77574
G1 X129.526 Y144.155 E6.78599
G1 X129.663 Y144.663 E6.80349
G1 X129.745 Y144.997 E6.81493
G1 X129.858 Y145.504 E6.83221
G1 X129.923 Y145.826 E6.84313
G1 X130.017 Y146.351 E6.86087
G1 X130.067 Y146.669 E6.87158
G1 X130.137 Y147.181 E6.88877
G1 X130.177 Y147.53 E6.90045
G1 X130.225 Y148.057 E6.91805
G1 X130.246 Y148.349 E6.92779
G1 X130.274 Y148.873 E6.94524
G1 X130.285 Y149.215 E6.95662
G1 X130.29 Y149.743 E6.97418
G1 X130.286 Y150.051 E6.98443
G1 X130.27 Y150.584 E7.00216
G1 X130.252 Y150.936 E7.01389
G1 X130.213 Y151.454 E7.03117
G1 X130.179 Y151.801 E7.04276
G1 X130.076 Y152.616 E7.07008
G1 X129.995 Y153.129 E7.08736
G1 X129.93 Y153.482 E7.0993
G1 X129.824 Y153.998 E7.11682
G1 X129.754 Y154.309 E7.12742
G1 X129.626 Y154.824 E7.14507
G1 X129.539 Y155.143 E7.15607
G1 X129.392 Y155.643 E7.1734
G1 X129.295 Y155.949 E7.18408
G1 X129.125 Y156.45 E7.20167
G1 X129.014 Y156.756 E7.2125
G1 X128.825 Y157.245 E7.22994
G1 X128.687 Y157.58 E7.24199
G1 X128.355 Y158.321 E7.26899
G1 X128.126 Y158.793 E7.28644
G1 X127.956 Y159.122 E7.29876
G1 X127.703 Y159.586 E7.31634
G1 X127.549 Y159.856 E7.32668
G1 X127.275 Y160.314 E7.34443
G1 X127.108 Y160.581 E7.3549
G1 X126.824 Y161.015 E7.37215
G1 X126.633 Y161.293 E7.38337
G1 X126.32 Y161.729 E7.40122
G1 X126.116 Y162.001 E7.41253
G1 X125.796 Y162.408 E7.42975
