;FLAVOR:Marlin
;TIME:2569
;Filament used: 1.59092m
;Layer height: 0.2
;MINX:90.2
;MINY:12.299
;MINZ:0.2
;MAXX:131.325
;MAXY:167.302
;MAXZ:3.4
;Generated with Cura_SteamEngine 4.5.0
M140 S60
M105
M190 S60
M104 S190
M105
M109 S190
M82 ;absolute extrusion mode
M201 X500.00 Y500.00 Z100.00 E5000.00 ;Setup machine max acceleration
M203 X500.00 Y500.00 Z10.00 E50.00 ;Setup machine max feedrate
M204 P500.00 R1000.00 T500.00 ;Setup Print/Retract/Travel acceleration
M205 X8.00 Y8.00 Z0.40 E5.00 ;Setup Jerk
M220 S100 ;Reset Feedrate
M221 S100 ;Reset Flowrate

G28 ;Home
M420 S1 Z2 ;Enable ABL using saved Mesh and Fade Height
G29     ;autobedlevel
G92 E0 ;Reset Extruder
G1 Z2.0 F3000 ;Move Z Axis up
G1 X10.1 Y20 Z0.28 F5000.0 ;Move to start position
G1 X10.1 Y200.0 Z0.28 F1500.0 E15 ;Draw the first line
G1 X10.4 Y200.0 Z0.28 F5000.0 ;Move to side a little
G1 X10.4 Y20 Z0.28 F1500.0 E30 ;Draw the second line
G92 E0 ;Reset Extruder
G92 E0
G92 E0
G1 F1500 E-6.5
;LAYER_COUNT:17
;LAYER:0
M107
G0 F6000 X91.355 Y28.382 Z0.2
;TYPE:SKIRT
G1 F1500 E0
G1 F1200 X91.629 Y27.642 E0.02625
G1 X91.977 Y26.933 E0.05251
G1 X92.395 Y26.262 E0.07881
G1 X92.878 Y25.638 E0.10505
G1 X93.283 Y25.201 E0.12487
G1 X93.4 Y25.084 E0.13037
G1 X93.986 Y24.554 E0.15665
G1 X94.622 Y24.087 E0.1829
G1 X95.028 Y23.848 E0.19857
G1 X95.085 Y23.737 E0.20272
G1 X95.307 Y23.333 E0.21805
G1 X95.493 Y23.013 E0.23036
G1 X95.74 Y22.61 E0.24608
G1 X95.93 Y22.314 E0.25778
G1 X96.198 Y21.918 E0.27368
G1 X96.41 Y21.621 E0.28582
G1 X96.685 Y21.253 E0.3011
G1 X96.93 Y20.941 E0.31429
G1 X97.237 Y20.571 E0.33028
G1 X97.45 Y20.326 E0.34108
G1 X97.765 Y19.977 E0.35672
G1 X98.04 Y19.688 E0.36999
G1 X98.367 Y19.361 E0.38537
G1 X98.633 Y19.107 E0.3976
G1 X98.988 Y18.784 E0.41356
G1 X99.254 Y18.553 E0.42528
G1 X99.608 Y18.259 E0.44059
G1 X99.895 Y18.031 E0.45278
G1 X100.269 Y17.749 E0.46836
G1 X100.564 Y17.537 E0.48044
G1 X100.962 Y17.265 E0.49647
G1 X101.285 Y17.056 E0.50927
G1 X101.678 Y16.815 E0.5246
G1 X101.971 Y16.644 E0.53589
G1 X102.535 Y16.336 E0.55726
G1 X102.917 Y15.73 E0.58109
G1 X103.403 Y15.108 E0.60734
G1 X103.783 Y14.701 E0.62586
G1 X103.9 Y14.584 E0.63136
G1 X104.486 Y14.054 E0.65764
G1 X105.122 Y13.587 E0.68389
G1 X105.802 Y13.186 E0.71014
G1 X106.52 Y12.856 E0.73643
G1 X107.267 Y12.601 E0.76268
G1 X108.036 Y12.422 E0.78894
G1 X108.82 Y12.322 E0.81523
G1 X109.415 Y12.299 E0.83503
G1 X112.181 Y12.299 E0.92703
G1 X112.97 Y12.339 E0.9533
G1 X113.75 Y12.458 E0.97955
G1 X114.515 Y12.656 E1.00583
G1 X115.255 Y12.93 E1.03208
G1 X115.964 Y13.278 E1.05834
G1 X116.635 Y13.696 E1.08464
G1 X117.259 Y14.179 E1.11088
G1 X117.696 Y14.584 E1.1307
G1 X117.813 Y14.701 E1.1362
G1 X118.343 Y15.287 E1.16248
G1 X118.81 Y15.923 E1.18873
G1 X119.05 Y16.33 E1.20444
G1 X119.137 Y16.375 E1.2077
G1 X119.542 Y16.596 E1.22305
G1 X119.889 Y16.797 E1.23638
G1 X120.291 Y17.044 E1.25208
G1 X120.576 Y17.228 E1.26336
G1 X120.971 Y17.495 E1.27922
G1 X121.278 Y17.713 E1.29174
G1 X121.656 Y17.996 E1.30744
G1 X121.936 Y18.216 E1.31929
G1 X122.291 Y18.508 E1.33458
G1 X122.589 Y18.766 E1.34769
G1 X122.938 Y19.084 E1.36339
G1 X123.184 Y19.318 E1.37468
G1 X123.515 Y19.647 E1.39021
G1 X123.773 Y19.917 E1.40263
G1 X124.092 Y20.266 E1.41835
G1 X124.34 Y20.551 E1.43092
G1 X124.645 Y20.919 E1.44682
G1 X124.856 Y21.184 E1.45808
G1 X125.135 Y21.552 E1.47344
G1 X125.352 Y21.854 E1.48581
G1 X125.618 Y22.242 E1.50146
G1 X125.838 Y22.581 E1.5149
G1 X126.084 Y22.983 E1.53057
G1 X126.251 Y23.269 E1.54159
G1 X126.56 Y23.835 E1.56304
G1 X127.176 Y24.225 E1.58729
G1 X127.798 Y24.712 E1.61356
G1 X128.196 Y25.084 E1.63168
G1 X128.313 Y25.201 E1.63718
G1 X128.843 Y25.787 E1.66346
G1 X129.31 Y26.423 E1.68971
G1 X129.711 Y27.103 E1.71596
G1 X130.041 Y27.821 E1.74225
G1 X130.296 Y28.568 E1.7685
G1 X130.475 Y29.337 E1.79476
G1 X130.575 Y30.121 E1.82105
G1 X130.598 Y30.716 E1.84085
G1 X130.598 Y33.482 E1.93285
G1 X130.558 Y34.271 E1.95912
G1 X130.439 Y35.051 E1.98537
G1 X130.241 Y35.816 E2.01165
G1 X129.967 Y36.556 E2.0379
G1 X129.619 Y37.265 E2.06416
G1 X129.201 Y37.936 E2.09046
G1 X128.718 Y38.56 E2.1167
G1 X128.313 Y38.997 E2.13652
G1 X128.196 Y39.114 E2.14202
G1 X127.61 Y39.644 E2.1683
G1 X126.974 Y40.111 E2.19455
G1 X126.569 Y40.35 E2.21019
G1 X126.505 Y40.472 E2.21477
G1 X126.279 Y40.883 E2.23037
G1 X126.081 Y41.223 E2.24346
G1 X125.834 Y41.623 E2.25909
G1 X125.656 Y41.898 E2.26999
G1 X125.398 Y42.279 E2.28529
G1 X125.187 Y42.575 E2.29738
G1 X124.906 Y42.951 E2.31299
G1 X124.661 Y43.263 E2.32619
G1 X124.354 Y43.633 E2.34218
G1 X124.13 Y43.89 E2.35352
G1 X123.82 Y44.232 E2.36887
G1 X123.565 Y44.501 E2.3812
G1 X123.225 Y44.842 E2.39722
G1 X122.948 Y45.107 E2.40997
G1 X122.607 Y45.417 E2.42529
G1 X122.339 Y45.649 E2.43708
G1 X121.97 Y45.955 E2.45303
G1 X121.663 Y46.197 E2.46603
G1 X121.294 Y46.473 E2.48136
G1 X121.027 Y46.664 E2.49227
G1 X120.631 Y46.935 E2.50823
G1 X120.293 Y47.154 E2.52163
G1 X119.892 Y47.399 E2.53726
G1 X119.578 Y47.581 E2.54933
G1 X119.058 Y47.863 E2.569
G1 X118.697 Y48.442 E2.5917
G1 X118.213 Y49.066 E2.61796
G1 X117.813 Y49.497 E2.63752
G1 X117.696 Y49.614 E2.64303
G1 X117.11 Y50.144 E2.66931
G1 X116.474 Y50.611 E2.69555
G1 X115.794 Y51.012 E2.72181
G1 X115.076 Y51.342 E2.74809
G1 X114.838 Y51.423 E2.75645
G1 X115.242 Y51.528 E2.77033
G1 X115.982 Y51.802 E2.79658
G1 X116.691 Y52.15 E2.82285
G1 X117.362 Y52.568 E2.84914
G1 X117.986 Y53.051 E2.87539
G1 X118.423 Y53.456 E2.8952
G1 X118.54 Y53.573 E2.90071
G1 X119.07 Y54.159 E2.92699
G1 X119.537 Y54.795 E2.95323
G1 X119.776 Y55.201 E2.9689
G1 X119.871 Y55.25 E2.97245
G1 X120.277 Y55.472 E2.98784
G1 X120.61 Y55.665 E3.00065
G1 X121.018 Y55.915 E3.01656
G1 X121.321 Y56.11 E3.02855
G1 X121.7 Y56.367 E3.04378
G1 X121.986 Y56.571 E3.05546
G1 X122.372 Y56.859 E3.07148
G1 X122.673 Y57.095 E3.0842
G1 X123.028 Y57.388 E3.09951
G1 X123.321 Y57.643 E3.11243
G1 X123.676 Y57.967 E3.12841
G1 X123.908 Y58.187 E3.13905
G1 X124.234 Y58.51 E3.15431
G1 X124.51 Y58.798 E3.16758
G1 X124.828 Y59.147 E3.18328
G1 X125.067 Y59.423 E3.19543
G1 X125.372 Y59.791 E3.21132
G1 X125.583 Y60.056 E3.22259
G1 X125.862 Y60.424 E3.23795
G1 X126.079 Y60.726 E3.25032
G1 X126.345 Y61.114 E3.26597
G1 X126.565 Y61.453 E3.27941
G1 X126.811 Y61.855 E3.29508
G1 X126.967 Y62.121 E3.30534
G1 X127.195 Y62.529 E3.32088
G1 X127.289 Y62.708 E3.32761
G1 X127.903 Y63.097 E3.35178
G1 X128.525 Y63.584 E3.37806
G1 X128.923 Y63.956 E3.39618
G1 X129.04 Y64.073 E3.40168
G1 X129.57 Y64.659 E3.42796
G1 X130.037 Y65.295 E3.4542
G1 X130.438 Y65.975 E3.48046
G1 X130.768 Y66.693 E3.50674
G1 X131.023 Y67.44 E3.533
G1 X131.202 Y68.209 E3.55926
G1 X131.302 Y68.993 E3.58554
G1 X131.325 Y69.588 E3.60535
G1 X131.325 Y72.354 E3.69735
G1 X131.285 Y73.143 E3.72362
G1 X131.166 Y73.923 E3.74987
G1 X130.968 Y74.688 E3.77615
G1 X130.694 Y75.428 E3.80239
G1 X130.346 Y76.137 E3.82866
G1 X129.928 Y76.808 E3.85496
G1 X129.445 Y77.432 E3.8812
G1 X129.04 Y77.869 E3.90102
G1 X128.923 Y77.986 E3.90652
G1 X128.337 Y78.516 E3.9328
G1 X127.701 Y78.983 E3.95904
G1 X127.296 Y79.222 E3.97469
G1 X127.228 Y79.354 E3.97962
G1 X127 Y79.767 E3.99531
G1 X126.816 Y80.082 E4.00745
G1 X126.575 Y80.474 E4.02275
G1 X126.382 Y80.773 E4.03459
G1 X126.117 Y81.163 E4.05027
G1 X125.911 Y81.451 E4.06205
G1 X125.629 Y81.828 E4.07771
G1 X125.388 Y82.133 E4.09064
G1 X125.083 Y82.501 E4.10653
G1 X124.866 Y82.752 E4.11757
G1 X124.558 Y83.093 E4.13285
G1 X124.277 Y83.389 E4.14643
G1 X123.942 Y83.723 E4.16216
G1 X123.692 Y83.961 E4.17364
G1 X123.338 Y84.284 E4.18958
G1 X123.066 Y84.521 E4.20158
G1 X122.711 Y84.816 E4.21693
G1 X122.398 Y85.063 E4.23019
G1 X122.021 Y85.345 E4.24585
G1 X121.751 Y85.538 E4.25689
G1 X121.356 Y85.808 E4.2728
G1 X121.032 Y86.018 E4.28565
G1 X120.639 Y86.259 E4.30098
G1 X120.319 Y86.445 E4.31329
G1 X119.785 Y86.735 E4.3335
G1 X119.424 Y87.314 E4.3562
G1 X118.94 Y87.938 E4.38246
G1 X118.54 Y88.369 E4.40202
G1 X118.423 Y88.486 E4.40752
G1 X117.837 Y89.016 E4.4338
G1 X117.201 Y89.483 E4.46005
G1 X116.521 Y89.884 E4.4863
G1 X115.803 Y90.214 E4.51258
G1 X115.056 Y90.469 E4.53884
G1 X114.287 Y90.648 E4.5651
G1 X114.046 Y90.679 E4.57318
G1 X114.457 Y90.831 E4.58775
G1 X115.166 Y91.179 E4.61402
G1 X115.837 Y91.597 E4.64032
G1 X116.461 Y92.08 E4.66656
G1 X116.898 Y92.485 E4.68638
G1 X117.015 Y92.602 E4.69188
G1 X117.545 Y93.188 E4.71816
G1 X118.012 Y93.824 E4.74441
G1 X118.252 Y94.231 E4.76012
G1 X118.347 Y94.28 E4.76368
G1 X118.751 Y94.501 E4.77899
G1 X119.091 Y94.698 E4.79206
G1 X119.493 Y94.945 E4.80775
G1 X119.778 Y95.129 E4.81904
G1 X120.173 Y95.396 E4.8349
G1 X120.469 Y95.606 E4.84697
G1 X120.847 Y95.888 E4.86265
G1 X121.148 Y96.124 E4.87537
G1 X121.503 Y96.417 E4.89068
G1 X121.791 Y96.667 E4.90337
G1 X122.14 Y96.985 E4.91907
G1 X122.386 Y97.219 E4.93036
G1 X122.717 Y97.548 E4.94589
G1 X122.975 Y97.818 E4.95831
G1 X123.294 Y98.167 E4.97403
G1 X123.542 Y98.452 E4.9866
G1 X123.847 Y98.82 E5.0025
G1 X124.058 Y99.085 E5.01376
G1 X124.337 Y99.453 E5.02912
G1 X124.554 Y99.755 E5.04149
G1 X124.82 Y100.143 E5.05714
G1 X125.04 Y100.482 E5.07058
G1 X125.286 Y100.884 E5.08625
G1 X125.449 Y101.163 E5.097
G1 X125.676 Y101.571 E5.11253
G1 X125.762 Y101.737 E5.11875
G1 X126.378 Y102.126 E5.14298
G1 X127 Y102.613 E5.16925
G1 X127.398 Y102.985 E5.18737
G1 X127.515 Y103.102 E5.19288
G1 X128.045 Y103.688 E5.21916
G1 X128.512 Y104.324 E5.2454
G1 X128.913 Y105.004 E5.27166
G1 X129.243 Y105.722 E5.29794
G1 X129.498 Y106.469 E5.32419
G1 X129.677 Y107.238 E5.35045
G1 X129.777 Y108.022 E5.37674
G1 X129.8 Y108.617 E5.39654
G1 X129.8 Y111.383 E5.48854
G1 X129.76 Y112.172 E5.51482
G1 X129.641 Y112.952 E5.54106
G1 X129.443 Y113.717 E5.56734
G1 X129.169 Y114.457 E5.59359
G1 X128.821 Y115.166 E5.61986
G1 X128.403 Y115.837 E5.64615
G1 X127.92 Y116.461 E5.6724
G1 X127.515 Y116.898 E5.69221
G1 X127.398 Y117.015 E5.69772
G1 X126.812 Y117.545 E5.724
G1 X126.176 Y118.012 E5.75024
G1 X125.77 Y118.251 E5.76591
G1 X125.708 Y118.371 E5.7704
G1 X125.486 Y118.775 E5.78573
G1 X125.292 Y119.109 E5.79858
G1 X125.042 Y119.515 E5.81444
G1 X124.856 Y119.802 E5.82582
G1 X124.597 Y120.184 E5.84117
G1 X124.389 Y120.476 E5.85309
G1 X124.108 Y120.852 E5.8687
G1 X123.863 Y121.164 E5.8819
G1 X123.556 Y121.534 E5.89789
G1 X123.335 Y121.788 E5.90909
G1 X123.019 Y122.137 E5.92474
G1 X122.752 Y122.417 E5.93761
G1 X122.425 Y122.744 E5.95299
G1 X122.163 Y122.995 E5.96506
G1 X121.815 Y123.312 E5.98072
G1 X121.541 Y123.55 E5.99279
G1 X121.172 Y123.856 E6.00873
G1 X120.862 Y124.1 E6.02185
G1 X120.486 Y124.381 E6.03747
G1 X120.209 Y124.579 E6.04879
G1 X119.826 Y124.84 E6.06421
G1 X119.515 Y125.041 E6.07652
G1 X119.116 Y125.286 E6.0921
G1 X118.807 Y125.466 E6.10399
G1 X118.26 Y125.764 E6.12471
G1 X117.899 Y126.343 E6.1474
G1 X117.415 Y126.967 E6.17367
G1 X117.015 Y127.398 E6.19323
G1 X116.898 Y127.515 E6.19873
G1 X116.312 Y128.045 E6.22501
G1 X115.689 Y128.502 E6.25071
G1 X116.054 Y128.681 E6.26423
G1 X116.725 Y129.099 E6.29052
G1 X117.349 Y129.582 E6.31677
G1 X117.786 Y129.987 E6.33658
G1 X117.903 Y130.104 E6.34209
G1 X118.433 Y130.69 E6.36837
G1 X118.9 Y131.326 E6.39461
G1 X119.14 Y131.733 E6.41032
G1 X119.227 Y131.778 E6.41358
G1 X119.632 Y131.999 E6.42893
G1 X119.979 Y132.2 E6.44227
G1 X120.381 Y132.447 E6.45796
G1 X120.666 Y132.631 E6.46924
G1 X121.061 Y132.898 E6.4851
G1 X121.386 Y133.13 E6.49838
G1 X121.763 Y133.414 E6.51408
G1 X122.017 Y133.613 E6.52481
G1 X122.373 Y133.905 E6.54013
G1 X122.679 Y134.17 E6.55359
G1 X123.027 Y134.487 E6.56925
G1 X123.273 Y134.721 E6.58054
G1 X123.605 Y135.051 E6.59611
G1 X123.867 Y135.325 E6.60872
G1 X124.191 Y135.68 E6.6247
G1 X124.437 Y135.963 E6.63717
G1 X124.731 Y136.318 E6.6525
G1 X124.936 Y136.576 E6.66346
G1 X125.22 Y136.95 E6.67908
G1 X125.447 Y137.264 E6.69197
G1 X125.713 Y137.653 E6.70764
G1 X125.923 Y137.977 E6.72049
G1 X126.169 Y138.378 E6.73613
G1 X126.337 Y138.666 E6.74722
G1 X126.65 Y139.238 E6.76891
G1 X127.266 Y139.628 E6.79316
G1 X127.888 Y140.115 E6.81943
G1 X128.286 Y140.487 E6.83755
G1 X128.403 Y140.604 E6.84306
G1 X128.933 Y141.19 E6.86934
G1 X129.4 Y141.826 E6.89558
G1 X129.801 Y142.506 E6.92184
G1 X130.131 Y143.224 E6.94812
G1 X130.386 Y143.971 E6.97437
G1 X130.565 Y144.74 E7.00063
G1 X130.665 Y145.524 E7.02692
G1 X130.688 Y146.119 E7.04672
G1 X130.688 Y148.885 E7.13872
G1 X130.648 Y149.674 E7.165
G1 X130.529 Y150.454 E7.19124
G1 X130.331 Y151.219 E7.21752
G1 X130.057 Y151.959 E7.24377
G1 X129.709 Y152.668 E7.27004
G1 X129.291 Y153.339 E7.29633
G1 X128.808 Y153.963 E7.32258
G1 X128.403 Y154.4 E7.34239
G1 X128.286 Y154.517 E7.3479
G1 X127.7 Y155.047 E7.37418
G1 X127.064 Y155.514 E7.40042
G1 X126.659 Y155.753 E7.41606
G1 X126.599 Y155.868 E7.42038
G1 X126.373 Y156.28 E7.436
G1 X126.176 Y156.619 E7.44905
G1 X125.934 Y157.012 E7.4644
G1 X125.743 Y157.306 E7.47606
G1 X125.48 Y157.693 E7.49162
G1 X125.259 Y158.002 E7.50426
G1 X124.969 Y158.387 E7.52029
G1 X124.762 Y158.651 E7.53144
G1 X124.469 Y159.007 E7.54678
G1 X124.215 Y159.299 E7.55965
G1 X123.892 Y159.654 E7.57562
G1 X123.647 Y159.912 E7.58745
G1 X123.322 Y160.238 E7.60276
G1 X123.047 Y160.5 E7.61539
G1 X122.692 Y160.823 E7.63136
G1 X122.416 Y161.063 E7.64352
G1 X122.062 Y161.356 E7.65881
G1 X121.779 Y161.579 E7.67079
G1 X121.395 Y161.868 E7.68677
G1 X121.097 Y162.082 E7.69898
G1 X120.714 Y162.343 E7.71439
G1 X120.403 Y162.544 E7.72671
G1 X120.004 Y162.789 E7.74228
G1 X119.681 Y162.977 E7.75471
G1 X119.148 Y163.267 E7.77489
G1 X118.787 Y163.845 E7.79756
G1 X118.303 Y164.469 E7.82382
G1 X117.903 Y164.9 E7.84338
G1 X117.786 Y165.017 E7.84888
G1 X117.2 Y165.547 E7.87516
G1 X116.564 Y166.014 E7.90141
G1 X115.884 Y166.415 E7.92766
G1 X115.166 Y166.745 E7.95395
G1 X114.419 Y167 E7.9802
G1 X113.65 Y167.179 E8.00646
G1 X112.866 Y167.279 E8.03275
G1 X112.271 Y167.302 E8.05255
G1 X109.505 Y167.302 E8.14455
G1 X108.716 Y167.262 E8.17083
G1 X107.936 Y167.143 E8.19707
G1 X107.171 Y166.945 E8.22335
G1 X106.431 Y166.671 E8.2496
G1 X105.722 Y166.323 E8.27587
G1 X105.051 Y165.905 E8.30216
G1 X104.427 Y165.422 E8.3284
G1 X103.99 Y165.017 E8.34822
G1 X103.873 Y164.9 E8.35373
G1 X103.343 Y164.314 E8.38
G1 X102.876 Y163.678 E8.40625
G1 X102.638 Y163.274 E8.42184
G1 X102.522 Y163.214 E8.42619
G1 X102.116 Y162.991 E8.44159
G1 X101.785 Y162.798 E8.45434
G1 X101.385 Y162.552 E8.46996
G1 X101.103 Y162.37 E8.48112
G1 X100.708 Y162.103 E8.49698
G1 X100.383 Y161.871 E8.51026
G1 X100.006 Y161.587 E8.52596
G1 X99.738 Y161.376 E8.5373
G1 X99.374 Y161.076 E8.55299
G1 X99.083 Y160.824 E8.56579
G1 X98.736 Y160.508 E8.5814
G1 X98.481 Y160.265 E8.59312
G1 X98.153 Y159.938 E8.60852
G1 X97.889 Y159.662 E8.62123
G1 X97.568 Y159.309 E8.6371
G1 X97.332 Y159.036 E8.6491
G1 X97.038 Y158.681 E8.66443
G1 X96.817 Y158.402 E8.67627
G1 X96.529 Y158.02 E8.69218
G1 X96.321 Y157.73 E8.70405
G1 X96.054 Y157.34 E8.71977
G1 X95.838 Y157.007 E8.73297
G1 X95.598 Y156.615 E8.74826
G1 X95.419 Y156.308 E8.76008
G1 X95.122 Y155.763 E8.78072
G1 X94.532 Y155.392 E8.8039
G1 X93.909 Y154.907 E8.83016
G1 X93.49 Y154.517 E8.8492
G1 X93.373 Y154.4 E8.8547
G1 X92.843 Y153.814 E8.88098
G1 X92.376 Y153.178 E8.90723
G1 X91.975 Y152.498 E8.93348
G1 X91.645 Y151.78 E8.95977
G1 X91.39 Y151.033 E8.98602
G1 X91.211 Y150.264 E9.01228
G1 X91.111 Y149.48 E9.03857
G1 X91.088 Y148.885 E9.05837
G1 X91.088 Y146.119 E9.15037
G1 X91.128 Y145.33 E9.17665
G1 X91.247 Y144.55 E9.20289
G1 X91.445 Y143.785 E9.22917
G1 X91.719 Y143.045 E9.25542
G1 X92.067 Y142.336 E9.28169
G1 X92.485 Y141.665 E9.30798
G1 X92.968 Y141.041 E9.33422
G1 X93.373 Y140.604 E9.35404
G1 X93.49 Y140.487 E9.35954
G1 X94.076 Y139.957 E9.38582
G1 X94.712 Y139.49 E9.41207
G1 X95.116 Y139.252 E9.42766
G1 X95.181 Y139.126 E9.43238
G1 X95.409 Y138.713 E9.44807
G1 X95.594 Y138.397 E9.46025
G1 X95.84 Y137.997 E9.47587
G1 X96.028 Y137.706 E9.48739
G1 X96.287 Y137.324 E9.50274
G1 X96.497 Y137.029 E9.51478
G1 X96.785 Y136.644 E9.53078
G1 X97.015 Y136.351 E9.54316
G1 X97.308 Y135.996 E9.55847
G1 X97.538 Y135.73 E9.57017
G1 X97.858 Y135.376 E9.58604
G1 X98.129 Y135.092 E9.5991
G1 X98.457 Y134.764 E9.61453
G1 X98.724 Y134.509 E9.62681
G1 X99.078 Y134.187 E9.64272
G1 X99.351 Y133.95 E9.65475
